;Generated with Cura_SteamEngine 15.01
G28 ; Home extruder
G1 Z5 F300
G1 Z0 F300
M106 S165 ; Turn on fan
G90 ; Absolute positioning
M82 ; Extruder in absolute mode
; Activate all used extruder
M104 T0 S200
G92 E0 ; Reset extruder position
; Wait for all used extruders to reach temperature
M109 T0 S200
T0
M83
G1 E10 F100
M82
G92 E0 ; Reset extruder position
M117 Vertex is printing
G1 F300 Z5
;Layer count: 25
;LAYER:0
M106 S255
G0 F8400 X11.733 Y67.933 Z0.200
;TYPE:SKIRT
G1 F1800 X150.867 Y67.933 E2.73319
G1 X150.867 Y137.067 E4.09127
G1 X11.733 Y137.067 E6.82446
G1 X11.733 Y67.933 E8.18254
G0 F8400 X12.048 Y68.248
G1 F1800 X150.552 Y68.248 E10.90335
G1 X150.552 Y136.752 E12.24906
G1 X12.048 Y136.752 E14.96987
G1 X12.048 Y68.248 E16.31559
G0 F8400 X12.363 Y68.563
G1 F1800 X150.237 Y68.563 E19.02402
G1 X150.237 Y136.437 E20.35735
G1 X12.363 Y136.437 E23.06579
G1 X12.363 Y68.563 E24.39912
G0 F8400 X12.678 Y68.878
G1 F1800 X149.922 Y68.878 E27.09518
G1 X149.922 Y136.122 E28.41614
G1 X12.678 Y136.122 E31.11220
G1 X12.678 Y68.878 E32.43316
G0 F8400 X12.993 Y69.193
G1 F1800 X149.607 Y69.193 E35.11684
G1 X149.607 Y135.807 E36.42542
G1 X12.993 Y135.807 E39.10910
G1 X12.993 Y69.193 E40.41769
G0 F8400 X13.308 Y69.508
G1 F1800 X149.292 Y69.508 E43.08899
G1 X149.292 Y135.492 E44.38520
G1 X13.308 Y135.492 E47.05651
G1 X13.308 Y69.508 E48.35271
G0 F8400 X13.623 Y69.823
G1 F1800 X148.977 Y69.823 E51.01164
G1 X148.977 Y135.177 E52.29548
G1 X13.623 Y135.177 E54.95441
G1 X13.623 Y69.823 E56.23824
G0 F8400 X13.938 Y70.138
G1 F1800 X148.662 Y70.138 E58.88479
G1 X148.662 Y134.862 E60.15625
G1 X13.938 Y134.862 E62.80280
G1 X13.938 Y70.138 E64.07426
G0 F8400 X14.253 Y70.453
G1 F1800 X148.347 Y70.453 E66.70843
G1 X148.347 Y134.547 E67.96751
G1 X14.253 Y134.547 E70.60169
G1 X14.253 Y70.453 E71.86077
G0 F8400 X14.568 Y70.768
G1 F1800 X148.032 Y70.768 E74.48258
G1 X148.032 Y134.232 E75.72928
G1 X14.568 Y134.232 E78.35108
G1 X14.568 Y70.768 E79.59779
G0 F8400 X14.883 Y71.083
G1 F1800 X147.717 Y71.083 E82.20721
G1 X147.717 Y133.917 E83.44154
G1 X14.883 Y133.917 E86.05097
G1 X14.883 Y71.083 E87.28529
G0 F8400 X15.198 Y71.398
G1 F1800 X147.402 Y71.398 E89.88234
G1 X147.402 Y133.602 E91.10430
G1 X15.198 Y133.602 E93.70135
G1 X15.198 Y71.398 E94.92330
G0 F8400 X15.513 Y71.713
G1 F1800 X147.087 Y71.713 E97.50797
G1 X147.087 Y133.287 E98.71755
G1 X15.513 Y133.287 E101.30223
G1 X15.513 Y71.713 E102.51180
G0 F8400 X15.828 Y72.028
G1 F1800 X146.772 Y72.028 E105.08410
G1 X146.772 Y132.972 E106.28130
G1 X15.828 Y132.972 E108.85360
G1 X15.828 Y72.028 E110.05080
G0 F8400 X16.143 Y72.343
G1 F1800 X146.457 Y72.343 E112.61072
G1 X146.457 Y132.657 E113.79555
G1 X16.143 Y132.657 E116.35547
G1 X16.143 Y72.343 E117.54029
G0 F8400 X16.772 Y72.972
;TYPE:WALL-INNER
G1 F1800 X145.828 Y72.972 E120.07551
G1 X145.828 Y132.028 E121.23562
G1 X16.772 Y132.028 E123.77083
G1 X16.772 Y72.972 E124.93094
G0 F8400 X20.359 Y76.362
G1 F1800 X20.105 Y76.633 E124.93824
G1 X19.928 Y76.956 E124.94547
G1 X19.835 Y77.314 E124.95274
G1 X19.835 Y77.685 E124.96003
G1 X19.928 Y78.043 E124.96729
G1 X20.105 Y78.366 E124.97453
G1 X20.359 Y78.637 E124.98182
G1 X20.671 Y78.834 E124.98907
G1 X21.022 Y78.949 E124.99633
G1 X21.392 Y78.973 E125.00361
G1 X21.756 Y78.903 E125.01089
G1 X22.091 Y78.745 E125.01817
G1 X22.375 Y78.510 E125.02541
G1 X22.593 Y78.210 E125.03269
G1 X22.729 Y77.867 E125.03994
G1 X22.776 Y77.500 E125.04721
G1 X22.729 Y77.132 E125.05450
G1 X22.593 Y76.789 E125.06175
G1 X22.375 Y76.489 E125.06903
G1 X22.091 Y76.254 E125.07627
G1 X21.756 Y76.096 E125.08355
G1 X21.392 Y76.026 E125.09083
G1 X21.022 Y76.050 E125.09811
G1 X20.671 Y76.165 E125.10537
G1 X20.359 Y76.362 E125.11262
G0 F8400 X19.794 Y77.309
G0 X20.072 Y78.391
G0 X21.392 Y126.026
G1 F1800 X21.022 Y126.050 E125.11990
G1 X20.671 Y126.165 E125.12716
G1 X20.359 Y126.362 E125.13441
G1 X20.105 Y126.633 E125.14170
G1 X19.928 Y126.956 E125.14894
G1 X19.835 Y127.314 E125.15620
G1 X19.835 Y127.685 E125.16349
G1 X19.928 Y128.043 E125.17076
G1 X20.105 Y128.366 E125.17799
G1 X20.359 Y128.637 E125.18529
G1 X20.671 Y128.834 E125.19254
G1 X21.022 Y128.949 E125.19980
G1 X21.392 Y128.973 E125.20708
G1 X21.756 Y128.903 E125.21436
G1 X22.091 Y128.745 E125.22164
G1 X22.375 Y128.510 E125.22888
G1 X22.593 Y128.210 E125.23616
G1 X22.729 Y127.867 E125.24341
G1 X22.776 Y127.500 E125.25068
G1 X22.729 Y127.132 E125.25797
G1 X22.593 Y126.789 E125.26522
G1 X22.375 Y126.489 E125.27250
G1 X22.091 Y126.254 E125.27974
G1 X21.756 Y126.096 E125.28702
G1 X21.392 Y126.026 E125.29430
G0 F8400 X139.835 Y127.314
G1 F1800 X139.835 Y127.685 E125.30159
G1 X139.928 Y128.043 E125.30885
G1 X140.105 Y128.366 E125.31609
G1 X140.359 Y128.637 E125.32338
G1 X140.671 Y128.834 E125.33063
G1 X141.022 Y128.949 E125.33789
G1 X141.392 Y128.973 E125.34517
G1 X141.756 Y128.903 E125.35245
G1 X142.091 Y128.745 E125.35973
G1 X142.375 Y128.510 E125.36697
G1 X142.593 Y128.210 E125.37426
G1 X142.729 Y127.867 E125.38150
G1 X142.776 Y127.500 E125.38877
G1 X142.729 Y127.132 E125.39606
G1 X142.593 Y126.789 E125.40331
G1 X142.375 Y126.489 E125.41059
G1 X142.091 Y126.254 E125.41784
G1 X141.756 Y126.096 E125.42511
G1 X141.392 Y126.026 E125.43239
G1 X141.022 Y126.050 E125.43968
G1 X140.671 Y126.165 E125.44693
G1 X140.359 Y126.362 E125.45418
G1 X140.105 Y126.633 E125.46148
G1 X139.928 Y126.956 E125.46871
G1 X139.835 Y127.314 E125.47598
G0 F8400 X141.392 Y78.973
G1 F1800 X141.756 Y78.903 E125.48326
G1 X142.091 Y78.745 E125.49054
G1 X142.375 Y78.510 E125.49778
G1 X142.593 Y78.210 E125.50506
G1 X142.729 Y77.867 E125.51231
G1 X142.776 Y77.500 E125.51958
G1 X142.729 Y77.132 E125.52687
G1 X142.593 Y76.789 E125.53412
G1 X142.375 Y76.489 E125.54140
G1 X142.091 Y76.254 E125.54864
G1 X141.756 Y76.096 E125.55592
G1 X141.392 Y76.026 E125.56320
G1 X141.022 Y76.050 E125.57048
G1 X140.671 Y76.165 E125.57774
G1 X140.359 Y76.362 E125.58499
G1 X140.105 Y76.633 E125.59228
G1 X139.928 Y76.956 E125.59952
G1 X139.835 Y77.314 E125.60678
G1 X139.835 Y77.685 E125.61407
G1 X139.928 Y78.043 E125.62134
G1 X140.105 Y78.366 E125.62857
G1 X140.359 Y78.637 E125.63587
G1 X140.671 Y78.834 E125.64312
G1 X141.022 Y78.949 E125.65038
G1 X141.392 Y78.973 E125.65766
G0 F8400 X141.372 Y78.656
;TYPE:WALL-OUTER
G1 F1800 X141.658 Y78.601 E125.66338
G1 X141.920 Y78.477 E125.66907
G1 X142.143 Y78.292 E125.67477
G1 X142.315 Y78.057 E125.68049
G1 X142.421 Y77.787 E125.68618
G1 X142.458 Y77.500 E125.69187
G1 X142.421 Y77.212 E125.69757
G1 X142.315 Y76.942 E125.70327
G1 X142.143 Y76.707 E125.70899
G1 X141.920 Y76.522 E125.71468
G1 X141.658 Y76.398 E125.72038
G1 X141.372 Y76.343 E125.72610
G1 X141.082 Y76.362 E125.73181
G1 X140.807 Y76.452 E125.73749
G1 X140.561 Y76.607 E125.74320
G1 X140.362 Y76.819 E125.74892
G1 X140.223 Y77.073 E125.75460
G1 X140.150 Y77.354 E125.76031
G1 X140.150 Y77.645 E125.76602
G1 X140.223 Y77.926 E125.77173
G1 X140.362 Y78.180 E125.77742
G1 X140.561 Y78.392 E125.78313
G1 X140.807 Y78.547 E125.78884
G1 X141.082 Y78.637 E125.79452
G1 X141.372 Y78.656 E125.80023
G0 F8400 X141.357 Y78.913
G0 X142.405 Y78.537
G0 X142.818 Y77.500
G0 X145.885 Y72.825
G0 X146.143 Y72.657
G1 F1800 X146.143 Y132.343 E126.97272
G1 X16.457 Y132.343 E129.52031
G1 X16.457 Y72.657 E130.69279
G1 X146.143 Y72.657 E133.24038
G0 F8400 X145.885 Y72.825
G0 X141.419 Y126.090
G0 X141.372 Y126.343
G1 F1800 X141.082 Y126.362 E133.24609
G1 X140.807 Y126.452 E133.25177
G1 X140.561 Y126.607 E133.25749
G1 X140.362 Y126.819 E133.26320
G1 X140.223 Y127.073 E133.26889
G1 X140.150 Y127.354 E133.27459
G1 X140.150 Y127.645 E133.28030
G1 X140.223 Y127.926 E133.28601
G1 X140.362 Y128.180 E133.29170
G1 X140.561 Y128.392 E133.29741
G1 X140.807 Y128.547 E133.30312
G1 X141.082 Y128.637 E133.30880
G1 X141.372 Y128.656 E133.31451
G1 X141.658 Y128.601 E133.32023
G1 X141.920 Y128.477 E133.32593
G1 X142.143 Y128.292 E133.33162
G1 X142.315 Y128.057 E133.33734
G1 X142.421 Y127.787 E133.34304
G1 X142.458 Y127.500 E133.34872
G1 X142.421 Y127.212 E133.35443
G1 X142.315 Y126.942 E133.36013
G1 X142.143 Y126.707 E133.36585
G1 X141.920 Y126.522 E133.37154
G1 X141.658 Y126.398 E133.37723
G1 X141.372 Y126.343 E133.38295
G0 F8400 X141.419 Y126.090
G0 X22.714 Y127.533
G0 X22.458 Y127.500
G1 F1800 X22.421 Y127.212 E133.38866
G1 X22.315 Y126.942 E133.39436
G1 X22.143 Y126.707 E133.40008
G1 X21.920 Y126.522 E133.40577
G1 X21.658 Y126.398 E133.41146
G1 X21.372 Y126.343 E133.41718
G1 X21.082 Y126.362 E133.42289
G1 X20.807 Y126.452 E133.42858
G1 X20.561 Y126.607 E133.43429
G1 X20.362 Y126.819 E133.44000
G1 X20.223 Y127.073 E133.44569
G1 X20.150 Y127.354 E133.45139
G1 X20.150 Y127.645 E133.45711
G1 X20.223 Y127.926 E133.46281
G1 X20.362 Y128.180 E133.46850
G1 X20.561 Y128.392 E133.47421
G1 X20.807 Y128.547 E133.47992
G1 X21.082 Y128.637 E133.48561
G1 X21.372 Y128.656 E133.49132
G1 X21.658 Y128.601 E133.49704
G1 X21.920 Y128.477 E133.50273
G1 X22.143 Y128.292 E133.50842
G1 X22.315 Y128.057 E133.51414
G1 X22.421 Y127.787 E133.51984
G1 X22.458 Y127.500 E133.52553
G0 F8400 X22.714 Y127.533
G0 X21.357 Y78.913
G0 X21.372 Y78.656
G1 F1800 X21.658 Y78.601 E133.53125
G1 X21.920 Y78.477 E133.53694
G1 X22.143 Y78.292 E133.54263
G1 X22.315 Y78.057 E133.54835
G1 X22.421 Y77.787 E133.55405
G1 X22.458 Y77.500 E133.55974
G1 X22.421 Y77.212 E133.56544
G1 X22.315 Y76.942 E133.57114
G1 X22.143 Y76.707 E133.57686
G1 X21.920 Y76.522 E133.58255
G1 X21.658 Y76.398 E133.58825
G1 X21.372 Y76.343 E133.59397
G1 X21.082 Y76.362 E133.59968
G1 X20.807 Y76.452 E133.60536
G1 X20.561 Y76.607 E133.61107
G1 X20.362 Y76.819 E133.61678
G1 X20.223 Y77.073 E133.62247
G1 X20.150 Y77.354 E133.62818
G1 X20.150 Y77.645 E133.63389
G1 X20.223 Y77.926 E133.63960
G1 X20.362 Y78.180 E133.64528
G1 X20.561 Y78.392 E133.65100
G1 X20.807 Y78.547 E133.65671
G1 X21.082 Y78.637 E133.66239
G1 X21.372 Y78.656 E133.66810
G0 F8400 X21.446 Y79.136
;TYPE:SKIN
G1 F1800 X74.165 Y131.855 E135.13270
G0 F8400 X73.720 Y131.855
G1 F1800 X20.981 Y79.116 E136.59785
G0 F8400 X21.817 Y79.062
G1 F1800 X74.611 Y131.855 E138.06451
G0 F8400 X75.056 Y131.855
G1 F1800 X22.121 Y78.920 E139.53511
G0 F8400 X22.377 Y78.731
G1 F1800 X75.502 Y131.855 E141.01097
G0 F8400 X75.947 Y131.855
G1 F1800 X22.592 Y78.500 E142.49324
G0 F8400 X22.768 Y78.231
G1 F1800 X76.392 Y131.855 E143.98298
G0 F8400 X76.838 Y131.855
G1 F1800 X22.896 Y77.913 E145.48155
G0 F8400 X22.946 Y77.517
G1 F1800 X77.283 Y131.855 E146.99111
G0 F8400 X77.729 Y131.855
G1 F1800 X22.853 Y76.979 E148.51563
G0 F8400 X21.804 Y75.930
G1 F1800 X19.017 Y73.143 E148.59306
G0 F8400 X18.572 Y73.143
G1 F1800 X21.287 Y75.859 E148.66850
G0 F8400 X20.892 Y75.910
G1 F1800 X18.126 Y73.143 E148.74535
G0 F8400 X17.681 Y73.143
G1 F1800 X20.564 Y76.027 E148.82546
G0 F8400 X20.291 Y76.199
G1 F1800 X17.235 Y73.143 E148.91036
G0 F8400 X16.943 Y73.297
G1 F1800 X20.066 Y76.420 E148.99712
G0 F8400 X20.354 Y73.143
G1 F1800 X79.065 Y131.855 E150.62820
G0 F8400 X78.620 Y131.855
G1 F1800 X19.908 Y73.143 E152.25929
G0 F8400 X19.463 Y73.143
G1 F1800 X78.174 Y131.855 E153.89036
G0 F8400 X79.511 Y131.855
G1 F1800 X20.799 Y73.143 E155.52145
G0 F8400 X21.245 Y73.143
G1 F1800 X79.956 Y131.855 E157.15253
G0 F8400 X73.274 Y131.855
G1 F1800 X16.943 Y75.524 E158.71747
G0 F8400 X16.943 Y75.079
G1 F1800 X19.695 Y77.831 E158.79392
G0 F8400 X19.663 Y77.353
G1 F1800 X16.943 Y74.633 E158.86949
G0 F8400 X16.943 Y74.188
G1 F1800 X19.742 Y76.986 E158.94723
G0 F8400 X19.882 Y76.681
G1 F1800 X16.943 Y73.742 E159.02888
G0 F8400 X16.943 Y75.970
G1 F1800 X72.829 Y131.855 E160.58145
G0 F8400 X72.383 Y131.855
G1 F1800 X16.943 Y76.415 E162.12164
G0 F8400 X16.943 Y76.861
G1 F1800 X71.938 Y131.855 E163.64945
G0 F8400 X71.492 Y131.855
G1 F1800 X16.943 Y77.306 E165.16488
G0 F8400 X16.943 Y77.752
G1 F1800 X71.047 Y131.855 E166.66794
G0 F8400 X70.601 Y131.855
G1 F1800 X16.943 Y78.197 E168.15863
G0 F8400 X16.943 Y78.643
G1 F1800 X70.156 Y131.855 E169.63693
G0 F8400 X69.710 Y131.855
G1 F1800 X16.943 Y79.088 E171.10286
G0 F8400 X16.943 Y79.533
G1 F1800 X69.265 Y131.855 E172.55643
G0 F8400 X68.819 Y131.855
G1 F1800 X16.943 Y79.979 E173.99761
G0 F8400 X16.943 Y80.424
G1 F1800 X68.374 Y131.855 E175.42642
G0 F8400 X67.928 Y131.855
G1 F1800 X16.943 Y80.870 E176.84285
G0 F8400 X16.943 Y81.315
G1 F1800 X67.483 Y131.855 E178.24691
G0 F8400 X67.037 Y131.855
G1 F1800 X16.943 Y81.761 E179.63858
G0 F8400 X16.943 Y82.206
G1 F1800 X66.592 Y131.855 E181.01789
G0 F8400 X66.147 Y131.855
G1 F1800 X16.943 Y82.652 E182.38482
G0 F8400 X16.943 Y83.097
G1 F1800 X65.701 Y131.855 E183.73937
G0 F8400 X65.256 Y131.855
G1 F1800 X16.943 Y83.543 E185.08155
G0 F8400 X16.943 Y83.988
G1 F1800 X64.810 Y131.855 E186.41135
G0 F8400 X64.365 Y131.855
G1 F1800 X16.943 Y84.434 E187.72878
G0 F8400 X16.943 Y84.879
G1 F1800 X63.919 Y131.855 E189.03383
G0 F8400 X63.474 Y131.855
G1 F1800 X16.943 Y85.325 E190.32650
G0 F8400 X16.943 Y85.770
G1 F1800 X63.028 Y131.855 E191.60680
G0 F8400 X62.583 Y131.855
G1 F1800 X16.943 Y86.216 E192.87472
G0 F8400 X16.943 Y86.661
G1 F1800 X62.137 Y131.855 E194.13026
G0 F8400 X61.692 Y131.855
G1 F1800 X16.943 Y87.107 E195.37343
G0 F8400 X16.943 Y87.552
G1 F1800 X61.246 Y131.855 E196.60422
G0 F8400 X60.801 Y131.855
G1 F1800 X16.943 Y87.998 E197.82263
G0 F8400 X16.943 Y88.443
G1 F1800 X60.355 Y131.855 E199.02867
G0 F8400 X59.910 Y131.855
G1 F1800 X16.943 Y88.888 E200.22234
G0 F8400 X16.943 Y89.334
G1 F1800 X59.464 Y131.855 E201.40363
G0 F8400 X59.019 Y131.855
G1 F1800 X16.943 Y89.779 E202.57255
G0 F8400 X16.943 Y90.225
G1 F1800 X58.573 Y131.855 E203.72908
G0 F8400 X58.128 Y131.855
G1 F1800 X16.943 Y90.670 E204.87325
G0 F8400 X16.943 Y91.116
G1 F1800 X57.682 Y131.855 E206.00502
G0 F8400 X57.237 Y131.855
G1 F1800 X16.943 Y91.561 E207.12444
G0 F8400 X16.943 Y92.007
G1 F1800 X56.791 Y131.855 E208.23146
G0 F8400 X56.346 Y131.855
G1 F1800 X16.943 Y92.452 E209.32613
G0 F8400 X16.943 Y92.898
G1 F1800 X55.901 Y131.855 E210.40841
G0 F8400 X55.455 Y131.855
G1 F1800 X16.943 Y93.343 E211.47832
G0 F8400 X16.943 Y93.789
G1 F1800 X55.010 Y131.855 E212.53585
G0 F8400 X54.564 Y131.855
G1 F1800 X16.943 Y94.234 E213.58101
G0 F8400 X16.943 Y94.680
G1 F1800 X54.119 Y131.855 E214.61379
G0 F8400 X53.673 Y131.855
G1 F1800 X16.943 Y95.125 E215.63419
G0 F8400 X16.943 Y95.571
G1 F1800 X53.228 Y131.855 E216.64222
G0 F8400 X52.782 Y131.855
G1 F1800 X16.943 Y96.016 E217.63787
G0 F8400 X16.943 Y96.462
G1 F1800 X52.337 Y131.855 E218.62114
G0 F8400 X51.891 Y131.855
G1 F1800 X16.943 Y96.907 E219.59204
G0 F8400 X16.943 Y97.353
G1 F1800 X51.446 Y131.855 E220.55056
G0 F8400 X51.000 Y131.855
G1 F1800 X16.943 Y97.798 E221.49670
G0 F8400 X16.943 Y98.244
G1 F1800 X50.555 Y131.855 E222.43047
G0 F8400 X50.109 Y131.855
G1 F1800 X16.943 Y98.689 E223.35186
G0 F8400 X16.943 Y99.134
G1 F1800 X49.664 Y131.855 E224.26089
G0 F8400 X49.218 Y131.855
G1 F1800 X16.943 Y99.580 E225.15753
G0 F8400 X16.943 Y100.025
G1 F1800 X48.773 Y131.855 E226.04180
G0 F8400 X48.327 Y131.855
G1 F1800 X16.943 Y100.471 E226.91369
G0 F8400 X16.943 Y100.916
G1 F1800 X47.882 Y131.855 E227.77321
G0 F8400 X47.436 Y131.855
G1 F1800 X16.943 Y101.362 E228.62034
G0 F8400 X16.943 Y101.807
G1 F1800 X46.991 Y131.855 E229.45511
G0 F8400 X46.546 Y131.855
G1 F1800 X16.943 Y102.253 E230.27750
G0 F8400 X16.943 Y102.698
G1 F1800 X46.100 Y131.855 E231.08752
G0 F8400 X45.655 Y131.855
G1 F1800 X16.943 Y103.144 E231.88516
G0 F8400 X16.943 Y103.589
G1 F1800 X45.209 Y131.855 E232.67042
G0 F8400 X44.764 Y131.855
G1 F1800 X16.943 Y104.035 E233.44331
G0 F8400 X16.943 Y104.480
G1 F1800 X44.318 Y131.855 E234.20382
G0 F8400 X43.873 Y131.855
G1 F1800 X16.943 Y104.926 E234.95195
G0 F8400 X16.943 Y105.371
G1 F1800 X43.427 Y131.855 E235.68771
G0 F8400 X42.982 Y131.855
G1 F1800 X16.943 Y105.817 E236.41109
G0 F8400 X16.943 Y106.262
G1 F1800 X42.536 Y131.855 E237.12210
G0 F8400 X42.091 Y131.855
G1 F1800 X16.943 Y106.708 E237.82072
G0 F8400 X16.943 Y107.153
G1 F1800 X41.645 Y131.855 E238.50697
G0 F8400 X41.200 Y131.855
G1 F1800 X16.943 Y107.599 E239.18085
G0 F8400 X16.943 Y108.044
G1 F1800 X40.754 Y131.855 E239.84235
G0 F8400 X40.309 Y131.855
G1 F1800 X16.943 Y108.489 E240.49148
