;Generated with Cura_SteamEngine 15.01
G28 ; Home extruder
G1 Z5 F300
G1 Z0 F300
M106 S165 ; Turn on fan
G90 ; Absolute positioning
M82 ; Extruder in absolute mode
; Activate all used extruder
M104 T0 S200
G92 E0 ; Reset extruder position
; Wait for all used extruders to reach temperature
M109 T0 S200
T0
M83
G1 E10 F100
M82
G92 E0 ; Reset extruder position
M117 Vertex is printing
G1 F300 Z5
;Layer count: 275
;LAYER:0
M106 S255
G0 F8400 X11.733 Y67.933 Z0.200
;TYPE:SKIRT
G1 F1800 X150.867 Y67.933 E2.73319
G1 X150.867 Y137.067 E4.09127
G1 X11.733 Y137.067 E6.82446
G1 X11.733 Y67.933 E8.18254
G0 F8400 X12.048 Y68.248
G1 F1800 X150.552 Y68.248 E10.90335
G1 X150.552 Y136.752 E12.24906
G1 X12.048 Y136.752 E14.96987
G1 X12.048 Y68.248 E16.31559
G0 F8400 X12.363 Y68.563
G1 F1800 X150.237 Y68.563 E19.02402
G1 X150.237 Y136.437 E20.35735
G1 X12.363 Y136.437 E23.06579
G1 X12.363 Y68.563 E24.39912
G0 F8400 X12.678 Y68.878
G1 F1800 X149.922 Y68.878 E27.09518
G1 X149.922 Y136.122 E28.41614
G1 X12.678 Y136.122 E31.11220
G1 X12.678 Y68.878 E32.43316
G0 F8400 X12.993 Y69.193
G1 F1800 X149.607 Y69.193 E35.11684
G1 X149.607 Y135.807 E36.42542
G1 X12.993 Y135.807 E39.10910
G1 X12.993 Y69.193 E40.41769
G0 F8400 X13.308 Y69.508
G1 F1800 X149.292 Y69.508 E43.08899
G1 X149.292 Y135.492 E44.38520
G1 X13.308 Y135.492 E47.05651
G1 X13.308 Y69.508 E48.35271
G0 F8400 X13.623 Y69.823
G1 F1800 X148.977 Y69.823 E51.01164
G1 X148.977 Y135.177 E52.29548
G1 X13.623 Y135.177 E54.95441
G1 X13.623 Y69.823 E56.23824
G0 F8400 X13.938 Y70.138
G1 F1800 X148.662 Y70.138 E58.88479
G1 X148.662 Y134.862 E60.15625
G1 X13.938 Y134.862 E62.80280
G1 X13.938 Y70.138 E64.07426
G0 F8400 X14.253 Y70.453
G1 F1800 X148.347 Y70.453 E66.70843
G1 X148.347 Y134.547 E67.96751
G1 X14.253 Y134.547 E70.60169
G1 X14.253 Y70.453 E71.86077
G0 F8400 X14.568 Y70.768
G1 F1800 X148.032 Y70.768 E74.48258
G1 X148.032 Y134.232 E75.72928
G1 X14.568 Y134.232 E78.35108
G1 X14.568 Y70.768 E79.59779
G0 F8400 X14.883 Y71.083
G1 F1800 X147.717 Y71.083 E82.20721
G1 X147.717 Y133.917 E83.44154
G1 X14.883 Y133.917 E86.05097
G1 X14.883 Y71.083 E87.28529
G0 F8400 X15.198 Y71.398
G1 F1800 X147.402 Y71.398 E89.88234
G1 X147.402 Y133.602 E91.10430
G1 X15.198 Y133.602 E93.70135
G1 X15.198 Y71.398 E94.92330
G0 F8400 X15.513 Y71.713
G1 F1800 X147.087 Y71.713 E97.50797
G1 X147.087 Y133.287 E98.71755
G1 X15.513 Y133.287 E101.30223
G1 X15.513 Y71.713 E102.51180
G0 F8400 X15.828 Y72.028
G1 F1800 X146.772 Y72.028 E105.08410
G1 X146.772 Y132.972 E106.28130
G1 X15.828 Y132.972 E108.85360
G1 X15.828 Y72.028 E110.05080
G0 F8400 X16.143 Y72.343
G1 F1800 X146.457 Y72.343 E112.61072
G1 X146.457 Y132.657 E113.79555
G1 X16.143 Y132.657 E116.35547
G1 X16.143 Y72.343 E117.54029
G0 F8400 X16.772 Y72.972
;TYPE:WALL-INNER
G1 F1800 X145.828 Y72.972 E120.07551
G1 X145.828 Y132.028 E121.23562
G1 X16.772 Y132.028 E123.77083
G1 X16.772 Y72.972 E124.93094
G0 F8400 X16.457 Y72.657
;TYPE:WALL-OUTER
G1 F1800 X146.143 Y72.657 E127.47853
G1 X146.143 Y132.343 E128.65101
G1 X16.457 Y132.343 E131.19860
G1 X16.457 Y72.657 E132.37109
G0 F8400 X16.943 Y73.297
;TYPE:SKIN
G1 F1800 X75.502 Y131.855 E133.99791
G0 F8400 X75.947 Y131.855
G1 F1800 X17.235 Y73.143 E135.62900
G0 F8400 X17.681 Y73.143
G1 F1800 X76.392 Y131.855 E137.26008
G0 F8400 X76.838 Y131.855
G1 F1800 X18.126 Y73.143 E138.89117
G0 F8400 X18.572 Y73.143
G1 F1800 X77.283 Y131.855 E140.52224
G0 F8400 X77.729 Y131.855
G1 F1800 X19.017 Y73.143 E142.15333
G0 F8400 X19.463 Y73.143
G1 F1800 X78.174 Y131.855 E143.78441
G0 F8400 X78.620 Y131.855
G1 F1800 X19.908 Y73.143 E145.41550
G0 F8400 X16.943 Y73.742
G1 F1800 X75.056 Y131.855 E147.02994
G0 F8400 X74.611 Y131.855
G1 F1800 X16.943 Y74.188 E148.63201
G0 F8400 X16.943 Y74.633
G1 F1800 X74.165 Y131.855 E150.22171
G0 F8400 X73.720 Y131.855
G1 F1800 X16.943 Y75.079 E151.79903
G0 F8400 X16.943 Y75.524
G1 F1800 X73.274 Y131.855 E153.36397
G0 F8400 X72.829 Y131.855
G1 F1800 X16.943 Y75.970 E154.91654
G0 F8400 X16.943 Y76.415
G1 F1800 X72.383 Y131.855 E156.45673
G0 F8400 X71.938 Y131.855
G1 F1800 X16.943 Y76.861 E157.98454
G0 F8400 X16.943 Y77.306
G1 F1800 X71.492 Y131.855 E159.49997
G0 F8400 X71.047 Y131.855
G1 F1800 X16.943 Y77.752 E161.00303
G0 F8400 X16.943 Y78.197
G1 F1800 X70.601 Y131.855 E162.49372
G0 F8400 X70.156 Y131.855
G1 F1800 X16.943 Y78.643 E163.97202
G0 F8400 X16.943 Y79.088
G1 F1800 X69.710 Y131.855 E165.43795
G0 F8400 X69.265 Y131.855
G1 F1800 X16.943 Y79.533 E166.89152
G0 F8400 X16.943 Y79.979
G1 F1800 X68.819 Y131.855 E168.33270
G0 F8400 X68.374 Y131.855
G1 F1800 X16.943 Y80.424 E169.76151
G0 F8400 X16.943 Y80.870
G1 F1800 X67.928 Y131.855 E171.17794
G0 F8400 X67.483 Y131.855
G1 F1800 X16.943 Y81.315 E172.58200
G0 F8400 X16.943 Y81.761
G1 F1800 X67.037 Y131.855 E173.97367
G0 F8400 X66.592 Y131.855
G1 F1800 X16.943 Y82.206 E175.35298
G0 F8400 X16.943 Y82.652
G1 F1800 X66.147 Y131.855 E176.71991
G0 F8400 X65.701 Y131.855
G1 F1800 X16.943 Y83.097 E178.07446
G0 F8400 X16.943 Y83.543
G1 F1800 X65.256 Y131.855 E179.41664
G0 F8400 X64.810 Y131.855
G1 F1800 X16.943 Y83.988 E180.74644
G0 F8400 X16.943 Y84.434
G1 F1800 X64.365 Y131.855 E182.06387
G0 F8400 X63.919 Y131.855
G1 F1800 X16.943 Y84.879 E183.36892
G0 F8400 X16.943 Y85.325
G1 F1800 X63.474 Y131.855 E184.66159
G0 F8400 X63.028 Y131.855
G1 F1800 X16.943 Y85.770 E185.94189
G0 F8400 X16.943 Y86.216
G1 F1800 X62.583 Y131.855 E187.20981
G0 F8400 X62.137 Y131.855
G1 F1800 X16.943 Y86.661 E188.46535
G0 F8400 X16.943 Y87.107
G1 F1800 X61.692 Y131.855 E189.70852
G0 F8400 X61.246 Y131.855
G1 F1800 X16.943 Y87.552 E190.93931
G0 F8400 X16.943 Y87.998
G1 F1800 X60.801 Y131.855 E192.15772
G0 F8400 X60.355 Y131.855
G1 F1800 X16.943 Y88.443 E193.36376
G0 F8400 X16.943 Y88.888
G1 F1800 X59.910 Y131.855 E194.55743
G0 F8400 X59.464 Y131.855
G1 F1800 X16.943 Y89.334 E195.73872
G0 F8400 X16.943 Y89.779
G1 F1800 X59.019 Y131.855 E196.90764
G0 F8400 X58.573 Y131.855
G1 F1800 X16.943 Y90.225 E198.06417
G0 F8400 X16.943 Y90.670
G1 F1800 X58.128 Y131.855 E199.20834
G0 F8400 X57.682 Y131.855
G1 F1800 X16.943 Y91.116 E200.34011
G0 F8400 X16.943 Y91.561
G1 F1800 X57.237 Y131.855 E201.45953
G0 F8400 X56.791 Y131.855
G1 F1800 X16.943 Y92.007 E202.56655
G0 F8400 X16.943 Y92.452
G1 F1800 X56.346 Y131.855 E203.66122
G0 F8400 X55.901 Y131.855
G1 F1800 X16.943 Y92.898 E204.74350
G0 F8400 X16.943 Y93.343
G1 F1800 X55.455 Y131.855 E205.81341
G0 F8400 X55.010 Y131.855
G1 F1800 X16.943 Y93.789 E206.87094
G0 F8400 X16.943 Y94.234
G1 F1800 X54.564 Y131.855 E207.91610
G0 F8400 X54.119 Y131.855
G1 F1800 X16.943 Y94.680 E208.94888
G0 F8400 X16.943 Y95.125
G1 F1800 X53.673 Y131.855 E209.96928
G0 F8400 X53.228 Y131.855
G1 F1800 X16.943 Y95.571 E210.97731
G0 F8400 X16.943 Y96.016
G1 F1800 X52.782 Y131.855 E211.97296
G0 F8400 X52.337 Y131.855
G1 F1800 X16.943 Y96.462 E212.95623
G0 F8400 X16.943 Y96.907
G1 F1800 X51.891 Y131.855 E213.92713
G0 F8400 X51.446 Y131.855
G1 F1800 X16.943 Y97.353 E214.88565
G0 F8400 X16.943 Y97.798
G1 F1800 X51.000 Y131.855 E215.83179
G0 F8400 X50.555 Y131.855
G1 F1800 X16.943 Y98.244 E216.76556
G0 F8400 X16.943 Y98.689
G1 F1800 X50.109 Y131.855 E217.68695
G0 F8400 X49.664 Y131.855
G1 F1800 X16.943 Y99.134 E218.59598
G0 F8400 X16.943 Y99.580
G1 F1800 X49.218 Y131.855 E219.49262
G0 F8400 X48.773 Y131.855
G1 F1800 X16.943 Y100.025 E220.37689
G0 F8400 X16.943 Y100.471
G1 F1800 X48.327 Y131.855 E221.24878
G0 F8400 X47.882 Y131.855
G1 F1800 X16.943 Y100.916 E222.10830
G0 F8400 X16.943 Y101.362
G1 F1800 X47.436 Y131.855 E222.95543
G0 F8400 X46.991 Y131.855
G1 F1800 X16.943 Y101.807 E223.79020
G0 F8400 X16.943 Y102.253
G1 F1800 X46.546 Y131.855 E224.61260
G0 F8400 X46.100 Y131.855
G1 F1800 X16.943 Y102.698 E225.42261
G0 F8400 X16.943 Y103.144
G1 F1800 X45.655 Y131.855 E226.22025
G0 F8400 X45.209 Y131.855
G1 F1800 X16.943 Y103.589 E227.00551
G0 F8400 X16.943 Y104.035
G1 F1800 X44.764 Y131.855 E227.77840
G0 F8400 X44.318 Y131.855
G1 F1800 X16.943 Y104.480 E228.53891
G0 F8400 X16.943 Y104.926
G1 F1800 X43.873 Y131.855 E229.28704
G0 F8400 X43.427 Y131.855
G1 F1800 X16.943 Y105.371 E230.02280
G0 F8400 X16.943 Y105.817
G1 F1800 X42.982 Y131.855 E230.74618
G0 F8400 X42.536 Y131.855
G1 F1800 X16.943 Y106.262 E231.45719
G0 F8400 X16.943 Y106.708
G1 F1800 X42.091 Y131.855 E232.15581
G0 F8400 X41.645 Y131.855
G1 F1800 X16.943 Y107.153 E232.84206
G0 F8400 X16.943 Y107.599
G1 F1800 X41.200 Y131.855 E233.51594
G0 F8400 X40.754 Y131.855
G1 F1800 X16.943 Y108.044 E234.17744
G0 F8400 X16.943 Y108.489
G1 F1800 X40.309 Y131.855 E234.82657
G0 F8400 X39.863 Y131.855
G1 F1800 X16.943 Y108.935 E235.46332
G0 F8400 X16.943 Y109.380
G1 F1800 X39.418 Y131.855 E236.08770
G0 F8400 X38.972 Y131.855
G1 F1800 X16.943 Y109.826 E236.69969
G0 F8400 X16.943 Y110.271
G1 F1800 X38.527 Y131.855 E237.29932
G0 F8400 X38.081 Y131.855
G1 F1800 X16.943 Y110.717 E237.88656
G0 F8400 X16.943 Y111.162
G1 F1800 X37.636 Y131.855 E238.46143
G0 F8400 X37.190 Y131.855
G1 F1800 X16.943 Y111.608 E239.02392
G0 F8400 X16.943 Y112.053
G1 F1800 X36.745 Y131.855 E239.57404
G0 F8400 X36.300 Y131.855
G1 F1800 X16.943 Y112.499 E240.11179
G0 F8400 X16.943 Y112.944
G1 F1800 X35.854 Y131.855 E240.63716
G0 F8400 X35.409 Y131.855
G1 F1800 X16.943 Y113.390 E241.15015
G0 F8400 X16.943 Y113.835
G1 F1800 X34.963 Y131.855 E241.65077
G0 F8400 X34.518 Y131.855
G1 F1800 X16.943 Y114.281 E242.13901
G0 F8400 X16.943 Y114.726
G1 F1800 X34.072 Y131.855 E242.61488
G0 F8400 X33.627 Y131.855
G1 F1800 X16.943 Y115.172 E243.07836
G0 F8400 X16.943 Y115.617
G1 F1800 X33.181 Y131.855 E243.52947
G0 F8400 X32.736 Y131.855
G1 F1800 X16.943 Y116.063 E243.96821
G0 F8400 X16.943 Y116.508
G1 F1800 X32.290 Y131.855 E244.39457
G0 F8400 X31.845 Y131.855
G1 F1800 X16.943 Y116.954 E244.80855
G0 F8400 X16.943 Y117.399
G1 F1800 X31.399 Y131.855 E245.21015
G0 F8400 X30.954 Y131.855
G1 F1800 X16.943 Y117.845 E245.59938
G0 F8400 X16.943 Y118.290
G1 F1800 X30.508 Y131.855 E245.97623
G0 F8400 X30.063 Y131.855
G1 F1800 X16.943 Y118.735 E246.34072
G0 F8400 X16.943 Y119.181
G1 F1800 X29.617 Y131.855 E246.69282
G0 F8400 X29.172 Y131.855
G1 F1800 X16.943 Y119.626 E247.03256
G0 F8400 X16.943 Y120.072
G1 F1800 X28.726 Y131.855 E247.35990
G0 F8400 X28.281 Y131.855
G1 F1800 X16.943 Y120.517 E247.67489
G0 F8400 X16.943 Y120.963
G1 F1800 X27.835 Y131.855 E247.97748
G0 F8400 X27.390 Y131.855
G1 F1800 X16.943 Y121.408 E248.26771
G0 F8400 X16.943 Y121.854
G1 F1800 X26.945 Y131.855 E248.54556
G0 F8400 X26.499 Y131.855
G1 F1800 X16.943 Y122.299 E248.81104
G0 F8400 X16.943 Y122.745
G1 F1800 X26.054 Y131.855 E249.06414
G0 F8400 X25.608 Y131.855
G1 F1800 X16.943 Y123.190 E249.30486
G0 F8400 X16.943 Y123.636
G1 F1800 X25.163 Y131.855 E249.53321
G0 F8400 X24.717 Y131.855
G1 F1800 X16.943 Y124.081 E249.74918
G0 F8400 X16.943 Y124.527
G1 F1800 X24.272 Y131.855 E249.95278
G0 F8400 X23.826 Y131.855
G1 F1800 X16.943 Y124.972 E250.14399
G0 F8400 X16.943 Y125.418
G1 F1800 X23.381 Y131.855 E250.32284
G0 F8400 X22.935 Y131.855
G1 F1800 X16.943 Y125.863 E250.48930
G0 F8400 X16.943 Y126.309
G1 F1800 X22.490 Y131.855 E250.64339
G0 F8400 X22.044 Y131.855
G1 F1800 X16.943 Y126.754 E250.78510
G0 F8400 X16.943 Y127.200
G1 F1800 X21.599 Y131.855 E250.91444
G0 F8400 X21.153 Y131.855
G1 F1800 X16.943 Y127.645 E251.03139
G0 F8400 X16.943 Y128.090
G1 F1800 X20.708 Y131.855 E251.13599
G0 F8400 X20.262 Y131.855
G1 F1800 X16.943 Y128.536 E251.22820
G0 F8400 X16.943 Y128.981
G1 F1800 X19.817 Y131.855 E251.30804
G0 F8400 X19.371 Y131.855
G1 F1800 X16.943 Y129.427 E251.37549
G0 F8400 X16.943 Y129.872
G1 F1800 X18.926 Y131.855 E251.43058
G0 F8400 X18.480 Y131.855
G1 F1800 X16.943 Y130.318 E251.47328
G0 F8400 X16.943 Y130.763
G1 F1800 X18.035 Y131.855 E251.50362
G0 F8400 X17.589 Y131.855
G1 F1800 X16.943 Y131.209 E251.52157
G0 F8400 X16.943 Y131.654
G1 F1800 X17.144 Y131.855 E251.52715
G0 F8400 X20.354 Y73.143
G1 F1800 X79.065 Y131.855 E253.15823
G0 F8400 X79.511 Y131.855
G1 F1800 X20.799 Y73.143 E254.78931
G0 F8400 X21.245 Y73.143
G1 F1800 X79.956 Y131.855 E256.42039
G0 F8400 X80.402 Y131.855
G1 F1800 X21.690 Y73.143 E258.05148
G0 F8400 X22.135 Y73.143
G1 F1800 X80.847 Y131.855 E259.68257
G0 F8400 X81.293 Y131.855
G1 F1800 X22.581 Y73.143 E261.31366
G0 F8400 X23.026 Y73.143
G1 F1800 X81.738 Y131.855 E262.94475
G0 F8400 X82.184 Y131.855
G1 F1800 X23.472 Y73.143 E264.57584
G0 F8400 X23.917 Y73.143
G1 F1800 X82.629 Y131.855 E266.20692
G0 F8400 X83.075 Y131.855
G1 F1800 X24.363 Y73.143 E267.83801
G0 F8400 X24.808 Y73.143
G1 F1800 X83.520 Y131.855 E269.46910
G0 F8400 X83.966 Y131.855
G1 F1800 X25.254 Y73.143 E271.10019
G0 F8400 X25.699 Y73.143
G1 F1800 X84.411 Y131.855 E272.73128
G0 F8400 X84.857 Y131.855
G1 F1800 X26.145 Y73.143 E274.36237
G0 F8400 X26.590 Y73.143
G1 F1800 X85.302 Y131.855 E275.99346
G0 F8400 X85.748 Y131.855
G1 F1800 X27.036 Y73.143 E277.62455
G0 F8400 X27.481 Y73.143
G1 F1800 X86.193 Y131.855 E279.25564
G0 F8400 X86.638 Y131.855
G1 F1800 X27.927 Y73.143 E280.88671
G0 F8400 X28.372 Y73.143
G1 F1800 X87.084 Y131.855 E282.51780
G0 F8400 X87.529 Y131.855
G1 F1800 X28.818 Y73.143 E284.14888
G0 F8400 X29.263 Y73.143
G1 F1800 X87.975 Y131.855 E285.77997
G0 F8400 X88.420 Y131.855
G1 F1800 X29.709 Y73.143 E287.41104
G0 F8400 X30.154 Y73.143
G1 F1800 X88.866 Y131.855 E289.04213
G0 F8400 X89.311 Y131.855
G1 F1800 X30.600 Y73.143 E290.67321
G0 F8400 X31.045 Y73.143
G1 F1800 X89.757 Y131.855 E292.30430
G0 F8400 X90.202 Y131.855
G1 F1800 X31.491 Y73.143 E293.93537
G0 F8400 X31.936 Y73.143
G1 F1800 X90.648 Y131.855 E295.56646
G0 F8400 X91.093 Y131.855
G1 F1800 X32.381 Y73.143 E297.19755
G0 F8400 X32.827 Y73.143
G1 F1800 X91.539 Y131.855 E298.82864
G0 F8400 X91.984 Y131.855
G1 F1800 X33.272 Y73.143 E300.45973
G0 F8400 X33.718 Y73.143
G1 F1800 X92.430 Y131.855 E302.09082
G0 F8400 X92.875 Y131.855
G1 F1800 X34.163 Y73.143 E303.72191
G0 F8400 X34.609 Y73.143
G1 F1800 X93.321 Y131.855 E305.35300
G0 F8400 X93.766 Y131.855
G1 F1800 X35.054 Y73.143 E306.98408
G0 F8400 X35.500 Y73.143
G1 F1800 X94.212 Y131.855 E308.61517
G0 F8400 X94.657 Y131.855
G1 F1800 X35.945 Y73.143 E310.24626
G0 F8400 X36.391 Y73.143
G1 F1800 X95.103 Y131.855 E311.87735
G0 F8400 X95.548 Y131.855
G1 F1800 X36.836 Y73.143 E313.50844
G0 F8400 X37.282 Y73.143
G1 F1800 X95.993 Y131.855 E315.13952
G0 F8400 X96.439 Y131.855
G1 F1800 X37.727 Y73.143 E316.77061
G0 F8400 X38.173 Y73.143
G1 F1800 X96.884 Y131.855 E318.40168
G0 F8400 X97.330 Y131.855
G1 F1800 X38.618 Y73.143 E320.03277
G0 F8400 X39.064 Y73.143
G1 F1800 X97.775 Y131.855 E321.66385
G0 F8400 X98.221 Y131.855
G1 F1800 X39.509 Y73.143 E323.29494
G0 F8400 X39.955 Y73.143
G1 F1800 X98.666 Y131.855 E324.92601
G0 F8400 X99.112 Y131.855
G1 F1800 X40.400 Y73.143 E326.55710
G0 F8400 X40.846 Y73.143
G1 F1800 X99.557 Y131.855 E328.18817
G0 F8400 X100.003 Y131.855
G1 F1800 X41.291 Y73.143 E329.81926
G0 F8400 X41.736 Y73.143
G1 F1800 X100.448 Y131.855 E331.45035
G0 F8400 X100.894 Y131.855
G1 F1800 X42.182 Y73.143 E333.08144
G0 F8400 X42.627 Y73.143
G1 F1800 X101.339 Y131.855 E334.71253
G0 F8400 X101.785 Y131.855
G1 F1800 X43.073 Y73.143 E336.34362
G0 F8400 X43.518 Y73.143
G1 F1800 X102.230 Y131.855 E337.97471
G0 F8400 X102.676 Y131.855
G1 F1800 X43.964 Y73.143 E339.60580
G0 F8400 X44.409 Y73.143
G1 F1800 X103.121 Y131.855 E341.23689
G0 F8400 X103.567 Y131.855
G1 F1800 X44.855 Y73.143 E342.86798
G0 F8400 X45.300 Y73.143
G1 F1800 X104.012 Y131.855 E344.49907
G0 F8400 X104.458 Y131.855
G1 F1800 X45.746 Y73.143 E346.13016
G0 F8400 X46.191 Y73.143
G1 F1800 X104.903 Y131.855 E347.76124
G0 F8400 X105.349 Y131.855
G1 F1800 X46.637 Y73.143 E349.39233
G0 F8400 X47.082 Y73.143
G1 F1800 X105.794 Y131.855 E351.02342
G0 F8400 X106.239 Y131.855
G1 F1800 X47.528 Y73.143 E352.65450
G0 F8400 X47.973 Y73.143
G1 F1800 X106.685 Y131.855 E354.28559
G0 F8400 X107.130 Y131.855
G1 F1800 X48.419 Y73.143 E355.91666
G0 F8400 X48.864 Y73.143
G1 F1800 X107.576 Y131.855 E357.54775
G0 F8400 X108.021 Y131.855
G1 F1800 X49.310 Y73.143 E359.17883
G0 F8400 X49.755 Y73.143
G1 F1800 X108.467 Y131.855 E360.80992
G0 F8400 X108.912 Y131.855
