;Generated with Cura_SteamEngine 15.01
G28 ; Home extruder
G1 Z5 F300
G1 Z0 F300
M106 S165 ; Turn on fan
G90 ; Absolute positioning
M82 ; Extruder in absolute mode
; Activate all used extruder
M104 T0 S200
G92 E0 ; Reset extruder position
; Wait for all used extruders to reach temperature
M109 T0 S200
T0
M83
G1 E10 F100
M82
G92 E0 ; Reset extruder position
M117 Vertex is printing
G1 F300 Z5
;Layer count: 200
;LAYER:0
M106 S255
G0 F8400 X11.233 Y67.533 Z0.200
;TYPE:SKIRT
G1 F1800 X46.467 Y67.533 E0.69215
G1 X46.467 Y78.933 E0.91609
G1 X116.033 Y78.933 E2.28266
G1 X116.033 Y67.533 E2.50661
G1 X151.467 Y67.533 E3.20268
G1 X151.467 Y87.596 E3.59681
G1 X144.867 Y87.684 E3.72647
G1 X144.867 Y117.316 E4.30857
G1 X151.467 Y117.404 E4.43823
G1 X151.467 Y137.667 E4.83628
G1 X116.033 Y137.667 E5.53236
G1 X116.033 Y126.067 E5.76023
G1 X46.467 Y126.067 E7.12681
G1 X46.467 Y137.667 E7.35468
G1 X11.233 Y137.667 E8.04683
G1 X11.233 Y117.403 E8.44490
G1 X26.033 Y117.203 E8.73566
G1 X26.033 Y116.933 E8.74096
G1 X26.733 Y116.933 E8.75471
G1 X26.733 Y112.067 E8.85030
G1 X26.033 Y112.067 E8.86405
G1 X26.033 Y92.933 E9.23993
G1 X26.733 Y92.933 E9.25368
G1 X26.733 Y88.067 E9.34927
G1 X26.033 Y88.067 E9.36302
G1 X26.033 Y87.797 E9.36832
G1 X11.233 Y87.597 E9.65908
G1 X11.233 Y67.533 E10.05323
G0 F8400 X11.548 Y67.848
G1 F1800 X46.152 Y67.848 E10.73300
G1 X46.152 Y79.248 E10.95694
G1 X116.348 Y79.248 E12.33589
G1 X116.348 Y67.848 E12.55983
G1 X151.152 Y67.848 E13.24353
G1 X151.152 Y87.285 E13.62536
G1 X144.552 Y87.373 E13.75502
G1 X144.552 Y117.627 E14.34934
G1 X151.152 Y117.715 E14.47900
G1 X151.152 Y137.352 E14.86476
G1 X116.348 Y137.352 E15.54846
G1 X116.348 Y125.752 E15.77633
G1 X46.152 Y125.752 E17.15528
G1 X46.152 Y137.352 E17.38315
G1 X11.548 Y137.352 E18.06292
G1 X11.548 Y117.714 E18.44870
G1 X26.348 Y117.514 E18.73946
G1 X26.348 Y117.248 E18.74469
G1 X27.048 Y117.248 E18.75844
G1 X27.048 Y111.752 E18.86640
G1 X26.348 Y111.752 E18.88015
G1 X26.348 Y93.248 E19.24365
G1 X27.048 Y93.248 E19.25740
G1 X27.048 Y87.752 E19.36537
G1 X26.348 Y87.752 E19.37912
G1 X26.348 Y87.486 E19.38434
G1 X11.548 Y87.286 E19.67510
G1 X11.548 Y67.848 E20.05695
G0 F8400 X11.863 Y68.163
G1 F1800 X45.837 Y68.163 E20.72434
G1 X45.837 Y79.563 E20.94829
G1 X116.663 Y79.563 E22.33961
G1 X116.663 Y68.163 E22.56356
G1 X150.837 Y68.163 E23.23488
G1 X150.837 Y86.975 E23.60443
G1 X144.237 Y87.063 E23.73409
G1 X144.237 Y117.937 E24.34059
G1 X150.837 Y118.025 E24.47025
G1 X150.837 Y137.037 E24.84373
G1 X116.663 Y137.037 E25.51505
G1 X116.663 Y125.437 E25.74293
G1 X45.837 Y125.437 E27.13425
G1 X45.837 Y137.037 E27.36213
G1 X11.863 Y137.037 E28.02952
G1 X11.863 Y118.025 E28.40300
G1 X26.663 Y117.825 E28.69376
G1 X26.663 Y117.563 E28.69890
G1 X27.363 Y117.563 E28.71266
G1 X27.363 Y111.437 E28.83300
G1 X26.663 Y111.437 E28.84675
G1 X26.663 Y93.563 E29.19787
G1 X27.363 Y93.563 E29.21162
G1 X27.363 Y87.437 E29.33196
G1 X26.663 Y87.437 E29.34571
G1 X26.663 Y87.175 E29.35086
G1 X11.863 Y86.975 E29.64162
G1 X11.863 Y68.163 E30.01117
G0 F8400 X12.178 Y68.478
G1 F1800 X45.522 Y68.478 E30.66619
G1 X45.522 Y79.878 E30.89013
G1 X116.978 Y79.878 E32.29383
G1 X116.978 Y68.478 E32.51778
G1 X150.522 Y68.478 E33.17672
G1 X150.522 Y86.664 E33.53397
G1 X143.922 Y86.752 E33.66364
G1 X143.922 Y118.248 E34.28235
G1 X150.522 Y118.336 E34.41202
G1 X150.522 Y136.722 E34.77320
G1 X116.978 Y136.722 E35.43214
G1 X116.978 Y125.122 E35.66002
G1 X45.522 Y125.122 E37.06372
G1 X45.522 Y136.722 E37.29159
G1 X12.178 Y136.722 E37.94661
G1 X12.178 Y118.336 E38.30779
G1 X26.978 Y118.135 E38.59855
G1 X26.978 Y117.878 E38.60360
G1 X27.678 Y117.878 E38.61735
G1 X27.678 Y111.122 E38.75007
G1 X26.978 Y111.122 E38.76382
G1 X26.978 Y93.878 E39.10257
G1 X27.678 Y93.878 E39.11632
G1 X27.678 Y87.122 E39.24903
G1 X26.978 Y87.122 E39.26278
G1 X26.978 Y86.865 E39.26783
G1 X12.178 Y86.664 E39.55859
G1 X12.178 Y68.478 E39.91585
G0 F8400 X12.493 Y68.793
G1 F1800 X45.207 Y68.793 E40.55849
G1 X45.207 Y80.193 E40.78243
G1 X117.293 Y80.193 E42.19851
G1 X117.293 Y68.793 E42.42245
G1 X150.207 Y68.793 E43.06903
G1 X150.207 Y86.353 E43.41398
G1 X143.607 Y86.441 E43.54364
G1 X143.607 Y118.559 E44.17458
G1 X150.207 Y118.647 E44.30424
G1 X150.207 Y136.407 E44.65312
G1 X117.293 Y136.407 E45.29969
G1 X117.293 Y124.807 E45.52757
G1 X45.207 Y124.807 E46.94364
G1 X45.207 Y136.407 E47.17152
G1 X12.493 Y136.407 E47.81416
G1 X12.493 Y118.646 E48.16306
G1 X27.293 Y118.446 E48.45382
G1 X27.293 Y118.193 E48.45879
G1 X27.993 Y118.193 E48.47254
G1 X27.993 Y110.807 E48.61764
G1 X27.293 Y110.807 E48.63139
G1 X27.293 Y94.193 E48.95776
G1 X27.993 Y94.193 E48.97151
G1 X27.993 Y86.807 E49.11660
G1 X27.293 Y86.807 E49.13035
G1 X27.293 Y86.554 E49.13532
G1 X12.493 Y86.354 E49.42608
G1 X12.493 Y68.793 E49.77106
G0 F8400 X12.808 Y69.108
G1 F1800 X44.892 Y69.108 E50.40132
G1 X44.892 Y80.508 E50.62527
G1 X117.608 Y80.508 E52.05372
G1 X117.608 Y69.108 E52.27767
G1 X149.892 Y69.108 E52.91186
G1 X149.892 Y86.042 E53.24452
G1 X143.292 Y86.130 E53.37418
G1 X143.292 Y118.870 E54.01733
G1 X149.892 Y118.958 E54.14700
G1 X149.892 Y136.092 E54.48358
G1 X117.608 Y136.092 E55.11778
G1 X117.608 Y124.492 E55.34565
G1 X44.892 Y124.492 E56.77410
G1 X44.892 Y136.092 E57.00198
G1 X12.808 Y136.092 E57.63224
G1 X12.808 Y118.957 E57.96885
G1 X27.608 Y118.757 E58.25961
G1 X27.608 Y118.508 E58.26450
G1 X28.308 Y118.508 E58.27825
G1 X28.308 Y110.492 E58.43572
G1 X27.608 Y110.492 E58.44947
G1 X27.608 Y94.508 E58.76347
G1 X28.308 Y94.508 E58.77722
G1 X28.308 Y86.492 E58.93469
G1 X27.608 Y86.492 E58.94844
G1 X27.608 Y86.243 E58.95333
G1 X12.808 Y86.043 E59.24409
G1 X12.808 Y69.108 E59.57677
G0 F8400 X13.123 Y69.423
G1 F1800 X44.577 Y69.423 E60.19466
G1 X44.577 Y80.823 E60.41860
G1 X117.923 Y80.823 E61.85943
G1 X117.923 Y69.423 E62.08337
G1 X149.577 Y69.423 E62.70519
G1 X149.577 Y85.731 E63.02555
G1 X142.977 Y85.819 E63.15522
G1 X142.977 Y119.181 E63.81059
G1 X149.577 Y119.269 E63.94025
G1 X149.577 Y135.777 E64.26454
G1 X117.923 Y135.777 E64.88636
G1 X117.923 Y124.177 E65.11423
G1 X44.577 Y124.177 E66.55506
G1 X44.577 Y135.777 E66.78293
G1 X13.123 Y135.777 E67.40083
G1 X13.123 Y119.268 E67.72513
G1 X27.923 Y119.068 E68.01589
G1 X27.923 Y118.823 E68.02071
G1 X28.623 Y118.823 E68.03446
G1 X28.623 Y110.177 E68.20430
G1 X27.923 Y110.177 E68.21805
G1 X27.923 Y94.823 E68.51967
G1 X28.623 Y94.823 E68.53342
G1 X28.623 Y86.177 E68.70327
G1 X27.923 Y86.177 E68.71702
G1 X27.923 Y85.932 E68.72183
G1 X13.123 Y85.732 E69.01259
G1 X13.123 Y69.423 E69.33297
G0 F8400 X13.438 Y69.738
G1 F1800 X44.262 Y69.738 E69.93849
G1 X44.262 Y81.138 E70.16243
G1 X118.238 Y81.138 E71.61563
G1 X118.238 Y69.738 E71.83958
G1 X149.262 Y69.738 E72.44902
G1 X149.262 Y85.421 E72.75710
G1 X142.662 Y85.509 E72.88677
G1 X142.662 Y119.491 E73.55432
G1 X149.262 Y119.579 E73.68398
G1 X149.262 Y135.462 E73.99599
G1 X118.238 Y135.462 E74.60544
G1 X118.238 Y123.862 E74.83331
G1 X44.262 Y123.862 E76.28651
G1 X44.262 Y135.462 E76.51439
G1 X13.438 Y135.462 E77.11990
G1 X13.438 Y119.579 E77.43191
G1 X28.238 Y119.379 E77.72267
G1 X28.238 Y119.138 E77.72741
G1 X28.938 Y119.138 E77.74116
G1 X28.938 Y109.862 E77.92338
G1 X28.238 Y109.862 E77.93713
G1 X28.238 Y95.138 E78.22637
G1 X28.938 Y95.138 E78.24012
G1 X28.938 Y85.862 E78.42234
G1 X28.238 Y85.862 E78.43610
G1 X28.238 Y85.621 E78.44083
G1 X13.438 Y85.421 E78.73159
G1 X13.438 Y69.738 E79.03967
G0 F8400 X13.753 Y70.053
G1 F1800 X43.947 Y70.053 E79.63281
G1 X43.947 Y81.453 E79.85676
G1 X118.553 Y81.453 E81.32234
G1 X118.553 Y70.053 E81.54628
G1 X148.947 Y70.053 E82.14335
G1 X148.947 Y85.110 E82.43913
G1 X142.347 Y85.198 E82.56880
G1 X142.347 Y119.802 E83.24857
G1 X148.947 Y119.890 E83.37823
G1 X148.947 Y135.147 E83.67794
G1 X118.553 Y135.147 E84.27501
G1 X118.553 Y123.547 E84.50288
G1 X43.947 Y123.547 E85.96846
G1 X43.947 Y135.147 E86.19634
G1 X13.753 Y135.147 E86.78948
G1 X13.753 Y119.889 E87.08921
G1 X28.553 Y119.689 E87.37997
G1 X28.553 Y119.453 E87.38461
G1 X29.253 Y119.453 E87.39836
G1 X29.253 Y109.547 E87.59295
G1 X28.553 Y109.547 E87.60670
G1 X28.553 Y95.453 E87.88357
G1 X29.253 Y95.453 E87.89732
G1 X29.253 Y85.547 E88.09192
G1 X28.553 Y85.547 E88.10567
G1 X28.553 Y85.311 E88.11031
G1 X13.753 Y85.111 E88.40107
G1 X13.753 Y70.053 E88.69687
G0 F8400 X14.068 Y70.368
G1 F1800 X43.632 Y70.368 E89.27763
G1 X43.632 Y81.768 E89.50158
G1 X118.868 Y81.768 E90.97953
G1 X118.868 Y70.368 E91.20348
G1 X148.632 Y70.368 E91.78817
G1 X148.632 Y84.799 E92.07166
G1 X142.032 Y84.887 E92.20132
G1 X142.032 Y120.113 E92.89331
G1 X148.632 Y120.201 E93.02297
G1 X148.632 Y134.832 E93.31039
G1 X118.868 Y134.832 E93.89508
G1 X118.868 Y123.232 E94.12295
G1 X43.632 Y123.232 E95.60091
G1 X43.632 Y134.832 E95.82878
G1 X14.068 Y134.832 E96.40955
G1 X14.068 Y120.200 E96.69698
G1 X28.868 Y120.000 E96.98774
G1 X28.868 Y119.768 E96.99230
G1 X29.568 Y119.768 E97.00605
G1 X29.568 Y109.232 E97.21302
G1 X28.868 Y109.232 E97.22678
G1 X28.868 Y95.768 E97.49127
G1 X29.568 Y95.768 E97.50502
G1 X29.568 Y85.232 E97.71199
G1 X28.868 Y85.232 E97.72574
G1 X28.868 Y85.000 E97.73030
G1 X14.068 Y84.800 E98.02106
G1 X14.068 Y70.368 E98.30456
G0 F8400 X14.383 Y70.683
G1 F1800 X43.317 Y70.683 E98.87295
G1 X43.317 Y82.083 E99.09690
G1 X119.183 Y82.083 E100.58723
G1 X119.183 Y70.683 E100.81117
G1 X148.317 Y70.683 E101.38349
G1 X148.317 Y84.488 E101.65468
G1 X141.717 Y84.576 E101.78434
G1 X141.717 Y120.424 E102.48855
G1 X148.317 Y120.512 E102.61821
G1 X148.317 Y134.517 E102.89333
G1 X119.183 Y134.517 E103.46565
G1 X119.183 Y122.917 E103.69352
G1 X43.317 Y122.917 E105.18385
G1 X43.317 Y134.517 E105.41173
G1 X14.383 Y134.517 E105.98011
G1 X14.383 Y120.511 E106.25525
G1 X29.183 Y120.311 E106.54601
G1 X29.183 Y120.083 E106.55049
G1 X29.883 Y120.083 E106.56424
G1 X29.883 Y108.917 E106.78359
G1 X29.183 Y108.917 E106.79734
G1 X29.183 Y96.083 E107.04946
G1 X29.883 Y96.083 E107.06321
G1 X29.883 Y84.917 E107.28256
G1 X29.183 Y84.917 E107.29631
G1 X29.183 Y84.689 E107.30079
G1 X14.383 Y84.489 E107.59155
G1 X14.383 Y70.683 E107.86276
G0 F8400 X14.698 Y70.998
G1 F1800 X43.002 Y70.998 E108.41877
G1 X43.002 Y82.398 E108.64271
G1 X119.498 Y82.398 E110.14542
G1 X119.498 Y70.998 E110.36936
G1 X148.002 Y70.998 E110.92930
G1 X148.002 Y84.177 E111.18820
G1 X141.402 Y84.265 E111.31786
G1 X141.402 Y120.735 E112.03429
G1 X148.002 Y120.823 E112.16395
G1 X148.002 Y134.202 E112.42677
G1 X119.498 Y134.202 E112.98671
G1 X119.498 Y122.602 E113.21458
G1 X43.002 Y122.602 E114.71729
G1 X43.002 Y134.202 E114.94517
G1 X14.698 Y134.202 E115.50118
G1 X14.698 Y120.822 E115.76402
G1 X29.498 Y120.622 E116.05478
G1 X29.498 Y120.398 E116.05918
G1 X30.198 Y120.398 E116.07293
G1 X30.198 Y108.602 E116.30465
G1 X29.498 Y108.602 E116.31841
G1 X29.498 Y96.398 E116.55814
G1 X30.198 Y96.398 E116.57189
G1 X30.198 Y84.602 E116.80362
G1 X29.498 Y84.602 E116.81737
G1 X29.498 Y84.378 E116.82177
G1 X14.698 Y84.178 E117.11253
G1 X14.698 Y70.998 E117.37144
G0 F8400 X15.013 Y71.313
G1 F1800 X42.687 Y71.313 E117.91508
G1 X42.687 Y82.713 E118.13902
G1 X119.813 Y82.713 E119.65411
G1 X119.813 Y71.313 E119.87805
G1 X147.687 Y71.313 E120.42562
G1 X147.687 Y83.867 E120.67223
G1 X141.087 Y83.955 E120.80189
G1 X141.087 Y121.045 E121.53050
G1 X147.687 Y121.133 E121.66016
G1 X147.687 Y133.887 E121.91071
G1 X119.813 Y133.887 E122.45827
G1 X119.813 Y122.287 E122.68614
G1 X42.687 Y122.287 E124.20123
G1 X42.687 Y133.887 E124.42910
G1 X15.013 Y133.887 E124.97274
G1 X15.013 Y121.133 E125.22328
G1 X29.813 Y120.933 E125.51404
G1 X29.813 Y120.713 E125.51836
G1 X30.513 Y120.713 E125.53211
G1 X30.513 Y108.287 E125.77621
G1 X29.813 Y108.287 E125.78996
G1 X29.813 Y96.713 E126.01733
G1 X30.513 Y96.713 E126.03108
G1 X30.513 Y84.287 E126.27518
G1 X29.813 Y84.287 E126.28893
G1 X29.813 Y84.067 E126.29325
G1 X15.013 Y83.867 E126.58401
G1 X15.013 Y71.313 E126.83063
G0 F8400 X15.328 Y71.628
G1 F1800 X42.372 Y71.628 E127.36189
G1 X42.372 Y83.028 E127.58583
G1 X120.128 Y83.028 E129.11329
G1 X120.128 Y71.628 E129.33724
G1 X147.372 Y71.628 E129.87242
G1 X147.372 Y83.556 E130.10674
G1 X140.772 Y83.644 E130.23640
G1 X140.772 Y121.356 E130.97723
G1 X147.372 Y121.444 E131.10689
G1 X147.372 Y133.572 E131.34514
G1 X120.128 Y133.572 E131.88033
G1 X120.128 Y121.972 E132.10820
G1 X42.372 Y121.972 E133.63566
G1 X42.372 Y133.572 E133.86353
G1 X15.328 Y133.572 E134.39479
G1 X15.328 Y121.443 E134.63306
G1 X30.128 Y121.243 E134.92382
G1 X30.128 Y121.028 E134.92804
G1 X30.828 Y121.028 E134.94179
G1 X30.828 Y107.972 E135.19827
G1 X30.128 Y107.972 E135.21202
G1 X30.128 Y97.028 E135.42701
G1 X30.828 Y97.028 E135.44076
G1 X30.828 Y83.972 E135.69723
G1 X30.128 Y83.972 E135.71099
G1 X30.128 Y83.757 E135.71521
G1 X15.328 Y83.557 E136.00597
G1 X15.328 Y71.628 E136.24031
G0 F8400 X15.643 Y71.943
G1 F1800 X42.057 Y71.943 E136.75919
G1 X42.057 Y83.343 E136.98314
G1 X120.443 Y83.343 E138.52297
G1 X120.443 Y71.943 E138.74692
G1 X147.057 Y71.943 E139.26973
G1 X147.057 Y83.245 E139.49175
G1 X139.744 Y83.343 E139.63542
G1 X140.457 Y83.343 E139.64943
G1 X140.457 Y121.657 E140.40208
G1 X139.744 Y121.657 E140.41608
G1 X147.057 Y121.755 E140.55975
G1 X147.057 Y133.257 E140.78570
G1 X120.443 Y133.257 E141.30851
G1 X120.443 Y121.657 E141.53639
G1 X42.057 Y121.657 E143.07622
G1 X42.057 Y133.257 E143.30410
G1 X15.643 Y133.257 E143.82298
G1 X15.643 Y121.754 E144.04895
G1 X30.443 Y121.554 E144.33971
G1 X30.443 Y121.343 E144.34386
G1 X31.143 Y121.343 E144.35761
G1 X31.143 Y107.657 E144.62646
G1 X30.443 Y107.657 E144.64021
G1 X30.443 Y97.343 E144.84282
G1 X31.143 Y97.343 E144.85657
G1 X31.143 Y83.657 E145.12542
G1 X30.443 Y83.657 E145.13917
G1 X30.443 Y83.446 E145.14332
G1 X15.643 Y83.246 E145.43408
G1 X15.643 Y71.943 E145.65612
G1 F6600 E142.65612
G0 F8400 X31.772 Y83.972
;TYPE:WALL-INNER
G1 F6600 E145.65612
G1 F1800 X139.828 Y83.972 E147.77880
G1 X139.828 Y121.028 E148.50674
G1 X31.772 Y121.028 E150.62942
G1 X31.772 Y107.972 E150.88589
G1 X35.828 Y107.972 E150.96557
G1 X35.828 Y117.972 E151.16201
G1 X136.772 Y117.972 E153.14498
G1 X136.772 Y87.028 E153.75286
G1 X35.828 Y87.028 E155.73583
G1 X35.828 Y97.028 E155.93227
G1 X31.772 Y97.028 E156.01195
G1 X31.772 Y83.972 E156.26842
G0 F8400 X31.457 Y83.657
;TYPE:WALL-OUTER
G1 F1800 X140.143 Y83.657 E158.40348
G1 X140.143 Y121.343 E159.14379
G1 X31.457 Y121.343 E161.27885
G1 X31.457 Y107.657 E161.54770
G1 X36.143 Y107.657 E161.63976
G1 X36.143 Y117.657 E161.83620
G1 X136.457 Y117.657 E163.80679
G1 X136.457 Y87.343 E164.40229
G1 X36.143 Y87.343 E166.37288
G1 X36.143 Y97.343 E166.56933
G1 X31.457 Y97.343 E166.66138
G1 X31.457 Y83.657 E166.93023
G0 F8400 X31.944 Y84.288
;TYPE:SKIN
G1 F1800 X35.656 Y88.000 E167.03336
G0 F8400 X35.656 Y87.555
G1 F1800 X32.244 Y84.143 E167.12814
G0 F8400 X32.690 Y84.143
G1 F1800 X35.656 Y87.109 E167.21054
G0 F8400 X35.847 Y86.855
G1 F1800 X33.135 Y84.143 E167.28589
G0 F8400 X33.581 Y84.143
G1 F1800 X36.292 Y86.855 E167.36122
G0 F8400 X36.738 Y86.855
G1 F1800 X34.026 Y84.143 E167.43656
G0 F8400 X34.472 Y84.143
G1 F1800 X37.183 Y86.855 E167.51189
G0 F8400 X37.629 Y86.855
G1 F1800 X34.917 Y84.143 E167.58723
G0 F8400 X35.363 Y84.143
G1 F1800 X38.074 Y86.855 E167.66256
G0 F8400 X38.520 Y86.855
G1 F1800 X35.808 Y84.143 E167.73790
G0 F8400 X36.254 Y84.143
G1 F1800 X38.965 Y86.855 E167.81323
G0 F8400 X39.411 Y86.855
G1 F1800 X36.699 Y84.143 E167.88857
G0 F8400 X37.145 Y84.143
G1 F1800 X39.856 Y86.855 E167.96390
G0 F8400 X40.302 Y86.855
G1 F1800 X37.590 Y84.143 E168.03924
G0 F8400 X38.035 Y84.143
G1 F1800 X40.747 Y86.855 E168.11459
G0 F8400 X41.193 Y86.855
G1 F1800 X38.481 Y84.143 E168.18993
G0 F8400 X38.926 Y84.143
G1 F1800 X41.638 Y86.855 E168.26527
G0 F8400 X42.084 Y86.855
G1 F1800 X39.372 Y84.143 E168.34061
G0 F8400 X39.817 Y84.143
G1 F1800 X42.529 Y86.855 E168.41596
G0 F8400 X42.975 Y86.855
G1 F1800 X40.263 Y84.143 E168.49130
G0 F8400 X40.708 Y84.143
G1 F1800 X43.420 Y86.855 E168.56664
G0 F8400 X43.866 Y86.855
G1 F1800 X41.154 Y84.143 E168.64198
G0 F8400 X41.599 Y84.143
G1 F1800 X44.311 Y86.855 E168.71733
G0 F8400 X44.757 Y86.855
G1 F1800 X42.045 Y84.143 E168.79267
