;Generated with Cura_SteamEngine 15.01
G28 ; Home extruder
G1 Z5 F300
G1 Z0 F300
M106 S165 ; Turn on fan
G90 ; Absolute positioning
M82 ; Extruder in absolute mode
; Activate all used extruder
M104 T0 S200
G92 E0 ; Reset extruder position
; Wait for all used extruders to reach temperature
M109 T0 S200
T0
M83
G1 E10 F100
M82
G92 E0 ; Reset extruder position
M117 Vertex is printing
G1 F300 Z5
;Layer count: 25
;LAYER:0
M106 S255
G0 F8400 X70.733 Y86.433 Z0.200
;TYPE:SKIRT
G1 F1800 X91.867 Y86.433 E0.41516
G1 X91.867 Y118.567 E1.04641
G1 X70.733 Y118.567 E1.46157
G1 X70.733 Y86.433 E2.09282
G0 F8400 X71.048 Y86.748
G1 F1800 X91.552 Y86.748 E2.49561
G1 X91.552 Y118.252 E3.11448
G1 X71.048 Y118.252 E3.51727
G1 X71.048 Y86.748 E4.13614
G0 F8400 X71.363 Y87.063
G1 F1800 X91.237 Y87.063 E4.52655
G1 X91.237 Y117.937 E5.13305
G1 X71.363 Y117.937 E5.52346
G1 X71.363 Y87.063 E6.12995
G0 F8400 X71.678 Y87.378
G1 F1800 X90.922 Y87.378 E6.50799
G1 X90.922 Y117.622 E7.10211
G1 X71.678 Y117.622 E7.48014
G1 X71.678 Y87.378 E8.07427
G0 F8400 X71.993 Y87.693
G1 F1800 X90.607 Y87.693 E8.43992
G1 X90.607 Y117.307 E9.02167
G1 X71.993 Y117.307 E9.38733
G1 X71.993 Y87.693 E9.96907
G0 F8400 X72.308 Y88.008
G1 F1800 X90.292 Y88.008 E10.32236
G1 X90.292 Y116.992 E10.89172
G1 X72.308 Y116.992 E11.24501
G1 X72.308 Y88.008 E11.81438
G0 F8400 X72.623 Y88.323
G1 F1800 X89.977 Y88.323 E12.15528
G1 X89.977 Y116.677 E12.71228
G1 X72.623 Y116.677 E13.05318
G1 X72.623 Y88.323 E13.61018
G0 F8400 X72.938 Y88.638
G1 F1800 X89.662 Y88.638 E13.93871
G1 X89.662 Y116.362 E14.48333
G1 X72.938 Y116.362 E14.81186
G1 X72.938 Y88.638 E15.35647
G0 F8400 X73.253 Y88.953
G1 F1800 X89.347 Y88.953 E15.67263
G1 X89.347 Y116.047 E16.20487
G1 X73.253 Y116.047 E16.52103
G1 X73.253 Y88.953 E17.05327
G0 F8400 X73.568 Y89.268
G1 F1800 X89.032 Y89.268 E17.35705
G1 X89.032 Y115.732 E17.87691
G1 X73.568 Y115.732 E18.18069
G1 X73.568 Y89.268 E18.70056
G0 F8400 X73.883 Y89.583
G1 F1800 X88.717 Y89.583 E18.99196
G1 X88.717 Y115.417 E19.49945
G1 X73.883 Y115.417 E19.79085
G1 X73.883 Y89.583 E20.29834
G0 F8400 X74.198 Y89.898
G1 F1800 X88.402 Y89.898 E20.57737
G1 X88.402 Y115.102 E21.07248
G1 X74.198 Y115.102 E21.35151
G1 X74.198 Y89.898 E21.84663
G0 F8400 X74.513 Y90.213
G1 F1800 X88.087 Y90.213 E22.11328
G1 X88.087 Y114.787 E22.59601
G1 X74.513 Y114.787 E22.86267
G1 X74.513 Y90.213 E23.34540
G0 F8400 X74.828 Y90.528
G1 F1800 X87.772 Y90.528 E23.59968
G1 X87.772 Y114.472 E24.07004
G1 X74.828 Y114.472 E24.32432
G1 X74.828 Y90.528 E24.79468
G0 F8400 X75.143 Y90.843
G1 F1800 X87.457 Y90.843 E25.03658
G1 X87.457 Y114.157 E25.49457
G1 X75.143 Y114.157 E25.73647
G1 X75.143 Y90.843 E26.19445
G0 F8400 X75.772 Y91.472
;TYPE:WALL-INNER
G1 F1800 X86.828 Y91.472 E26.41164
G1 X86.828 Y113.528 E26.84491
G1 X75.772 Y113.528 E27.06210
G1 X75.772 Y91.472 E27.49537
G0 F8400 X78.859 Y94.647
G1 F1800 X78.568 Y95.048 E27.50511
G1 X78.386 Y95.508 E27.51482
G1 X78.324 Y96.000 E27.52457
G1 X78.386 Y96.491 E27.53429
G1 X78.568 Y96.951 E27.54401
G1 X78.859 Y97.352 E27.55374
G1 X79.241 Y97.668 E27.56348
G1 X79.689 Y97.878 E27.57320
G1 X80.177 Y97.972 E27.58296
G1 X80.690 Y97.934 E27.59307
G1 X81.141 Y97.787 E27.60238
G1 X81.559 Y97.521 E27.61212
G1 X81.898 Y97.161 E27.62183
G1 X82.136 Y96.727 E27.63155
G1 X82.260 Y96.248 E27.64127
G1 X82.260 Y95.751 E27.65104
G1 X82.136 Y95.272 E27.66076
G1 X81.898 Y94.838 E27.67048
G1 X81.559 Y94.478 E27.68019
G1 X81.141 Y94.212 E27.68993
G1 X80.670 Y94.059 E27.69965
G1 X80.175 Y94.027 E27.70940
G1 X79.689 Y94.121 E27.71912
G1 X79.241 Y94.331 E27.72884
G1 X78.859 Y94.647 E27.73858
G0 F8400 X78.283 Y96.000
G0 X78.830 Y97.380
G0 X80.175 Y107.027
G1 F1800 X79.689 Y107.121 E27.74831
G1 X79.241 Y107.331 E27.75803
G1 X78.859 Y107.647 E27.76776
G1 X78.568 Y108.048 E27.77750
G1 X78.386 Y108.508 E27.78722
G1 X78.324 Y109.000 E27.79696
G1 X78.386 Y109.491 E27.80668
G1 X78.568 Y109.951 E27.81640
G1 X78.859 Y110.352 E27.82613
G1 X79.241 Y110.668 E27.83587
G1 X79.689 Y110.878 E27.84559
G1 X80.177 Y110.972 E27.85535
G1 X80.690 Y110.934 E27.86546
G1 X81.141 Y110.787 E27.87477
G1 X81.559 Y110.521 E27.88451
G1 X81.898 Y110.161 E27.89422
G1 X82.136 Y109.727 E27.90394
G1 X82.260 Y109.248 E27.91366
G1 X82.260 Y108.751 E27.92343
G1 X82.136 Y108.272 E27.93315
G1 X81.898 Y107.838 E27.94287
G1 X81.559 Y107.478 E27.95258
G1 X81.141 Y107.212 E27.96232
G1 X80.670 Y107.059 E27.97205
G1 X80.175 Y107.027 E27.98179
G0 F8400 X80.195 Y107.344
;TYPE:WALL-OUTER
G1 F1800 X79.787 Y107.423 E27.98995
G1 X79.411 Y107.599 E27.99811
G1 X79.091 Y107.865 E28.00628
G1 X78.846 Y108.201 E28.01445
G1 X78.694 Y108.587 E28.02260
G1 X78.642 Y109.000 E28.03078
G1 X78.694 Y109.412 E28.03894
G1 X78.846 Y109.798 E28.04709
G1 X79.091 Y110.134 E28.05525
G1 X79.411 Y110.400 E28.06343
G1 X79.787 Y110.576 E28.07158
G1 X80.196 Y110.655 E28.07977
G1 X80.629 Y110.623 E28.08830
G1 X81.006 Y110.500 E28.09609
G1 X81.357 Y110.277 E28.10426
G1 X81.641 Y109.974 E28.11241
G1 X81.841 Y109.610 E28.12057
G1 X81.945 Y109.208 E28.12873
G1 X81.945 Y108.791 E28.13692
G1 X81.841 Y108.389 E28.14508
G1 X81.641 Y108.025 E28.15324
G1 X81.357 Y107.722 E28.16139
G1 X81.005 Y107.499 E28.16958
G1 X80.611 Y107.371 E28.17772
G1 X80.195 Y107.344 E28.18591
G0 F8400 X80.210 Y107.087
G0 X78.830 Y107.619
G0 X78.283 Y109.000
G0 X75.625 Y113.585
G0 X75.457 Y113.843
G1 F1800 X75.457 Y91.157 E28.63156
G1 X87.143 Y91.157 E28.86112
G1 X87.143 Y113.843 E29.30677
G1 X75.457 Y113.843 E29.53633
G0 F8400 X75.625 Y113.585
G0 X79.738 Y97.829
G0 X79.787 Y97.576
G1 F1800 X80.196 Y97.655 E29.54452
G1 X80.629 Y97.623 E29.55305
G1 X81.006 Y97.500 E29.56084
G1 X81.357 Y97.277 E29.56900
G1 X81.641 Y96.974 E29.57716
G1 X81.841 Y96.610 E29.58532
G1 X81.945 Y96.208 E29.59348
G1 X81.945 Y95.791 E29.60167
G1 X81.841 Y95.389 E29.60983
G1 X81.641 Y95.025 E29.61799
G1 X81.357 Y94.722 E29.62614
G1 X81.005 Y94.499 E29.63433
G1 X80.611 Y94.371 E29.64247
G1 X80.195 Y94.344 E29.65066
G1 X79.787 Y94.423 E29.65882
G1 X79.411 Y94.599 E29.66698
G1 X79.091 Y94.865 E29.67515
G1 X78.846 Y95.201 E29.68332
G1 X78.694 Y95.587 E29.69147
G1 X78.642 Y96.000 E29.69965
G1 X78.694 Y96.412 E29.70780
G1 X78.846 Y96.798 E29.71595
G1 X79.091 Y97.134 E29.72412
G1 X79.411 Y97.400 E29.73230
G1 X79.787 Y97.576 E29.74045
G0 F8400 X79.481 Y97.969
;TYPE:SKIN
G1 F1800 X86.655 Y105.143 E29.93975
G0 F8400 X86.655 Y104.698
G1 F1800 X80.086 Y98.128 E30.12226
G0 F8400 X80.521 Y98.118
G1 F1800 X86.655 Y104.252 E30.29267
G0 F8400 X86.655 Y103.807
G1 F1800 X80.895 Y98.047 E30.45269
G0 F8400 X81.228 Y97.934
G1 F1800 X86.655 Y103.362 E30.60347
G0 F8400 X86.655 Y102.916
G1 F1800 X81.501 Y97.761 E30.74667
G0 F8400 X81.751 Y97.566
G1 F1800 X86.655 Y102.471 E30.88292
G0 F8400 X86.655 Y102.025
G1 F1800 X81.967 Y97.336 E31.01318
G0 F8400 X82.143 Y97.068
G1 F1800 X86.655 Y101.580 E31.13853
G0 F8400 X86.655 Y101.134
G1 F1800 X82.300 Y96.778 E31.25953
G0 F8400 X82.391 Y96.424
G1 F1800 X86.655 Y100.689 E31.37800
G0 F8400 X86.655 Y100.243
G1 F1800 X82.431 Y96.019 E31.49535
G0 F8400 X82.377 Y95.519
G1 F1800 X86.655 Y99.798 E31.61421
G0 F8400 X86.655 Y99.352
G1 F1800 X82.038 Y94.735 E31.74247
G0 F8400 X81.604 Y94.301
G1 F1800 X78.947 Y91.643 E31.81630
G0 F8400 X79.392 Y91.643
G1 F1800 X86.655 Y98.907 E32.01809
G0 F8400 X86.655 Y98.461
G1 F1800 X79.838 Y91.643 E32.20749
G0 F8400 X78.501 Y91.643
G1 F1800 X80.765 Y93.908 E32.27040
G0 F8400 X80.272 Y93.859
G1 F1800 X78.056 Y91.643 E32.33196
G0 F8400 X77.610 Y91.643
G1 F1800 X79.876 Y93.909 E32.39492
G0 F8400 X79.527 Y94.006
G1 F1800 X77.165 Y91.643 E32.46055
G0 F8400 X76.719 Y91.643
G1 F1800 X79.223 Y94.147 E32.53011
G0 F8400 X78.965 Y94.335
G1 F1800 X76.274 Y91.643 E32.60489
G0 F8400 X75.943 Y91.759
G1 F1800 X78.725 Y94.540 E32.68216
G0 F8400 X78.536 Y94.797
G1 F1800 X75.943 Y92.204 E32.75420
G0 F8400 X75.943 Y92.650
G1 F1800 X78.371 Y95.077 E32.82163
G0 F8400 X78.244 Y95.396
G1 F1800 X75.943 Y93.095 E32.88556
G0 F8400 X75.943 Y93.541
G1 F1800 X78.179 Y95.776 E32.94766
G0 F8400 X78.179 Y96.221
G1 F1800 X75.943 Y93.986 E33.00977
G0 F8400 X75.943 Y94.431
G1 F1800 X78.331 Y96.819 E33.07611
G0 F8400 X75.943 Y96.659
G1 F1800 X86.655 Y107.371 E33.37370
G0 F8400 X86.655 Y107.816
G1 F1800 X75.943 Y97.104 E33.67129
G0 F8400 X75.943 Y97.550
G1 F1800 X86.655 Y108.262 E33.96889
G0 F8400 X86.655 Y108.707
G1 F1800 X75.943 Y97.995 E34.26648
G0 F8400 X75.943 Y98.441
G1 F1800 X86.655 Y109.153 E34.56407
G0 F8400 X86.655 Y109.598
G1 F1800 X75.943 Y98.886 E34.86166
G0 F8400 X75.943 Y99.332
G1 F1800 X86.655 Y110.044 E35.15926
G0 F8400 X86.655 Y110.489
G1 F1800 X75.943 Y99.777 E35.45685
G0 F8400 X75.943 Y96.213
G1 F1800 X86.655 Y106.925 E35.75444
G0 F8400 X86.655 Y106.480
G1 F1800 X75.943 Y95.768 E36.05203
G0 F8400 X75.943 Y95.322
G1 F1800 X86.655 Y106.034 E36.34962
G0 F8400 X86.655 Y105.589
G1 F1800 X75.943 Y94.877 E36.64722
G0 F8400 X75.943 Y100.223
G1 F1800 X86.655 Y110.935 E36.94481
G0 F8400 X86.655 Y111.380
G1 F1800 X75.943 Y100.668 E37.24240
G0 F8400 X75.943 Y101.114
G1 F1800 X86.655 Y111.826 E37.53999
G0 F8400 X86.655 Y112.271
G1 F1800 X75.943 Y101.559 E37.83758
G0 F8400 X75.943 Y102.005
G1 F1800 X80.886 Y106.947 E37.97489
G0 F8400 X80.359 Y106.865
G1 F1800 X75.943 Y102.450 E38.09756
G0 F8400 X75.943 Y102.896
G1 F1800 X79.943 Y106.895 E38.20867
G0 F8400 X79.582 Y106.980
G1 F1800 X75.943 Y103.341 E38.30977
G0 F8400 X75.943 Y103.787
G1 F1800 X79.278 Y107.121 E38.40240
G0 F8400 X79.009 Y107.297
G1 F1800 X75.943 Y104.232 E38.48757
G0 F8400 X75.943 Y104.677
G1 F1800 X78.766 Y107.500 E38.56599
G0 F8400 X78.571 Y107.751
G1 F1800 X75.943 Y105.123 E38.63900
G0 F8400 X75.943 Y105.568
G1 F1800 X78.394 Y108.019 E38.70709
G0 F8400 X78.268 Y108.338
G1 F1800 X75.943 Y106.014 E38.77167
G0 F8400 X75.943 Y106.459
G1 F1800 X78.188 Y108.704 E38.83404
G0 F8400 X78.167 Y109.129
G1 F1800 X75.943 Y106.905 E38.89583
G0 F8400 X75.943 Y107.350
G1 F1800 X78.278 Y109.685 E38.96069
G0 F8400 X79.634 Y111.041
G1 F1800 X81.948 Y113.354 E39.02497
G0 F8400 X82.393 Y113.354
G1 F1800 X80.182 Y111.143 E39.08639
G0 F8400 X80.596 Y111.112
G1 F1800 X82.838 Y113.354 E39.14868
G0 F8400 X83.284 Y113.354
G1 F1800 X80.956 Y111.027 E39.21334
G0 F8400 X81.278 Y110.903
G1 F1800 X83.729 Y113.354 E39.28143
G0 F8400 X84.175 Y113.354
G1 F1800 X81.551 Y110.730 E39.35433
G0 F8400 X81.791 Y110.525
G1 F1800 X84.620 Y113.354 E39.43292
G0 F8400 X85.066 Y113.354
G1 F1800 X82.006 Y110.295 E39.51792
G0 F8400 X82.172 Y110.015
G1 F1800 X85.511 Y113.354 E39.61068
G0 F8400 X85.957 Y113.354
G1 F1800 X82.315 Y109.713 E39.71184
G0 F8400 X82.407 Y109.359
G1 F1800 X86.402 Y113.354 E39.82283
G0 F8400 X86.655 Y113.162
G1 F1800 X82.431 Y108.938 E39.94018
G0 F8400 X82.349 Y108.410
G1 F1800 X86.655 Y112.717 E40.05982
G0 F8400 X81.502 Y113.354
G1 F1800 X75.943 Y107.796 E40.21424
G0 F8400 X75.943 Y108.241
G1 F1800 X81.057 Y113.354 E40.35630
G0 F8400 X80.611 Y113.354
G1 F1800 X75.943 Y108.687 E40.48597
G0 F8400 X75.943 Y109.132
G1 F1800 X80.166 Y113.354 E40.60327
G0 F8400 X79.720 Y113.354
G1 F1800 X75.943 Y109.578 E40.70819
G0 F8400 X75.943 Y110.023
G1 F1800 X79.275 Y113.354 E40.80074
G0 F8400 X78.829 Y113.354
G1 F1800 X75.943 Y110.469 E40.88090
G0 F8400 X75.943 Y110.914
G1 F1800 X78.384 Y113.354 E40.94870
G0 F8400 X77.938 Y113.354
G1 F1800 X75.943 Y111.360 E41.00411
G0 F8400 X75.943 Y111.805
G1 F1800 X77.493 Y113.354 E41.04716
G0 F8400 X77.047 Y113.354
G1 F1800 X75.943 Y112.251 E41.07782
G0 F8400 X75.943 Y112.696
G1 F1800 X76.602 Y113.354 E41.09611
G0 F8400 X76.156 Y113.354
G1 F1800 X75.943 Y113.142 E41.10201
G0 F8400 X78.830 Y107.619
G0 X86.655 Y98.016
G1 F1800 X80.283 Y91.643 E41.27905
G0 F8400 X80.728 Y91.643
G1 F1800 X86.655 Y97.570 E41.44371
G0 F8400 X86.655 Y97.125
G1 F1800 X81.174 Y91.643 E41.59599
G0 F8400 X81.619 Y91.643
G1 F1800 X86.655 Y96.679 E41.73590
G0 F8400 X86.655 Y96.234
G1 F1800 X82.065 Y91.643 E41.86343
G0 F8400 X82.510 Y91.643
G1 F1800 X86.655 Y95.788 E41.97858
G0 F8400 X86.655 Y95.343
G1 F1800 X82.956 Y91.643 E42.08136
G0 F8400 X83.401 Y91.643
G1 F1800 X86.655 Y94.897 E42.17176
G0 F8400 X86.655 Y94.452
G1 F1800 X83.847 Y91.643 E42.24978
G0 F8400 X84.292 Y91.643
G1 F1800 X86.655 Y94.007 E42.31544
G0 F8400 X86.655 Y93.561
G1 F1800 X84.738 Y91.643 E42.36871
G0 F8400 X85.183 Y91.643
G1 F1800 X86.655 Y93.116 E42.40962
G0 F8400 X86.655 Y92.670
G1 F1800 X85.629 Y91.643 E42.43814
G0 F8400 X86.074 Y91.643
G1 F1800 X86.655 Y92.225 E42.45429
G0 F8400 X86.655 Y91.779
G1 F1800 X86.520 Y91.643 E42.45805
;LAYER:1
G0 F8400 X86.775 Y91.525 Z0.400
;TYPE:WALL-INNER
G1 F1980 X86.775 Y113.475 E42.93716
G1 X75.825 Y113.475 E43.17616
G1 X75.825 Y91.525 E43.65526
G1 X86.775 Y91.525 E43.89427
G0 F8400 X81.941 Y94.807
G1 F1980 X81.594 Y94.436 E43.90536
G1 X81.163 Y94.163 E43.91649
G1 X80.680 Y94.006 E43.92758
G1 X80.172 Y93.974 E43.93869
G1 X79.672 Y94.070 E43.94980
G1 X79.212 Y94.286 E43.96089
G1 X78.820 Y94.611 E43.97201
G1 X78.521 Y95.022 E43.98310
G1 X78.334 Y95.495 E43.99420
G1 X78.271 Y96.000 E44.00531
G1 X78.334 Y96.504 E44.01640
G1 X78.521 Y96.977 E44.02750
G1 X78.820 Y97.388 E44.03859
G1 X79.212 Y97.713 E44.04971
G1 X79.672 Y97.929 E44.06080
G1 X80.172 Y98.025 E44.07191
G1 X80.680 Y97.993 E44.08302
G1 X81.163 Y97.836 E44.09411
G1 X81.594 Y97.563 E44.10524
G1 X81.941 Y97.192 E44.11633
G1 X82.186 Y96.747 E44.12742
G1 X82.313 Y96.255 E44.13851
G1 X82.313 Y95.744 E44.14966
G1 X82.186 Y95.252 E44.16075
G1 X81.941 Y94.807 E44.17184
G0 F8400 X82.336 Y96.257
G0 X80.680 Y107.006
G1 F1980 X80.172 Y106.974 E44.18295
G1 X79.672 Y107.070 E44.19406
G1 X79.212 Y107.286 E44.20516
G1 X78.820 Y107.611 E44.21627
G1 X78.521 Y108.022 E44.22736
G1 X78.334 Y108.495 E44.23847
G1 X78.271 Y109.000 E44.24957
G1 X78.334 Y109.504 E44.26066
G1 X78.521 Y109.977 E44.27176
G1 X78.820 Y110.388 E44.28286
G1 X79.212 Y110.713 E44.29397
G1 X79.672 Y110.929 E44.30506
G1 X80.172 Y111.025 E44.31618
G1 X80.680 Y110.993 E44.32729
G1 X81.163 Y110.836 E44.33837
G1 X81.594 Y110.563 E44.34951
G1 X81.941 Y110.192 E44.36059
G1 X82.186 Y109.747 E44.37168
G1 X82.313 Y109.255 E44.38277
G1 X82.313 Y108.744 E44.39393
G1 X82.186 Y108.252 E44.40502
G1 X81.941 Y107.807 E44.41611
G1 X81.594 Y107.436 E44.42719
G1 X81.163 Y107.163 E44.43833
G1 X80.680 Y107.006 E44.44941
G0 F8400 X80.614 Y107.353
;TYPE:WALL-OUTER
G1 F1980 X80.194 Y107.326 E44.45860
G1 X79.781 Y107.405 E44.46778
G1 X79.401 Y107.584 E44.47695
G1 X79.077 Y107.852 E44.48613
G1 X78.830 Y108.192 E44.49530
G1 X78.676 Y108.582 E44.50445
G1 X78.624 Y109.000 E44.51364
G1 X78.676 Y109.417 E44.52282
G1 X78.830 Y109.807 E44.53197
G1 X79.077 Y110.147 E44.54114
G1 X79.401 Y110.415 E44.55032
G1 X79.781 Y110.594 E44.55949
G1 X80.194 Y110.673 E44.56867
G1 X80.614 Y110.646 E44.57785
G1 X81.013 Y110.517 E44.58700
G1 X81.369 Y110.291 E44.59621
G1 X81.656 Y109.985 E44.60537
G1 X81.858 Y109.617 E44.61453
G1 X81.963 Y109.210 E44.62370
G1 X81.963 Y108.789 E44.63289
G1 X81.858 Y108.382 E44.64207
G1 X81.656 Y108.014 E44.65123
G1 X81.369 Y107.708 E44.66039
G1 X81.013 Y107.482 E44.66959
G1 X80.614 Y107.353 E44.67874
G0 F8400 X80.632 Y107.079
G0 X79.200 Y107.266
G0 X78.312 Y108.489
G0 X75.660 Y113.550
G0 X75.475 Y113.825
G1 F1980 X75.475 Y91.175 E45.17312
G1 X87.125 Y91.175 E45.42741
G1 X87.125 Y113.825 E45.92179
G1 X75.475 Y113.825 E46.17607
G0 F8400 X75.660 Y113.550
G0 X79.729 Y97.862
G0 X79.781 Y97.594
G1 F1980 X80.194 Y97.673 E46.18525
G1 X80.614 Y97.646 E46.19444
G1 X81.013 Y97.517 E46.20359
G1 X81.369 Y97.291 E46.21279
G1 X81.656 Y96.985 E46.22195
G1 X81.858 Y96.617 E46.23111
G1 X81.963 Y96.210 E46.24029
G1 X81.963 Y95.789 E46.24948
G1 X81.858 Y95.382 E46.25865
G1 X81.656 Y95.014 E46.26781
G1 X81.369 Y94.708 E46.27697
G1 X81.013 Y94.482 E46.28618
G1 X80.614 Y94.353 E46.29533
G1 X80.194 Y94.326 E46.30451
G1 X79.781 Y94.405 E46.31369
G1 X79.401 Y94.584 E46.32286
G1 X79.077 Y94.852 E46.33204
G1 X78.830 Y95.192 E46.34121
G1 X78.676 Y95.582 E46.35036
G1 X78.624 Y96.000 E46.35956
G1 X78.676 Y96.417 E46.36873
G1 X78.830 Y96.807 E46.37788
G1 X79.077 Y97.147 E46.38705
G1 X79.401 Y97.415 E46.39623
G1 X79.781 Y97.594 E46.40540
G0 F8400 X79.796 Y98.147
;TYPE:SKIN
