;Generated with Cura_SteamEngine 15.01
G28 ; Home extruder
G1 Z5 F300
G1 Z0 F300
M106 S165 ; Turn on fan
G90 ; Absolute positioning
M82 ; Extruder in absolute mode
; Activate all used extruder
M104 T0 S200
G92 E0 ; Reset extruder position
; Wait for all used extruders to reach temperature
M109 T0 S200
T0
M83
G1 E10 F100
M82
G92 E0 ; Reset extruder position
M117 Vertex is printing
G1 F300 Z5
;Layer count: 25
;LAYER:0
M106 S255
G0 F8400 X45.233 Y62.933 Z0.200
;TYPE:SKIRT
G1 F1800 X117.367 Y62.933 E1.41702
G1 X117.367 Y142.067 E2.97155
G1 X45.233 Y142.067 E4.38857
G1 X45.233 Y62.933 E5.94310
G0 F8400 X45.548 Y63.248
G1 F1800 X117.052 Y63.248 E7.34774
G1 X117.052 Y141.752 E8.88990
G1 X45.548 Y141.752 E10.29454
G1 X45.548 Y63.248 E11.83669
G0 F8400 X45.863 Y63.563
G1 F1800 X116.737 Y63.563 E13.22896
G1 X116.737 Y141.437 E14.75874
G1 X45.863 Y141.437 E16.15101
G1 X45.863 Y63.563 E17.68078
G0 F8400 X46.178 Y63.878
G1 F1800 X116.422 Y63.878 E19.06068
G1 X116.422 Y141.122 E20.57808
G1 X46.178 Y141.122 E21.95797
G1 X46.178 Y63.878 E23.47537
G0 F8400 X46.493 Y64.193
G1 F1800 X116.107 Y64.193 E24.84289
G1 X116.107 Y140.807 E26.34791
G1 X46.493 Y140.807 E27.71543
G1 X46.493 Y64.193 E29.22045
G0 F8400 X46.808 Y64.508
G1 F1800 X115.792 Y64.508 E30.57559
G1 X115.792 Y140.492 E32.06824
G1 X46.808 Y140.492 E33.42338
G1 X46.808 Y64.508 E34.91603
G0 F8400 X47.123 Y64.823
G1 F1800 X115.477 Y64.823 E36.25880
G1 X115.477 Y140.177 E37.73907
G1 X47.123 Y140.177 E39.08184
G1 X47.123 Y64.823 E40.56211
G0 F8400 X47.438 Y65.138
G1 F1800 X115.162 Y65.138 E41.89250
G1 X115.162 Y139.862 E43.36040
G1 X47.438 Y139.862 E44.69079
G1 X47.438 Y65.138 E46.15868
G0 F8400 X47.753 Y65.453
G1 F1800 X114.847 Y65.453 E47.47670
G1 X114.847 Y139.547 E48.93222
G1 X47.753 Y139.547 E50.25023
G1 X47.753 Y65.453 E51.70575
G0 F8400 X48.068 Y65.768
G1 F1800 X114.532 Y65.768 E53.01139
G1 X114.532 Y139.232 E54.45454
G1 X48.068 Y139.232 E55.76017
G1 X48.068 Y65.768 E57.20332
G0 F8400 X48.383 Y66.083
G1 F1800 X114.217 Y66.083 E58.49658
G1 X114.217 Y138.917 E59.92735
G1 X48.383 Y138.917 E61.22061
G1 X48.383 Y66.083 E62.65138
G0 F8400 X48.698 Y66.398
G1 F1800 X113.902 Y66.398 E63.93227
G1 X113.902 Y138.602 E65.35066
G1 X48.698 Y138.602 E66.63155
G1 X48.698 Y66.398 E68.04994
G0 F8400 X49.013 Y66.713
G1 F1800 X113.587 Y66.713 E69.31845
G1 X113.587 Y138.287 E70.72447
G1 X49.013 Y138.287 E71.99298
G1 X49.013 Y66.713 E73.39900
G0 F8400 X49.328 Y67.028
G1 F1800 X113.272 Y67.028 E74.65513
G1 X113.272 Y137.972 E76.04877
G1 X49.328 Y137.972 E77.30491
G1 X49.328 Y67.028 E78.69855
G0 F8400 X49.643 Y67.343
G1 F1800 X112.957 Y67.343 E79.94231
G1 X112.957 Y137.657 E81.32357
G1 X49.643 Y137.657 E82.56733
G1 X49.643 Y67.343 E83.94860
G0 F8400 X50.272 Y67.972
;TYPE:WALL-INNER
G1 F1800 X112.328 Y67.972 E85.16764
G1 X112.328 Y137.028 E86.52420
G1 X50.272 Y137.028 E87.74324
G1 X50.272 Y67.972 E89.09980
G0 F8400 X53.724 Y71.489
G1 F1800 X53.506 Y71.789 E89.10708
G1 X53.370 Y72.133 E89.11435
G1 X53.324 Y72.500 E89.12161
G1 X53.370 Y72.866 E89.12886
G1 X53.506 Y73.210 E89.13613
G1 X53.724 Y73.510 E89.14341
G1 X54.008 Y73.745 E89.15065
G1 X54.343 Y73.903 E89.15793
G1 X54.710 Y73.973 E89.16527
G1 X55.091 Y73.946 E89.17277
G1 X55.428 Y73.834 E89.17975
G1 X55.740 Y73.637 E89.18700
G1 X55.994 Y73.366 E89.19429
G1 X56.171 Y73.043 E89.20153
G1 X56.264 Y72.685 E89.20879
G1 X56.264 Y72.314 E89.21608
G1 X56.171 Y71.956 E89.22335
G1 X55.993 Y71.630 E89.23064
G1 X55.728 Y71.355 E89.23815
G1 X55.428 Y71.165 E89.24512
G1 X55.077 Y71.050 E89.25238
G1 X54.707 Y71.026 E89.25966
G1 X54.343 Y71.096 E89.26694
G1 X54.008 Y71.254 E89.27422
G1 X53.724 Y71.489 E89.28146
G0 F8400 X54.705 Y70.985
G0 X56.026 Y71.606
G0 X66.886 Y75.508
G1 F1800 X66.824 Y76.000 E89.29120
G1 X66.887 Y76.494 E89.30098
G1 X67.081 Y76.968 E89.31105
G1 X67.361 Y77.354 E89.32041
G1 X67.761 Y77.677 E89.33051
G1 X68.189 Y77.878 E89.33980
G1 X68.677 Y77.972 E89.34956
G1 X69.190 Y77.934 E89.35967
G1 X69.641 Y77.787 E89.36899
G1 X70.059 Y77.521 E89.37872
G1 X70.398 Y77.161 E89.38843
G1 X70.636 Y76.727 E89.39816
G1 X70.760 Y76.248 E89.40788
G1 X70.760 Y75.751 E89.41764
G1 X70.636 Y75.272 E89.42736
G1 X70.398 Y74.838 E89.43708
G1 X70.059 Y74.478 E89.44680
G1 X69.641 Y74.212 E89.45653
G1 X69.170 Y74.059 E89.46626
G1 X68.675 Y74.027 E89.47600
G1 X68.189 Y74.121 E89.48573
G1 X67.741 Y74.331 E89.49545
G1 X67.359 Y74.647 E89.50519
G1 X67.068 Y75.048 E89.51492
G1 X66.886 Y75.508 E89.52464
G0 F8400 X67.719 Y74.297
G0 X69.178 Y74.018
G0 X70.431 Y74.814
G0 X91.824 Y76.000
G1 F1800 X91.887 Y76.494 E89.53442
G1 X92.081 Y76.968 E89.54448
G1 X92.361 Y77.354 E89.55385
G1 X92.761 Y77.677 E89.56395
G1 X93.189 Y77.878 E89.57324
G1 X93.677 Y77.972 E89.58300
G1 X94.190 Y77.934 E89.59310
G1 X94.641 Y77.787 E89.60242
G1 X95.059 Y77.521 E89.61216
G1 X95.398 Y77.161 E89.62187
G1 X95.636 Y76.727 E89.63159
G1 X95.760 Y76.248 E89.64131
G1 X95.760 Y75.751 E89.65108
G1 X95.636 Y75.272 E89.66080
G1 X95.398 Y74.838 E89.67052
G1 X95.059 Y74.478 E89.68023
G1 X94.641 Y74.212 E89.68997
G1 X94.170 Y74.059 E89.69969
G1 X93.675 Y74.027 E89.70944
G1 X93.189 Y74.121 E89.71916
G1 X92.741 Y74.331 E89.72888
G1 X92.359 Y74.647 E89.73862
G1 X92.068 Y75.048 E89.74835
G1 X91.886 Y75.508 E89.75807
G1 X91.824 Y76.000 E89.76781
G0 F8400 X92.330 Y74.619
G0 X93.673 Y73.986
G0 X95.086 Y74.445
G0 X106.370 Y72.866
G1 F1800 X106.506 Y73.210 E89.77508
G1 X106.724 Y73.510 E89.78237
G1 X107.008 Y73.745 E89.78961
G1 X107.343 Y73.903 E89.79688
G1 X107.710 Y73.973 E89.80422
G1 X108.091 Y73.946 E89.81173
G1 X108.428 Y73.834 E89.81870
G1 X108.740 Y73.637 E89.82595
G1 X108.994 Y73.366 E89.83325
G1 X109.171 Y73.043 E89.84048
G1 X109.264 Y72.685 E89.84775
G1 X109.264 Y72.314 E89.85504
G1 X109.171 Y71.956 E89.86230
G1 X108.993 Y71.630 E89.86960
G1 X108.728 Y71.355 E89.87710
G1 X108.428 Y71.165 E89.88408
G1 X108.077 Y71.050 E89.89133
G1 X107.707 Y71.026 E89.89862
G1 X107.343 Y71.096 E89.90590
G1 X107.008 Y71.254 E89.91317
G1 X106.724 Y71.489 E89.92041
G1 X106.506 Y71.789 E89.92770
G1 X106.370 Y72.133 E89.93497
G1 X106.324 Y72.500 E89.94223
G1 X106.370 Y72.866 E89.94948
G0 F8400 X94.170 Y126.559
G1 F1800 X93.675 Y126.527 E89.95922
G1 X93.189 Y126.621 E89.96895
G1 X92.741 Y126.831 E89.97867
G1 X92.359 Y127.147 E89.98840
G1 X92.068 Y127.548 E89.99814
G1 X91.886 Y128.008 E90.00786
G1 X91.824 Y128.500 E90.01760
G1 X91.887 Y128.994 E90.02738
G1 X92.081 Y129.468 E90.03744
G1 X92.361 Y129.854 E90.04681
G1 X92.761 Y130.177 E90.05691
G1 X93.189 Y130.378 E90.06620
G1 X93.677 Y130.472 E90.07596
G1 X94.190 Y130.434 E90.08606
G1 X94.641 Y130.287 E90.09538
G1 X95.059 Y130.021 E90.10512
G1 X95.398 Y129.661 E90.11483
G1 X95.636 Y129.227 E90.12455
G1 X95.760 Y128.748 E90.13427
G1 X95.760 Y128.251 E90.14404
G1 X95.636 Y127.772 E90.15376
G1 X95.398 Y127.338 E90.16348
G1 X95.059 Y126.978 E90.17319
G1 X94.641 Y126.712 E90.18293
G1 X94.170 Y126.559 E90.19265
G0 F8400 X106.506 Y131.789
G1 F1800 X106.370 Y132.133 E90.19992
G1 X106.324 Y132.500 E90.20719
G1 X106.370 Y132.866 E90.21443
G1 X106.506 Y133.210 E90.22170
G1 X106.724 Y133.510 E90.22899
G1 X107.008 Y133.745 E90.23623
G1 X107.343 Y133.903 E90.24350
G1 X107.710 Y133.973 E90.25084
G1 X108.091 Y133.946 E90.25835
G1 X108.428 Y133.834 E90.26532
G1 X108.740 Y133.637 E90.27257
G1 X108.994 Y133.366 E90.27987
G1 X109.171 Y133.043 E90.28710
G1 X109.264 Y132.685 E90.29437
G1 X109.264 Y132.314 E90.30166
G1 X109.171 Y131.956 E90.30892
G1 X108.993 Y131.630 E90.31622
G1 X108.728 Y131.355 E90.32372
G1 X108.428 Y131.165 E90.33070
G1 X108.077 Y131.050 E90.33795
G1 X107.707 Y131.026 E90.34524
G1 X107.343 Y131.096 E90.35252
G1 X107.008 Y131.254 E90.35979
G1 X106.724 Y131.489 E90.36703
G1 X106.506 Y131.789 E90.37432
G0 F8400 X70.760 Y128.748
G1 F1800 X70.760 Y128.251 E90.38408
G1 X70.636 Y127.772 E90.39380
G1 X70.398 Y127.338 E90.40353
G1 X70.059 Y126.978 E90.41324
G1 X69.641 Y126.712 E90.42297
G1 X69.170 Y126.559 E90.43270
G1 X68.675 Y126.527 E90.44245
G1 X68.189 Y126.621 E90.45217
G1 X67.741 Y126.831 E90.46189
G1 X67.359 Y127.147 E90.47163
G1 X67.068 Y127.548 E90.48136
G1 X66.886 Y128.008 E90.49108
G1 X66.824 Y128.500 E90.50082
G1 X66.887 Y128.994 E90.51060
G1 X67.081 Y129.468 E90.52066
G1 X67.361 Y129.854 E90.53003
G1 X67.761 Y130.177 E90.54013
G1 X68.189 Y130.378 E90.54942
G1 X68.677 Y130.472 E90.55918
G1 X69.190 Y130.434 E90.56929
G1 X69.641 Y130.287 E90.57861
G1 X70.059 Y130.021 E90.58834
G1 X70.398 Y129.661 E90.59805
G1 X70.636 Y129.227 E90.60778
G1 X70.760 Y128.748 E90.61750
G0 F8400 X70.086 Y130.054
G0 X68.676 Y130.513
G0 X67.331 Y129.882
G0 X56.264 Y132.314
G1 F1800 X56.171 Y131.956 E90.62476
G1 X55.993 Y131.630 E90.63206
G1 X55.728 Y131.355 E90.63956
G1 X55.428 Y131.165 E90.64654
G1 X55.077 Y131.050 E90.65379
G1 X54.707 Y131.026 E90.66108
G1 X54.343 Y131.096 E90.66836
G1 X54.008 Y131.254 E90.67563
G1 X53.724 Y131.489 E90.68287
G1 X53.506 Y131.789 E90.69016
G1 X53.370 Y132.133 E90.69743
G1 X53.324 Y132.500 E90.70469
G1 X53.370 Y132.866 E90.71194
G1 X53.506 Y133.210 E90.71921
G1 X53.724 Y133.510 E90.72649
G1 X54.008 Y133.745 E90.73373
G1 X54.343 Y133.903 E90.74101
G1 X54.710 Y133.973 E90.74835
G1 X55.091 Y133.946 E90.75585
G1 X55.428 Y133.834 E90.76283
G1 X55.740 Y133.637 E90.77007
G1 X55.994 Y133.366 E90.77737
G1 X56.171 Y133.043 E90.78461
G1 X56.264 Y132.685 E90.79187
G1 X56.264 Y132.314 E90.79916
G0 F8400 X55.949 Y132.354
;TYPE:WALL-OUTER
G1 F1800 X55.876 Y132.073 E90.80486
G1 X55.737 Y131.818 E90.81057
G1 X55.527 Y131.600 E90.81652
G1 X55.292 Y131.452 E90.82197
G1 X55.017 Y131.362 E90.82765
G1 X54.727 Y131.343 E90.83336
G1 X54.441 Y131.398 E90.83909
G1 X54.179 Y131.522 E90.84478
G1 X53.956 Y131.707 E90.85047
G1 X53.784 Y131.942 E90.85619
G1 X53.678 Y132.212 E90.86189
G1 X53.642 Y132.500 E90.86759
G1 X53.678 Y132.787 E90.87327
G1 X53.784 Y133.057 E90.87897
G1 X53.956 Y133.292 E90.88469
G1 X54.179 Y133.477 E90.89038
G1 X54.441 Y133.601 E90.89608
G1 X54.728 Y133.656 E90.90182
G1 X55.029 Y133.634 E90.90775
G1 X55.293 Y133.547 E90.91321
G1 X55.538 Y133.392 E90.91890
G1 X55.737 Y133.180 E90.92462
G1 X55.876 Y132.926 E90.93030
G1 X55.949 Y132.645 E90.93601
G1 X55.949 Y132.354 E90.94172
G0 F8400 X56.198 Y132.290
G0 X56.027 Y133.391
G0 X54.708 Y134.014
G0 X50.125 Y137.085
G0 X49.957 Y137.343
G1 F1800 X49.957 Y67.657 E92.31065
G1 X112.643 Y67.657 E93.54207
G1 X112.643 Y137.343 E94.91100
G1 X49.957 Y137.343 E96.14242
G0 F8400 X50.125 Y137.085
G0 X67.149 Y129.464
G0 X67.358 Y129.314
G1 F1800 X67.591 Y129.635 E96.15022
G1 X67.929 Y129.908 E96.15875
G1 X68.287 Y130.076 E96.16652
G1 X68.696 Y130.155 E96.17470
G1 X69.129 Y130.123 E96.18323
G1 X69.506 Y130.000 E96.19102
G1 X69.857 Y129.777 E96.19919
G1 X70.141 Y129.474 E96.20735
G1 X70.341 Y129.110 E96.21551
G1 X70.445 Y128.708 E96.22367
G1 X70.445 Y128.291 E96.23186
G1 X70.341 Y127.889 E96.24001
G1 X70.141 Y127.525 E96.24817
G1 X69.857 Y127.222 E96.25633
G1 X69.505 Y126.999 E96.26452
G1 X69.111 Y126.871 E96.27265
G1 X68.695 Y126.844 E96.28084
G1 X68.287 Y126.923 E96.28901
G1 X67.911 Y127.099 E96.29716
G1 X67.591 Y127.365 E96.30534
G1 X67.346 Y127.701 E96.31351
G1 X67.194 Y128.087 E96.32166
G1 X67.142 Y128.500 E96.32983
G1 X67.194 Y128.913 E96.33801
G1 X67.358 Y129.314 E96.34652
G0 F8400 X67.149 Y129.464
G0 X68.177 Y130.418
G0 X69.658 Y130.325
G0 X91.887 Y128.469
G0 X92.142 Y128.500
G1 F1800 X92.194 Y128.913 E96.35470
G1 X92.358 Y129.314 E96.36321
G1 X92.591 Y129.635 E96.37100
G1 X92.929 Y129.908 E96.37954
G1 X93.287 Y130.076 E96.38730
G1 X93.696 Y130.155 E96.39549
G1 X94.129 Y130.123 E96.40402
G1 X94.506 Y130.000 E96.41181
G1 X94.857 Y129.777 E96.41997
G1 X95.141 Y129.474 E96.42813
G1 X95.341 Y129.110 E96.43629
G1 X95.445 Y128.708 E96.44445
G1 X95.445 Y128.291 E96.45264
G1 X95.341 Y127.889 E96.46080
G1 X95.141 Y127.525 E96.46896
G1 X94.857 Y127.222 E96.47711
G1 X94.505 Y126.999 E96.48530
G1 X94.111 Y126.871 E96.49344
G1 X93.695 Y126.844 E96.50163
G1 X93.287 Y126.923 E96.50979
G1 X92.911 Y127.099 E96.51795
G1 X92.591 Y127.365 E96.52612
G1 X92.346 Y127.701 E96.53429
G1 X92.194 Y128.087 E96.54244
G1 X92.142 Y128.500 E96.55062
G0 F8400 X91.887 Y128.469
G0 X92.331 Y129.882
G0 X93.676 Y130.513
G0 X95.086 Y130.054
G0 X106.438 Y132.117
G0 X106.678 Y132.212
G1 F1800 X106.642 Y132.500 E96.55632
G1 X106.678 Y132.787 E96.56200
G1 X106.784 Y133.057 E96.56770
G1 X106.956 Y133.292 E96.57342
G1 X107.179 Y133.477 E96.57911
G1 X107.441 Y133.601 E96.58480
G1 X107.728 Y133.656 E96.59055
G1 X108.029 Y133.634 E96.59647
G1 X108.293 Y133.547 E96.60193
G1 X108.538 Y133.392 E96.60763
G1 X108.737 Y133.180 E96.61334
G1 X108.876 Y132.926 E96.61903
G1 X108.949 Y132.645 E96.62473
G1 X108.949 Y132.354 E96.63045
G1 X108.876 Y132.073 E96.63615
G1 X108.737 Y131.818 E96.64186
G1 X108.527 Y131.600 E96.64780
G1 X108.292 Y131.452 E96.65326
G1 X108.017 Y131.362 E96.65894
G1 X107.727 Y131.343 E96.66465
G1 X107.441 Y131.398 E96.67037
G1 X107.179 Y131.522 E96.67607
G1 X106.956 Y131.707 E96.68176
G1 X106.784 Y131.942 E96.68748
G1 X106.678 Y132.212 E96.69318
G0 F8400 X106.438 Y132.117
G0 X94.208 Y77.869
G0 X94.129 Y77.623
G1 F1800 X94.506 Y77.500 E96.70097
G1 X94.857 Y77.277 E96.70914
G1 X95.141 Y76.974 E96.71730
G1 X95.341 Y76.610 E96.72545
G1 X95.445 Y76.208 E96.73361
G1 X95.445 Y75.791 E96.74180
G1 X95.341 Y75.389 E96.74996
G1 X95.141 Y75.025 E96.75812
G1 X94.857 Y74.722 E96.76628
G1 X94.505 Y74.499 E96.77446
G1 X94.111 Y74.371 E96.78260
G1 X93.695 Y74.344 E96.79079
G1 X93.287 Y74.423 E96.79895
G1 X92.911 Y74.599 E96.80711
G1 X92.591 Y74.865 E96.81528
G1 X92.346 Y75.201 E96.82345
G1 X92.194 Y75.587 E96.83160
G1 X92.142 Y76.000 E96.83978
G1 X92.194 Y76.413 E96.84796
G1 X92.358 Y76.814 E96.85647
G1 X92.591 Y77.135 E96.86426
G1 X92.929 Y77.408 E96.87279
G1 X93.287 Y77.576 E96.88056
G1 X93.696 Y77.655 E96.88874
G1 X94.129 Y77.623 E96.89727
G0 F8400 X94.208 Y77.869
G0 X106.437 Y72.881
G0 X106.678 Y72.787
G1 F1800 X106.784 Y73.057 E96.90297
G1 X106.956 Y73.292 E96.90869
G1 X107.179 Y73.477 E96.91438
G1 X107.441 Y73.601 E96.92008
G1 X107.728 Y73.656 E96.92582
G1 X108.029 Y73.634 E96.93175
G1 X108.293 Y73.547 E96.93721
G1 X108.538 Y73.392 E96.94290
G1 X108.737 Y73.180 E96.94862
G1 X108.876 Y72.926 E96.95430
G1 X108.949 Y72.645 E96.96001
G1 X108.949 Y72.354 E96.96572
G1 X108.876 Y72.073 E96.97143
G1 X108.737 Y71.818 E96.97713
G1 X108.527 Y71.600 E96.98308
G1 X108.292 Y71.452 E96.98853
G1 X108.017 Y71.362 E96.99422
G1 X107.727 Y71.343 E96.99993
G1 X107.441 Y71.398 E97.00565
G1 X107.179 Y71.522 E97.01134
G1 X106.956 Y71.707 E97.01703
G1 X106.784 Y71.942 E97.02275
G1 X106.678 Y72.212 E97.02845
G1 X106.642 Y72.500 E97.03415
G1 X106.678 Y72.787 E97.03984
G0 F8400 X106.437 Y72.881
G0 X70.694 Y75.727
G0 X70.445 Y75.791
G1 F1800 X70.341 Y75.389 E97.04799
G1 X70.141 Y75.025 E97.05615
G1 X69.857 Y74.722 E97.06431
G1 X69.505 Y74.499 E97.07250
G1 X69.111 Y74.371 E97.08063
G1 X68.695 Y74.344 E97.08882
G1 X68.287 Y74.423 E97.09699
G1 X67.911 Y74.599 E97.10514
G1 X67.591 Y74.865 E97.11332
G1 X67.346 Y75.201 E97.12149
G1 X67.194 Y75.587 E97.12963
G1 X67.142 Y76.000 E97.13781
G1 X67.194 Y76.413 E97.14599
G1 X67.358 Y76.814 E97.15450
G1 X67.591 Y77.135 E97.16229
G1 X67.929 Y77.408 E97.17083
G1 X68.287 Y77.576 E97.17860
G1 X68.696 Y77.655 E97.18678
G1 X69.129 Y77.623 E97.19531
G1 X69.506 Y77.500 E97.20310
G1 X69.857 Y77.277 E97.21127
G1 X70.141 Y76.974 E97.21942
G1 X70.341 Y76.610 E97.22758
G1 X70.445 Y76.208 E97.23574
G1 X70.445 Y75.791 E97.24393
G0 F8400 X70.694 Y75.727
G0 X70.086 Y74.445
G0 X68.673 Y73.986
G0 X67.330 Y74.619
G0 X56.197 Y72.710
G0 X55.949 Y72.645
G1 F1800 X55.949 Y72.354 E97.24965
G1 X55.876 Y72.073 E97.25535
G1 X55.737 Y71.818 E97.26106
G1 X55.527 Y71.600 E97.26700
G1 X55.292 Y71.452 E97.27246
G1 X55.017 Y71.362 E97.27814
G1 X54.727 Y71.343 E97.28385
G1 X54.441 Y71.398 E97.28957
G1 X54.179 Y71.522 E97.29527
G1 X53.956 Y71.707 E97.30096
G1 X53.784 Y71.942 E97.30668
G1 X53.678 Y72.212 E97.31238
G1 X53.642 Y72.500 E97.31808
G1 X53.678 Y72.787 E97.32376
G1 X53.784 Y73.057 E97.32946
G1 X53.956 Y73.292 E97.33518
G1 X54.179 Y73.477 E97.34087
G1 X54.441 Y73.601 E97.34657
