;Generated with Cura_SteamEngine 15.01
G28 ; Home extruder
G1 Z5 F300
G1 Z0 F300
M106 S165 ; Turn on fan
G90 ; Absolute positioning
M82 ; Extruder in absolute mode
; Activate all used extruder
M104 T0 S200
G92 E0 ; Reset extruder position
; Wait for all used extruders to reach temperature
M109 T0 S200
T0
M83
G1 E10 F100
M82
G92 E0 ; Reset extruder position
M117 Vertex is printing
G1 F300 Z5
;Layer count: 50
;LAYER:0
M106 S255
G0 F8400 X44.733 Y62.533 Z0.200
;TYPE:SKIRT
G1 F1800 X64.367 Y62.533 E0.38570
G1 X64.367 Y62.933 E0.39355
G1 X98.233 Y62.933 E1.05883
G1 X98.233 Y62.533 E1.06668
G1 X117.967 Y62.533 E1.45434
G1 X117.967 Y82.067 E1.83807
G1 X117.367 Y82.067 E1.84986
G1 X117.367 Y122.933 E2.65264
G1 X117.967 Y122.933 E2.66443
G1 X117.967 Y142.667 E3.05209
G1 X98.233 Y142.667 E3.43975
G1 X98.233 Y142.067 E3.45154
G1 X64.367 Y142.067 E4.11681
G1 X64.367 Y142.667 E4.12860
G1 X44.733 Y142.667 E4.51429
G1 X44.733 Y122.933 E4.90195
G1 X45.233 Y122.933 E4.91177
G1 X45.233 Y82.067 E5.71456
G1 X44.733 Y82.067 E5.72438
G1 X44.733 Y62.533 E6.10811
G0 F8400 X45.048 Y62.848
G1 F1800 X64.052 Y62.848 E6.48143
G1 X64.052 Y63.248 E6.48929
G1 X98.548 Y63.248 E7.16694
G1 X98.548 Y62.848 E7.17479
G1 X117.652 Y62.848 E7.55008
G1 X117.652 Y81.752 E7.92143
G1 X117.052 Y81.752 E7.93322
G1 X117.052 Y123.248 E8.74838
G1 X117.652 Y123.248 E8.76016
G1 X117.652 Y142.352 E9.13545
G1 X98.548 Y142.352 E9.51073
G1 X98.548 Y141.752 E9.52252
G1 X64.052 Y141.752 E10.20017
G1 X64.052 Y142.352 E10.21195
G1 X45.048 Y142.352 E10.58527
G1 X45.048 Y123.248 E10.96056
G1 X45.548 Y123.248 E10.97038
G1 X45.548 Y81.752 E11.78554
G1 X45.048 Y81.752 E11.79536
G1 X45.048 Y62.848 E12.16672
G0 F8400 X45.363 Y63.163
G1 F1800 X63.737 Y63.163 E12.52766
G1 X63.737 Y63.563 E12.53552
G1 X98.863 Y63.563 E13.22554
G1 X98.863 Y63.163 E13.23340
G1 X117.337 Y63.163 E13.59631
G1 X117.337 Y81.437 E13.95529
G1 X116.737 Y81.437 E13.96707
G1 X116.737 Y123.563 E14.79461
G1 X117.337 Y123.563 E14.80639
G1 X117.337 Y142.037 E15.16930
G1 X98.863 Y142.037 E15.53221
G1 X98.863 Y141.437 E15.54400
G1 X63.737 Y141.437 E16.23402
G1 X63.737 Y142.037 E16.24581
G1 X45.363 Y142.037 E16.60675
G1 X45.363 Y123.563 E16.96966
G1 X45.863 Y123.563 E16.97948
G1 X45.863 Y81.437 E17.80702
G1 X45.363 Y81.437 E17.81684
G1 X45.363 Y63.163 E18.17582
G0 F8400 X45.678 Y63.478
G1 F1800 X63.422 Y63.478 E18.52439
G1 X63.422 Y63.878 E18.53224
G1 X99.178 Y63.878 E19.23465
G1 X99.178 Y63.478 E19.24250
G1 X117.022 Y63.478 E19.59304
G1 X117.022 Y81.122 E19.93964
G1 X116.422 Y81.122 E19.95143
G1 X116.422 Y123.878 E20.79134
G1 X117.022 Y123.878 E20.80312
G1 X117.022 Y141.722 E21.15365
G1 X99.178 Y141.722 E21.50419
G1 X99.178 Y141.122 E21.51597
G1 X63.422 Y141.122 E22.21837
G1 X63.422 Y141.722 E22.23016
G1 X45.678 Y141.722 E22.57873
G1 X45.678 Y123.878 E22.92926
G1 X46.178 Y123.878 E22.93908
G1 X46.178 Y81.122 E23.77899
G1 X45.678 Y81.122 E23.78881
G1 X45.678 Y63.478 E24.13542
G0 F8400 X45.993 Y63.793
G1 F1800 X63.107 Y63.793 E24.47161
G1 X63.107 Y64.193 E24.47947
G1 X99.493 Y64.193 E25.19424
G1 X99.493 Y63.793 E25.20210
G1 X116.707 Y63.793 E25.54026
G1 X116.707 Y80.807 E25.87449
G1 X116.107 Y80.807 E25.88627
G1 X116.107 Y124.193 E26.73856
G1 X116.707 Y124.193 E26.75035
G1 X116.707 Y141.407 E27.08850
G1 X99.493 Y141.407 E27.42666
G1 X99.493 Y140.807 E27.43844
G1 X63.107 Y140.807 E28.15322
G1 X63.107 Y141.407 E28.16501
G1 X45.993 Y141.407 E28.50120
G1 X45.993 Y124.193 E28.83936
G1 X46.493 Y124.193 E28.84918
G1 X46.493 Y80.807 E29.70146
G1 X45.993 Y80.807 E29.71129
G1 X45.993 Y63.793 E30.04551
G0 F8400 X46.308 Y64.108
G1 F1800 X62.792 Y64.108 E30.36933
G1 X62.792 Y64.508 E30.37719
G1 X99.808 Y64.508 E31.10434
G1 X99.808 Y64.108 E31.11220
G1 X116.392 Y64.108 E31.43798
G1 X116.392 Y80.492 E31.75983
G1 X115.792 Y80.492 E31.77162
G1 X115.792 Y124.508 E32.63628
G1 X116.392 Y124.508 E32.64806
G1 X116.392 Y141.092 E32.97385
G1 X99.808 Y141.092 E33.29963
G1 X99.808 Y140.492 E33.31141
G1 X62.792 Y140.492 E34.03856
G1 X62.792 Y141.092 E34.05035
G1 X46.308 Y141.092 E34.37417
G1 X46.308 Y124.508 E34.69995
G1 X46.808 Y124.508 E34.70977
G1 X46.808 Y80.492 E35.57443
G1 X46.308 Y80.492 E35.58425
G1 X46.308 Y64.108 E35.90611
G0 F8400 X46.623 Y64.423
G1 F1800 X62.477 Y64.423 E36.21755
G1 X62.477 Y64.823 E36.22540
G1 X100.123 Y64.823 E36.96493
G1 X100.123 Y64.423 E36.97279
G1 X116.077 Y64.423 E37.28619
G1 X116.077 Y80.177 E37.59567
G1 X115.477 Y80.177 E37.60746
G1 X115.477 Y124.823 E38.48449
G1 X116.077 Y124.823 E38.49628
G1 X116.077 Y140.777 E38.80969
G1 X100.123 Y140.777 E39.12309
G1 X100.123 Y140.177 E39.13488
G1 X62.477 Y140.177 E39.87441
G1 X62.477 Y140.777 E39.88619
G1 X46.623 Y140.777 E40.19763
G1 X46.623 Y124.823 E40.51104
G1 X47.123 Y124.823 E40.52086
G1 X47.123 Y80.177 E41.39790
G1 X46.623 Y80.177 E41.40772
G1 X46.623 Y64.423 E41.71719
G0 F8400 X46.938 Y64.738
G1 F1800 X62.162 Y64.738 E42.01626
G1 X62.162 Y65.138 E42.02412
G1 X100.438 Y65.138 E42.77602
G1 X100.438 Y64.738 E42.78388
G1 X115.762 Y64.738 E43.08491
G1 X115.762 Y79.862 E43.38201
G1 X115.162 Y79.862 E43.39379
G1 X115.162 Y125.138 E44.28321
G1 X115.762 Y125.138 E44.29499
G1 X115.762 Y140.462 E44.59602
G1 X100.438 Y140.462 E44.89705
G1 X100.438 Y139.862 E44.90884
G1 X62.162 Y139.862 E45.66074
G1 X62.162 Y140.462 E45.67253
G1 X46.938 Y140.462 E45.97159
G1 X46.938 Y125.138 E46.27262
G1 X47.438 Y125.138 E46.28244
G1 X47.438 Y79.862 E47.17186
G1 X46.938 Y79.862 E47.18168
G1 X46.938 Y64.738 E47.47878
G0 F8400 X47.253 Y65.053
G1 F1800 X61.847 Y65.053 E47.76547
G1 X61.847 Y65.453 E47.77333
G1 X100.753 Y65.453 E48.53761
G1 X100.753 Y65.053 E48.54546
G1 X115.447 Y65.053 E48.83412
G1 X115.447 Y79.547 E49.11884
G1 X114.847 Y79.547 E49.13063
G1 X114.847 Y125.453 E50.03242
G1 X115.447 Y125.453 E50.04420
G1 X115.447 Y140.147 E50.33286
G1 X100.753 Y140.147 E50.62151
G1 X100.753 Y139.547 E50.63330
G1 X61.847 Y139.547 E51.39758
G1 X61.847 Y140.147 E51.40936
G1 X47.253 Y140.147 E51.69605
G1 X47.253 Y125.453 E51.98470
G1 X47.753 Y125.453 E51.99453
G1 X47.753 Y79.547 E52.89631
G1 X47.253 Y79.547 E52.90614
G1 X47.253 Y65.053 E53.19086
G0 F8400 X47.568 Y65.368
G1 F1800 X61.532 Y65.368 E53.46517
G1 X61.532 Y65.768 E53.47303
G1 X101.068 Y65.768 E54.24969
G1 X101.068 Y65.368 E54.25754
G1 X115.132 Y65.368 E54.53382
G1 X115.132 Y79.232 E54.80617
G1 X114.532 Y79.232 E54.81796
G1 X114.532 Y125.768 E55.73212
G1 X115.132 Y125.768 E55.74391
G1 X115.132 Y139.832 E56.02019
G1 X101.068 Y139.832 E56.29646
G1 X101.068 Y139.232 E56.30825
G1 X61.532 Y139.232 E57.08490
G1 X61.532 Y139.832 E57.09669
G1 X47.568 Y139.832 E57.37100
G1 X47.568 Y125.768 E57.64728
G1 X48.068 Y125.768 E57.65710
G1 X48.068 Y79.232 E58.57127
G1 X47.568 Y79.232 E58.58109
G1 X47.568 Y65.368 E58.85344
G0 F8400 X47.883 Y65.683
G1 F1800 X61.217 Y65.683 E59.11538
G1 X61.217 Y66.083 E59.12323
G1 X101.383 Y66.083 E59.91226
G1 X101.383 Y65.683 E59.92012
G1 X114.817 Y65.683 E60.18402
G1 X114.817 Y78.917 E60.44400
G1 X114.217 Y78.917 E60.45578
G1 X114.217 Y126.083 E61.38232
G1 X114.817 Y126.083 E61.39411
G1 X114.817 Y139.517 E61.65801
G1 X101.383 Y139.517 E61.92191
G1 X101.383 Y138.917 E61.93370
G1 X61.217 Y138.917 E62.72273
G1 X61.217 Y139.517 E62.73452
G1 X47.883 Y139.517 E62.99645
G1 X47.883 Y126.083 E63.26036
G1 X48.383 Y126.083 E63.27018
G1 X48.383 Y78.917 E64.19672
G1 X47.883 Y78.917 E64.20654
G1 X47.883 Y65.683 E64.46651
G0 F8400 X48.198 Y65.998
G1 F1800 X60.902 Y65.998 E64.71607
G1 X60.902 Y66.398 E64.72393
G1 X101.698 Y66.398 E65.52534
G1 X101.698 Y65.998 E65.53320
G1 X114.502 Y65.998 E65.78472
G1 X114.502 Y78.602 E66.03232
G1 X113.902 Y78.602 E66.04411
G1 X113.902 Y126.398 E66.98302
G1 X114.502 Y126.398 E66.99481
G1 X114.502 Y139.202 E67.24633
G1 X101.698 Y139.202 E67.49786
G1 X101.698 Y138.602 E67.50965
G1 X60.902 Y138.602 E68.31105
G1 X60.902 Y139.202 E68.32284
G1 X48.198 Y139.202 E68.57240
G1 X48.198 Y126.398 E68.82393
G1 X48.698 Y126.398 E68.83375
G1 X48.698 Y78.602 E69.77267
G1 X48.198 Y78.602 E69.78249
G1 X48.198 Y65.998 E70.03008
G0 F8400 X48.513 Y66.313
G1 F1800 X60.587 Y66.313 E70.26727
G1 X60.587 Y66.713 E70.27513
G1 X102.013 Y66.713 E71.08891
G1 X102.013 Y66.313 E71.09677
G1 X114.187 Y66.313 E71.33592
G1 X114.187 Y78.287 E71.57114
G1 X113.587 Y78.287 E71.58292
G1 X113.587 Y126.713 E72.53422
G1 X114.187 Y126.713 E72.54600
G1 X114.187 Y138.887 E72.78515
G1 X102.013 Y138.887 E73.02430
G1 X102.013 Y138.287 E73.03609
G1 X60.587 Y138.287 E73.84987
G1 X60.587 Y138.887 E73.86166
G1 X48.513 Y138.887 E74.09884
G1 X48.513 Y126.713 E74.33799
G1 X49.013 Y126.713 E74.34782
G1 X49.013 Y78.287 E75.29911
G1 X48.513 Y78.287 E75.30893
G1 X48.513 Y66.313 E75.54415
G0 F8400 X48.828 Y66.628
G1 F1800 X60.272 Y66.628 E75.76896
G1 X60.272 Y67.028 E75.77682
G1 X102.328 Y67.028 E76.60298
G1 X102.328 Y66.628 E76.61084
G1 X113.872 Y66.628 E76.83761
G1 X113.872 Y77.972 E77.06045
G1 X113.272 Y77.972 E77.07224
G1 X113.272 Y127.028 E78.03591
G1 X113.872 Y127.028 E78.04770
G1 X113.872 Y138.572 E78.27447
G1 X102.328 Y138.572 E78.50124
G1 X102.328 Y137.972 E78.51303
G1 X60.272 Y137.972 E79.33919
G1 X60.272 Y138.572 E79.35097
G1 X48.828 Y138.572 E79.57578
G1 X48.828 Y127.028 E79.80256
G1 X49.328 Y127.028 E79.81238
G1 X49.328 Y77.972 E80.77605
G1 X48.828 Y77.972 E80.78587
G1 X48.828 Y66.628 E81.00872
G0 F8400 X49.143 Y66.943
G1 F1800 X59.957 Y66.943 E81.22115
G1 X59.957 Y67.343 E81.22901
G1 X102.643 Y67.343 E82.06754
G1 X102.643 Y66.943 E82.07540
G1 X113.557 Y66.943 E82.28980
G1 X113.557 Y77.657 E82.50026
G1 X112.957 Y77.657 E82.51205
G1 X112.957 Y127.343 E83.48810
G1 X113.557 Y127.343 E83.49988
G1 X113.557 Y138.257 E83.71428
G1 X102.643 Y138.257 E83.92868
G1 X102.643 Y137.657 E83.94046
G1 X59.957 Y137.657 E84.77900
G1 X59.957 Y138.257 E84.79079
G1 X49.143 Y138.257 E85.00322
G1 X49.143 Y127.343 E85.21762
G1 X49.643 Y127.343 E85.22744
G1 X49.643 Y77.657 E86.20348
G1 X49.143 Y77.657 E86.21331
G1 X49.143 Y66.943 E86.42378
G1 F6600 E83.42378
G0 F8400 X50.272 Y77.972
;TYPE:WALL-INNER
G1 F6600 E86.42378
G1 F1800 X60.272 Y77.972 E86.62022
G1 X60.272 Y67.972 E86.81666
G1 X102.328 Y67.972 E87.64282
G1 X102.328 Y77.972 E87.83926
G1 X112.328 Y77.972 E88.03571
G1 X112.328 Y127.028 E88.99937
G1 X102.328 Y127.028 E89.19582
G1 X102.328 Y137.028 E89.39226
G1 X60.272 Y137.028 E90.21842
G1 X60.272 Y127.028 E90.41486
G1 X50.272 Y127.028 E90.61130
G1 X50.272 Y77.972 E91.57497
G0 F8400 X62.948 Y93.239
G1 F1800 X62.868 Y93.324 E91.57727
G1 X62.315 Y94.084 E91.59573
G1 X61.948 Y95.011 E91.61532
G1 X61.836 Y95.908 E91.63307
G1 X61.824 Y95.998 E91.63486
G1 X61.937 Y96.902 E91.65275
G1 X61.949 Y96.991 E91.65452
G1 X62.282 Y97.831 E91.67227
G1 X62.315 Y97.915 E91.67404
G1 X62.901 Y98.721 E91.69362
G1 X63.669 Y99.357 E91.71321
G1 X64.542 Y99.767 E91.73215
G1 X65.548 Y99.968 E91.75230
G1 X66.544 Y99.905 E91.77191
G1 X67.463 Y99.607 E91.79089
G1 X68.257 Y99.111 E91.80928
G1 X68.334 Y99.062 E91.81107
G1 X68.951 Y98.405 E91.82878
G1 X69.015 Y98.338 E91.83060
G1 X69.448 Y97.550 E91.84826
G1 X69.495 Y97.468 E91.85012
G1 X69.744 Y96.498 E91.86979
G1 X69.744 Y95.563 E91.88816
G1 X69.730 Y95.446 E91.89047
G1 X69.496 Y94.536 E91.90893
G1 X69.057 Y93.736 E91.92686
G1 X69.012 Y93.659 E91.92861
G1 X68.394 Y93.000 E91.94635
G1 X68.332 Y92.935 E91.94812
G1 X67.493 Y92.403 E91.96763
G1 X66.642 Y92.126 E91.98522
G1 X66.551 Y92.094 E91.98711
G1 X65.550 Y92.031 E92.00681
G1 X64.602 Y92.212 E92.02577
G1 X63.670 Y92.641 E92.04593
G1 X62.948 Y93.239 E92.06434
G1 F6600 E89.06434
G0 F8400 X65.550 Y105.031
G1 F6600 E92.06434
G1 F1800 X64.602 Y105.212 E92.08330
G1 X63.670 Y105.641 E92.10346
G1 X62.948 Y106.239 E92.12187
G1 X62.868 Y106.324 E92.12417
G1 X62.315 Y107.084 E92.14263
G1 X61.948 Y108.011 E92.16222
G1 X61.836 Y108.908 E92.17997
G1 X61.824 Y108.998 E92.18176
G1 X61.937 Y109.902 E92.19965
G1 X61.949 Y109.991 E92.20142
G1 X62.282 Y110.831 E92.21917
G1 X62.315 Y110.915 E92.22094
G1 X62.901 Y111.721 E92.24052
G1 X63.669 Y112.357 E92.26011
G1 X64.542 Y112.767 E92.27905
G1 X65.548 Y112.968 E92.29920
G1 X66.544 Y112.905 E92.31881
G1 X67.463 Y112.607 E92.33779
G1 X68.257 Y112.111 E92.35618
G1 X68.334 Y112.062 E92.35797
G1 X68.951 Y111.405 E92.37568
G1 X69.015 Y111.338 E92.37750
G1 X69.448 Y110.550 E92.39516
G1 X69.495 Y110.468 E92.39702
G1 X69.744 Y109.498 E92.41669
G1 X69.744 Y108.563 E92.43506
G1 X69.730 Y108.446 E92.43737
G1 X69.496 Y107.536 E92.45583
G1 X69.057 Y106.736 E92.47376
G1 X69.012 Y106.659 E92.47551
G1 X68.394 Y106.000 E92.49325
G1 X68.332 Y105.935 E92.49502
G1 X67.493 Y105.403 E92.51454
G1 X66.642 Y105.126 E92.53212
G1 X66.551 Y105.094 E92.53401
G1 X65.550 Y105.031 E92.55371
G0 F8400 X65.570 Y105.348
;TYPE:WALL-OUTER
G1 F1800 X64.699 Y105.514 E92.57113
G1 X63.840 Y105.910 E92.58971
G1 X63.164 Y106.470 E92.60696
G1 X62.593 Y107.237 E92.62574
G1 X62.256 Y108.090 E92.64376
G1 X62.148 Y108.949 E92.66077
G1 X62.142 Y108.999 E92.66175
G1 X62.249 Y109.861 E92.67882
G1 X62.256 Y109.910 E92.67979
G1 X62.593 Y110.762 E92.69779
G1 X63.133 Y111.503 E92.71580
G1 X63.839 Y112.089 E92.73382
G1 X64.642 Y112.465 E92.75124
G1 X65.569 Y112.651 E92.76982
G1 X66.485 Y112.593 E92.78785
G1 X67.329 Y112.319 E92.80528
G1 X68.089 Y111.845 E92.82287
G1 X68.131 Y111.818 E92.82385
G1 X68.724 Y111.187 E92.84086
G1 X68.759 Y111.151 E92.84185
G1 X69.177 Y110.390 E92.85891
G1 X69.201 Y110.348 E92.85986
G1 X69.429 Y109.458 E92.87790
G1 X69.429 Y108.582 E92.89511
G1 X69.420 Y108.504 E92.89665
G1 X69.201 Y107.653 E92.91392
G1 X68.783 Y106.891 E92.93099
G1 X68.758 Y106.848 E92.93197
G1 X68.165 Y106.217 E92.94898
G1 X68.130 Y106.181 E92.94996
G1 X67.357 Y105.690 E92.96795
G1 X66.536 Y105.424 E92.98491
G1 X66.487 Y105.406 E92.98593
G1 X65.570 Y105.348 E93.00398
G0 F8400 X65.585 Y105.092
G0 X65.519 Y99.903
G0 X65.569 Y99.651
G1 F1800 X66.485 Y99.593 E93.02201
G1 X67.329 Y99.319 E93.03944
G1 X68.089 Y98.845 E93.05704
G1 X68.131 Y98.818 E93.05802
G1 X68.724 Y98.187 E93.07503
G1 X68.759 Y98.151 E93.07602
G1 X69.177 Y97.390 E93.09307
G1 X69.201 Y97.348 E93.09402
G1 X69.429 Y96.458 E93.11207
G1 X69.429 Y95.582 E93.12928
G1 X69.420 Y95.504 E93.13082
G1 X69.201 Y94.653 E93.14808
G1 X68.783 Y93.891 E93.16516
G1 X68.758 Y93.848 E93.16613
G1 X68.165 Y93.217 E93.18314
G1 X68.130 Y93.181 E93.18413
G1 X67.357 Y92.690 E93.20212
G1 X66.536 Y92.424 E93.21907
G1 X66.487 Y92.406 E93.22010
G1 X65.570 Y92.348 E93.23815
G1 X64.699 Y92.514 E93.25557
G1 X63.840 Y92.910 E93.27415
G1 X63.164 Y93.470 E93.29139
G1 X62.593 Y94.237 E93.31018
G1 X62.256 Y95.090 E93.32819
G1 X62.148 Y95.949 E93.34520
G1 X62.142 Y95.999 E93.34619
G1 X62.249 Y96.861 E93.36325
G1 X62.256 Y96.910 E93.36422
G1 X62.593 Y97.762 E93.38222
G1 X63.133 Y98.503 E93.40023
G1 X63.839 Y99.089 E93.41826
G1 X64.642 Y99.465 E93.43568
G1 X65.569 Y99.651 E93.45425
G0 F8400 X65.519 Y99.903
G0 X63.647 Y99.391
G0 X62.279 Y97.935
G0 X61.841 Y96.063
G0 X62.279 Y94.064
G0 X59.957 Y77.915
G0 X59.957 Y77.657
G1 F1800 X59.957 Y67.657 E93.65069
G1 X102.643 Y67.657 E94.48923
G1 X102.643 Y77.657 E94.68567
G1 X112.643 Y77.657 E94.88211
G1 X112.643 Y127.343 E95.85816
G1 X102.643 Y127.343 E96.05460
G1 X102.643 Y137.343 E96.25104
G1 X59.957 Y137.343 E97.08958
G1 X59.957 Y127.343 E97.28602
G1 X49.957 Y127.343 E97.48246
G1 X49.957 Y77.657 E98.45851
G1 X59.957 Y77.657 E98.65495
G0 F8400 X59.655 Y78.143
;TYPE:SKIN
G1 F1800 X108.366 Y126.854 E100.00820
G0 F8400 X107.921 Y126.854
G1 F1800 X59.209 Y78.143 E101.36146
G0 F8400 X58.764 Y78.143
G1 F1800 X107.475 Y126.854 E102.71471
G0 F8400 X107.030 Y126.854
G1 F1800 X58.318 Y78.143 E104.06798
G0 F8400 X57.873 Y78.143
G1 F1800 X106.585 Y126.854 E105.42124
G0 F8400 X106.139 Y126.854
G1 F1800 X57.427 Y78.143 E106.77450
G0 F8400 X56.982 Y78.143
G1 F1800 X105.694 Y126.854 E108.12777
G0 F8400 X105.248 Y126.854
G1 F1800 X56.536 Y78.143 E109.48103
G0 F8400 X56.091 Y78.143
G1 F1800 X104.803 Y126.854 E110.83429
G0 F8400 X104.357 Y126.854
G1 F1800 X55.645 Y78.143 E112.18756
G0 F8400 X55.200 Y78.143
G1 F1800 X103.912 Y126.854 E113.54082
G0 F8400 X103.466 Y126.854
G1 F1800 X54.754 Y78.143 E114.89408
G0 F8400 X54.309 Y78.143
G1 F1800 X103.021 Y126.854 E116.24735
