;Generated with Cura_SteamEngine 15.01
G28 ; Home extruder
G1 Z5 F300
G1 Z0 F300
M106 S165 ; Turn on fan
G90 ; Absolute positioning
M82 ; Extruder in absolute mode
; Activate all used extruder
M104 T0 S200
G92 E0 ; Reset extruder position
; Wait for all used extruders to reach temperature
M109 T0 S200
T0
M83
G1 E10 F100
M82
G92 E0 ; Reset extruder position
M117 Vertex is printing
G1 F300 Z5
;Layer count: 36
;LAYER:0
M106 S255
G0 F8400 X70.733 Y90.683 Z0.200
;TYPE:SKIRT
G1 F1800 X91.867 Y90.683 E0.41516
G1 X91.867 Y114.317 E0.87943
G1 X70.733 Y114.317 E1.29460
G1 X70.733 Y90.683 E1.75887
G0 F8400 X71.048 Y90.998
G1 F1800 X91.552 Y90.998 E2.16166
G1 X91.552 Y114.002 E2.61355
G1 X71.048 Y114.002 E3.01634
G1 X71.048 Y90.998 E3.46823
G0 F8400 X71.363 Y91.313
G1 F1800 X91.237 Y91.313 E3.85864
G1 X91.237 Y113.687 E4.29817
G1 X71.363 Y113.687 E4.68858
G1 X71.363 Y91.313 E5.12810
G0 F8400 X71.678 Y91.628
G1 F1800 X90.922 Y91.628 E5.50613
G1 X90.922 Y113.372 E5.93328
G1 X71.678 Y113.372 E6.31131
G1 X71.678 Y91.628 E6.73846
G0 F8400 X71.993 Y91.943
G1 F1800 X90.607 Y91.943 E7.10411
G1 X90.607 Y113.057 E7.51888
G1 X71.993 Y113.057 E7.88454
G1 X71.993 Y91.943 E8.29931
G0 F8400 X72.308 Y92.258
G1 F1800 X90.292 Y92.258 E8.65259
G1 X90.292 Y112.742 E9.05499
G1 X72.308 Y112.742 E9.40827
G1 X72.308 Y92.258 E9.81066
G0 F8400 X72.623 Y92.573
G1 F1800 X89.977 Y92.573 E10.15157
G1 X89.977 Y112.427 E10.54159
G1 X72.623 Y112.427 E10.88249
G1 X72.623 Y92.573 E11.27251
G0 F8400 X72.938 Y92.888
G1 F1800 X89.662 Y92.888 E11.60104
G1 X89.662 Y112.112 E11.97868
G1 X72.938 Y112.112 E12.30721
G1 X72.938 Y92.888 E12.68485
G0 F8400 X73.253 Y93.203
G1 F1800 X89.347 Y93.203 E13.00101
G1 X89.347 Y111.797 E13.36627
G1 X73.253 Y111.797 E13.68243
G1 X73.253 Y93.203 E14.04769
G0 F8400 X73.568 Y93.518
G1 F1800 X89.032 Y93.518 E14.35147
G1 X89.032 Y111.482 E14.70436
G1 X73.568 Y111.482 E15.00814
G1 X73.568 Y93.518 E15.36103
G0 F8400 X73.883 Y93.833
G1 F1800 X88.717 Y93.833 E15.65243
G1 X88.717 Y111.167 E15.99295
G1 X73.883 Y111.167 E16.28435
G1 X73.883 Y93.833 E16.62486
G0 F8400 X74.198 Y94.148
G1 F1800 X77.456 Y94.148 E16.68887
G1 X77.491 Y94.413 E16.69412
G1 X77.527 Y94.148 E16.69937
G1 X79.992 Y94.148 E16.74779
G1 X80.028 Y94.413 E16.75305
G1 X80.063 Y94.148 E16.75830
G1 X82.536 Y94.148 E16.80688
G1 X82.571 Y94.413 E16.81213
G1 X82.607 Y94.148 E16.81738
G1 X85.076 Y94.148 E16.86588
G1 X85.111 Y94.413 E16.87114
G1 X85.147 Y94.148 E16.87639
G1 X88.402 Y94.148 E16.94033
G1 X88.402 Y110.852 E17.26847
G1 X74.198 Y110.852 E17.54750
G1 X74.198 Y94.148 E17.87563
G0 F8400 X74.513 Y94.463
G1 F1800 X77.180 Y94.463 E17.92803
G1 X77.291 Y95.305 E17.94471
G1 X77.311 Y95.354 E17.94575
G1 X77.342 Y95.395 E17.94676
G1 X77.385 Y95.427 E17.94781
G1 X77.436 Y95.449 E17.94890
G1 X77.481 Y95.455 E17.94979
G1 X77.562 Y95.442 E17.95141
G1 X77.591 Y95.430 E17.95202
G1 X77.635 Y95.396 E17.95311
G1 X77.669 Y95.352 E17.95421
G1 X77.688 Y95.305 E17.95520
G1 X77.803 Y94.463 E17.97190
G1 X79.716 Y94.463 E18.00948
G1 X79.831 Y95.305 E18.02617
G1 X79.851 Y95.354 E18.02721
G1 X79.883 Y95.396 E18.02825
G1 X79.925 Y95.428 E18.02928
G1 X79.974 Y95.448 E18.03032
G1 X80.021 Y95.454 E18.03125
G1 X80.098 Y95.442 E18.03279
G1 X80.134 Y95.428 E18.03354
G1 X80.175 Y95.396 E18.03457
G1 X80.209 Y95.352 E18.03566
G1 X80.228 Y95.305 E18.03665
G1 X80.339 Y94.463 E18.05334
G1 X82.260 Y94.463 E18.09107
G1 X82.371 Y95.305 E18.10776
G1 X82.391 Y95.354 E18.10880
G1 X82.422 Y95.395 E18.10981
G1 X82.465 Y95.427 E18.11086
G1 X82.516 Y95.449 E18.11195
G1 X82.561 Y95.455 E18.11284
G1 X82.642 Y95.442 E18.11445
G1 X82.671 Y95.430 E18.11507
G1 X82.715 Y95.396 E18.11616
G1 X82.749 Y95.352 E18.11726
G1 X82.768 Y95.305 E18.11825
G1 X82.883 Y94.463 E18.13495
G1 X84.800 Y94.463 E18.17260
G1 X84.911 Y95.305 E18.18929
G1 X84.931 Y95.354 E18.19033
G1 X84.962 Y95.395 E18.19134
G1 X85.005 Y95.427 E18.19239
G1 X85.056 Y95.449 E18.19348
G1 X85.101 Y95.455 E18.19437
G1 X85.182 Y95.442 E18.19598
G1 X85.211 Y95.430 E18.19660
G1 X85.255 Y95.396 E18.19769
G1 X85.289 Y95.352 E18.19879
G1 X85.308 Y95.305 E18.19978
G1 X85.423 Y94.463 E18.21648
G1 X88.087 Y94.463 E18.26881
G1 X88.087 Y110.537 E18.58457
G1 X74.513 Y110.537 E18.85122
G1 X74.513 Y94.463 E19.16698
G0 F8400 X76.984 Y95.385
G1 F1800 X77.036 Y95.513 E19.16970
G1 X77.118 Y95.619 E19.17233
G1 X77.227 Y95.703 E19.17503
G1 X77.354 Y95.755 E19.17773
G1 X77.487 Y95.773 E19.18037
G1 X77.644 Y95.749 E19.18349
G1 X77.752 Y95.704 E19.18578
G1 X77.858 Y95.622 E19.18842
G1 X77.943 Y95.513 E19.19113
G1 X77.995 Y95.385 E19.19385
G1 X78.078 Y94.778 E19.20588
G1 X79.441 Y94.778 E19.23266
G1 X79.524 Y95.385 E19.24469
G1 X79.576 Y95.513 E19.24740
G1 X79.659 Y95.620 E19.25006
G1 X79.766 Y95.703 E19.25273
G1 X79.894 Y95.755 E19.25544
G1 X80.026 Y95.773 E19.25806
G1 X80.182 Y95.749 E19.26116
G1 X80.291 Y95.704 E19.26347
G1 X80.399 Y95.621 E19.26615
G1 X80.483 Y95.513 E19.26884
G1 X80.535 Y95.385 E19.27155
G1 X80.615 Y94.778 E19.28358
G1 X81.984 Y94.778 E19.31047
G1 X82.064 Y95.385 E19.32250
G1 X82.116 Y95.513 E19.32521
G1 X82.198 Y95.619 E19.32784
G1 X82.307 Y95.703 E19.33055
G1 X82.434 Y95.755 E19.33324
G1 X82.567 Y95.773 E19.33588
G1 X82.724 Y95.749 E19.33900
G1 X82.832 Y95.704 E19.34130
G1 X82.938 Y95.622 E19.34393
G1 X83.023 Y95.513 E19.34665
G1 X83.075 Y95.385 E19.34936
G1 X83.158 Y94.778 E19.36140
G1 X84.524 Y94.778 E19.38823
G1 X84.604 Y95.385 E19.40026
G1 X84.656 Y95.513 E19.40297
G1 X84.738 Y95.619 E19.40560
G1 X84.847 Y95.703 E19.40831
G1 X84.974 Y95.755 E19.41100
G1 X85.107 Y95.773 E19.41364
G1 X85.264 Y95.749 E19.41676
G1 X85.372 Y95.704 E19.41906
G1 X85.478 Y95.622 E19.42169
G1 X85.563 Y95.513 E19.42441
G1 X85.615 Y95.385 E19.42712
G1 X85.698 Y94.778 E19.43915
G1 X87.772 Y94.778 E19.47990
G1 X87.772 Y110.222 E19.78328
G1 X74.828 Y110.222 E20.03756
G1 X74.828 Y94.778 E20.34094
G1 X76.904 Y94.778 E20.38173
G1 X76.984 Y95.385 E20.39375
G0 F8400 X76.758 Y95.668
G1 F1800 X76.896 Y95.846 E20.39818
G1 X77.069 Y95.979 E20.40246
G1 X77.270 Y96.061 E20.40673
G1 X77.490 Y96.091 E20.41109
G1 X77.729 Y96.054 E20.41584
G1 X77.911 Y95.979 E20.41971
G1 X77.916 Y95.975 E20.41983
G1 X78.084 Y95.846 E20.42400
G1 X78.087 Y95.842 E20.42409
G1 X78.220 Y95.670 E20.42836
G1 X78.301 Y95.470 E20.43260
G1 X78.353 Y95.093 E20.44008
G1 X79.166 Y95.093 E20.45605
G1 X79.218 Y95.470 E20.46353
G1 X79.298 Y95.668 E20.46772
G1 X79.434 Y95.845 E20.47211
G1 X79.611 Y95.981 E20.47649
G1 X79.809 Y96.061 E20.48069
G1 X80.029 Y96.091 E20.48505
G1 X80.269 Y96.054 E20.48982
G1 X80.450 Y95.979 E20.49367
G1 X80.624 Y95.846 E20.49797
G1 X80.627 Y95.842 E20.49807
G1 X80.760 Y95.670 E20.50234
G1 X80.841 Y95.471 E20.50656
G1 X80.891 Y95.093 E20.51405
G1 X81.708 Y95.093 E20.53010
G1 X81.758 Y95.471 E20.53759
G1 X81.838 Y95.668 E20.54177
G1 X81.976 Y95.846 E20.54619
G1 X82.149 Y95.979 E20.55048
G1 X82.350 Y96.061 E20.55474
G1 X82.570 Y96.091 E20.55910
G1 X82.809 Y96.054 E20.56385
G1 X82.991 Y95.979 E20.56772
G1 X82.996 Y95.975 E20.56785
G1 X83.164 Y95.846 E20.57201
G1 X83.167 Y95.842 E20.57211
G1 X83.300 Y95.670 E20.57638
G1 X83.381 Y95.470 E20.58062
G1 X83.433 Y95.093 E20.58809
G1 X84.248 Y95.093 E20.60410
G1 X84.298 Y95.471 E20.61159
G1 X84.378 Y95.668 E20.61577
G1 X84.516 Y95.846 E20.62019
G1 X84.689 Y95.979 E20.62448
G1 X84.890 Y96.061 E20.62874
G1 X85.110 Y96.091 E20.63311
G1 X85.349 Y96.054 E20.63786
G1 X85.531 Y95.979 E20.64172
G1 X85.536 Y95.975 E20.64185
G1 X85.704 Y95.846 E20.64601
G1 X85.707 Y95.842 E20.64611
G1 X85.840 Y95.670 E20.65038
G1 X85.921 Y95.470 E20.65462
G1 X85.973 Y95.093 E20.66209
G1 X87.457 Y95.093 E20.69125
G1 X87.457 Y109.907 E20.98226
G1 X75.143 Y109.907 E21.22416
G1 X75.143 Y95.093 E21.51517
G1 X76.628 Y95.093 E21.54434
G1 X76.678 Y95.471 E21.55183
G1 X76.758 Y95.668 E21.55601
G0 F8400 X76.210 Y95.987
;TYPE:WALL-INNER
G1 F1800 X76.446 Y96.294 E21.56361
G1 X76.753 Y96.529 E21.57121
G1 X77.108 Y96.675 E21.57875
G1 X77.495 Y96.727 E21.58642
G1 X77.900 Y96.664 E21.59447
G1 X78.225 Y96.529 E21.60138
G1 X78.296 Y96.477 E21.60311
G1 X78.536 Y96.292 E21.60906
G1 X78.760 Y96.000 E21.61629
G1 X78.985 Y96.294 E21.62357
G1 X79.292 Y96.529 E21.63116
G1 X79.648 Y96.675 E21.63872
G1 X80.034 Y96.727 E21.64637
G1 X80.440 Y96.664 E21.65444
G1 X80.767 Y96.528 E21.66140
G1 X81.075 Y96.292 E21.66902
G1 X81.300 Y96.000 E21.67626
G1 X81.526 Y96.294 E21.68355
G1 X81.833 Y96.529 E21.69114
G1 X82.188 Y96.675 E21.69868
G1 X82.575 Y96.727 E21.70635
G1 X82.980 Y96.664 E21.71441
G1 X83.305 Y96.529 E21.72132
G1 X83.376 Y96.477 E21.72305
G1 X83.616 Y96.292 E21.72900
G1 X83.840 Y96.000 E21.73623
G1 X84.066 Y96.294 E21.74351
G1 X84.373 Y96.529 E21.75111
G1 X84.728 Y96.675 E21.75865
G1 X85.115 Y96.727 E21.76632
G1 X85.520 Y96.664 E21.77437
G1 X85.845 Y96.529 E21.78129
G1 X85.916 Y96.477 E21.78301
G1 X86.156 Y96.292 E21.78897
G1 X86.389 Y95.988 E21.79649
G1 X86.498 Y95.722 E21.80214
G1 X86.828 Y95.722 E21.80862
G1 X86.828 Y109.278 E22.07492
G1 X75.772 Y109.278 E22.29211
G1 X75.772 Y95.722 E22.55840
G1 X76.102 Y95.722 E22.56489
G1 X76.210 Y95.987 E22.57051
G0 F8400 X80.458 Y102.962
G1 F1800 X80.040 Y103.228 E22.58024
G1 X79.701 Y103.588 E22.58995
G1 X79.463 Y104.022 E22.59968
G1 X79.339 Y104.501 E22.60940
G1 X79.339 Y104.998 E22.61916
G1 X79.463 Y105.479 E22.62892
G1 X79.708 Y105.917 E22.63878
G1 X80.039 Y106.271 E22.64830
G1 X80.458 Y106.537 E22.65805
G1 X80.929 Y106.690 E22.66778
G1 X81.424 Y106.722 E22.67752
G1 X81.912 Y106.628 E22.68728
G1 X82.366 Y106.411 E22.69717
G1 X82.746 Y106.094 E22.70689
G1 X83.031 Y105.701 E22.71643
G1 X83.213 Y105.242 E22.72612
G1 X83.276 Y104.750 E22.73587
G1 X83.212 Y104.256 E22.74565
G1 X83.025 Y103.790 E22.75552
G1 X82.739 Y103.396 E22.76508
G1 X82.349 Y103.078 E22.77497
G1 X81.911 Y102.871 E22.78448
G1 X81.424 Y102.777 E22.79423
G1 X80.929 Y102.809 E22.80397
G1 X80.458 Y102.962 E22.81370
G0 F8400 X80.594 Y103.249
;TYPE:WALL-OUTER
G1 F1800 X80.242 Y103.472 E22.82189
G1 X79.958 Y103.775 E22.83004
G1 X79.758 Y104.139 E22.83820
G1 X79.654 Y104.541 E22.84636
G1 X79.654 Y104.958 E22.85455
G1 X79.758 Y105.361 E22.86273
G1 X79.964 Y105.730 E22.87103
G1 X80.242 Y106.027 E22.87902
G1 X80.594 Y106.250 E22.88721
G1 X80.988 Y106.378 E22.89534
G1 X81.404 Y106.405 E22.90353
G1 X81.812 Y106.326 E22.91170
G1 X82.195 Y106.144 E22.92003
G1 X82.514 Y105.877 E22.92820
G1 X82.753 Y105.548 E22.93619
G1 X82.905 Y105.162 E22.94434
G1 X82.958 Y104.750 E22.95250
G1 X82.905 Y104.336 E22.96070
G1 X82.747 Y103.943 E22.96902
G1 X82.508 Y103.614 E22.97700
G1 X82.179 Y103.346 E22.98534
G1 X81.812 Y103.173 E22.99331
G1 X81.404 Y103.094 E23.00147
G1 X80.988 Y103.121 E23.00966
G1 X80.594 Y103.249 E23.01780
G0 F8400 X80.457 Y103.031
G0 X79.997 Y96.664
G0 X80.031 Y96.409
G1 F1800 X80.355 Y96.358 E23.02424
G1 X80.608 Y96.253 E23.02963
G1 X80.850 Y96.069 E23.03560
G1 X81.033 Y95.829 E23.04153
G1 X81.148 Y95.549 E23.04747
G1 X81.167 Y95.407 E23.05029
G1 X81.432 Y95.407 E23.05549
G1 X81.451 Y95.549 E23.05831
G1 X81.566 Y95.829 E23.06425
G1 X81.750 Y96.069 E23.07019
G1 X81.991 Y96.253 E23.07615
G1 X82.270 Y96.368 E23.08208
G1 X82.572 Y96.409 E23.08807
G1 X82.895 Y96.358 E23.09449
G1 X83.148 Y96.254 E23.09986
G1 X83.390 Y96.068 E23.10586
G1 X83.573 Y95.829 E23.11177
G1 X83.688 Y95.549 E23.11772
G1 X83.707 Y95.407 E23.12053
G1 X83.972 Y95.407 E23.12574
G1 X83.991 Y95.549 E23.12855
G1 X84.106 Y95.829 E23.13450
G1 X84.290 Y96.069 E23.14044
G1 X84.531 Y96.253 E23.14640
G1 X84.810 Y96.368 E23.15232
G1 X85.112 Y96.409 E23.15831
G1 X85.435 Y96.358 E23.16473
G1 X85.688 Y96.254 E23.17011
G1 X85.930 Y96.068 E23.17610
G1 X86.113 Y95.829 E23.18202
G1 X86.228 Y95.549 E23.18796
G1 X86.247 Y95.407 E23.19078
G1 X87.143 Y95.407 E23.20838
G1 X87.143 Y109.593 E23.48705
G1 X75.457 Y109.593 E23.71662
G1 X75.457 Y95.407 E23.99529
G1 X76.352 Y95.407 E24.01287
G1 X76.371 Y95.549 E24.01569
G1 X76.486 Y95.829 E24.02163
G1 X76.670 Y96.069 E24.02757
G1 X76.911 Y96.253 E24.03353
G1 X77.190 Y96.368 E24.03946
G1 X77.492 Y96.409 E24.04544
G1 X77.815 Y96.358 E24.05187
G1 X78.068 Y96.254 E24.05724
G1 X78.310 Y96.068 E24.06324
G1 X78.493 Y95.829 E24.06915
G1 X78.608 Y95.549 E24.07510
G1 X78.627 Y95.407 E24.07791
G1 X78.892 Y95.407 E24.08312
G1 X78.911 Y95.549 E24.08593
G1 X79.026 Y95.829 E24.09188
G1 X79.210 Y96.069 E24.09782
G1 X79.450 Y96.253 E24.10376
G1 X79.730 Y96.368 E24.10970
G1 X80.031 Y96.409 E24.11567
G0 F8400 X80.173 Y96.879
;TYPE:SKIN
G1 F1800 X86.655 Y103.362 E24.29576
G0 F8400 X86.655 Y103.807
G1 F1800 X79.705 Y96.856 E24.48886
G0 F8400 X78.727 Y96.324
G1 F1800 X86.655 Y104.252 E24.70911
G0 F8400 X86.655 Y104.698
G1 F1800 X78.495 Y96.538 E24.93580
G0 F8400 X78.226 Y96.714
G1 F1800 X86.655 Y105.143 E25.16997
G0 F8400 X86.655 Y105.589
G1 F1800 X77.904 Y96.837 E25.41310
G0 F8400 X77.518 Y96.897
G1 F1800 X86.655 Y106.034 E25.66693
G0 F8400 X86.655 Y106.480
G1 F1800 X76.986 Y96.811 E25.93555
G0 F8400 X75.943 Y96.659
G1 F1800 X82.013 Y102.728 E26.10417
G0 F8400 X81.443 Y102.604
G1 F1800 X75.943 Y97.104 E26.25696
G0 F8400 X75.943 Y97.550
G1 F1800 X81.023 Y102.629 E26.39808
G0 F8400 X80.661 Y102.713
G1 F1800 X75.943 Y97.995 E26.52915
G0 F8400 X75.943 Y98.441
G1 F1800 X80.336 Y102.833 E26.65118
G0 F8400 X80.064 Y103.007
G1 F1800 X75.943 Y98.886 E26.76566
G0 F8400 X75.943 Y99.332
G1 F1800 X79.821 Y103.209 E26.87339
G0 F8400 X79.604 Y103.438
G1 F1800 X75.943 Y99.777 E26.97509
G0 F8400 X75.943 Y96.213
G1 F1800 X86.655 Y106.925 E27.27268
G0 F8400 X86.655 Y107.371
G1 F1800 X83.301 Y104.016 E27.36588
G0 F8400 X83.427 Y104.588
G1 F1800 X86.655 Y107.816 E27.45555
G0 F8400 X86.655 Y108.262
G1 F1800 X83.413 Y105.020 E27.54562
G0 F8400 X83.338 Y105.390
G1 F1800 X86.655 Y108.707 E27.63777
G0 F8400 X86.607 Y109.105
G1 F1800 X83.211 Y105.708 E27.73213
G0 F8400 X83.038 Y105.981
G1 F1800 X86.162 Y109.105 E27.81892
G0 F8400 X85.716 Y109.105
G1 F1800 X82.846 Y106.234 E27.89866
G0 F8400 X82.603 Y106.437
G1 F1800 X85.271 Y109.105 E27.97278
G0 F8400 X84.825 Y109.105
G1 F1800 X82.336 Y106.615 E28.04195
G0 F8400 X82.034 Y106.758
G1 F1800 X84.380 Y109.105 E28.10713
G0 F8400 X83.934 Y109.105
G1 F1800 X81.677 Y106.847 E28.16985
G0 F8400 X81.267 Y106.883
G1 F1800 X83.489 Y109.105 E28.23158
G0 F8400 X83.044 Y109.105
G1 F1800 X80.751 Y106.812 E28.29528
G0 F8400 X80.816 Y109.105
G1 F1800 X75.943 Y104.232 E28.43066
G0 F8400 X75.943 Y104.677
G1 F1800 X80.371 Y109.105 E28.55368
G0 F8400 X81.262 Y109.105
G1 F1800 X75.943 Y103.787 E28.70143
G0 F8400 X75.943 Y103.341
G1 F1800 X81.707 Y109.105 E28.86156
G0 F8400 X82.153 Y109.105
G1 F1800 X75.943 Y102.896 E29.03407
G0 F8400 X75.943 Y102.450
G1 F1800 X82.598 Y109.105 E29.21895
G0 F8400 X86.655 Y102.916
G1 F1800 X80.545 Y96.806 E29.38869
G0 F8400 X80.859 Y96.674
G1 F1800 X86.655 Y102.471 E29.54973
G0 F8400 X86.655 Y102.025
G1 F1800 X81.111 Y96.481 E29.70375
G0 F8400 X81.760 Y96.684
G1 F1800 X86.655 Y101.580 E29.83975
G0 F8400 X86.655 Y101.134
G1 F1800 X82.398 Y96.877 E29.95801
G0 F8400 X82.828 Y96.861
G1 F1800 X86.655 Y100.689 E30.06435
G0 F8400 X86.655 Y100.243
G1 F1800 X83.179 Y96.766 E30.16093
G0 F8400 X83.473 Y96.616
G1 F1800 X86.655 Y99.798 E30.24933
G0 F8400 X86.655 Y99.352
G1 F1800 X83.727 Y96.423 E30.33069
G0 F8400 X84.526 Y96.778
G1 F1800 X86.655 Y98.907 E30.38983
G0 F8400 X86.655 Y98.461
G1 F1800 X85.091 Y96.897 E30.43328
G0 F8400 X85.482 Y96.843
G1 F1800 X86.655 Y98.016 E30.46587
G0 F8400 X86.655 Y97.570
G1 F1800 X85.813 Y96.727 E30.48927
G0 F8400 X86.089 Y96.558
G1 F1800 X86.655 Y97.125 E30.50501
G0 F8400 X86.655 Y96.679
G1 F1800 X86.423 Y96.224 E30.51409
G1 X86.655 Y96.234 E30.51865
G0 F8400 X79.435 Y103.714
G1 F1800 X75.943 Y100.223 E30.61565
G0 F8400 X75.943 Y100.668
G1 F1800 X79.287 Y104.012 E30.70855
G0 F8400 X79.196 Y104.366
G1 F1800 X75.943 Y101.114 E30.79891
G0 F8400 X75.943 Y101.559
G1 F1800 X79.166 Y104.782 E30.88845
G0 F8400 X79.239 Y105.300
G1 F1800 X75.943 Y102.005 E30.98000
G0 F8400 X75.943 Y105.123
G1 F1800 X79.925 Y109.105 E31.09062
G0 F8400 X79.480 Y109.105
G1 F1800 X75.943 Y105.568 E31.18889
G0 F8400 X75.943 Y106.014
G1 F1800 X79.034 Y109.105 E31.27476
G0 F8400 X78.589 Y109.105
G1 F1800 X75.943 Y106.459 E31.34827
