;Generated with Cura_SteamEngine 15.01
G28 ; Home extruder
G1 Z5 F300
G1 Z0 F300
M106 S165 ; Turn on fan
G90 ; Absolute positioning
M82 ; Extruder in absolute mode
; Activate all used extruder
M104 T0 S200
G92 E0 ; Reset extruder position
; Wait for all used extruders to reach temperature
M109 T0 S200
T0
M83
G1 E10 F100
M82
G92 E0 ; Reset extruder position
M117 Vertex is printing
G1 F300 Z5
;Layer count: 50
;LAYER:0
M106 S255
G0 F8400 X46.733 Y83.033 Z0.200
;TYPE:SKIRT
G1 F1800 X65.867 Y83.033 E0.37587
G1 X65.867 Y83.433 E0.38373
G1 X70.483 Y83.433 E0.47441
G1 X70.483 Y83.033 E0.48227
G1 X92.117 Y83.033 E0.90725
G1 X92.117 Y83.433 E0.91511
G1 X96.733 Y83.433 E1.00579
G1 X96.733 Y83.033 E1.01364
G1 X115.967 Y83.033 E1.39148
G1 X115.967 Y102.167 E1.76736
G1 X105.367 Y102.167 E1.97558
G1 X105.367 Y102.833 E1.98867
G1 X115.967 Y102.833 E2.19690
G1 X115.967 Y122.167 E2.57670
G1 X96.733 Y122.167 E2.95454
G1 X96.733 Y121.567 E2.96632
G1 X65.867 Y121.567 E3.57266
G1 X65.867 Y122.167 E3.58445
G1 X46.733 Y122.167 E3.96032
G1 X46.733 Y102.833 E4.34013
G1 X57.233 Y102.833 E4.54639
G1 X57.233 Y102.167 E4.55947
G1 X46.733 Y102.167 E4.76574
G1 X46.733 Y83.033 E5.14161
G0 F8400 X47.048 Y83.348
G1 F1800 X65.552 Y83.348 E5.50511
G1 X65.552 Y83.748 E5.51297
G1 X70.798 Y83.748 E5.61602
G1 X70.798 Y83.348 E5.62388
G1 X91.802 Y83.348 E6.03649
G1 X91.802 Y83.748 E6.04434
G1 X97.048 Y83.748 E6.14740
G1 X97.048 Y83.348 E6.15526
G1 X115.652 Y83.348 E6.52072
G1 X115.652 Y101.852 E6.88422
G1 X105.052 Y101.852 E7.09244
G1 X105.052 Y103.148 E7.11790
G1 X115.652 Y103.148 E7.32613
G1 X115.652 Y121.852 E7.69356
G1 X97.048 Y121.852 E8.05902
G1 X97.048 Y121.252 E8.07081
G1 X65.552 Y121.252 E8.68952
G1 X65.552 Y121.852 E8.70131
G1 X47.048 Y121.852 E9.06481
G1 X47.048 Y103.148 E9.43223
G1 X57.548 Y103.148 E9.63850
G1 X57.548 Y101.852 E9.66396
G1 X47.048 Y101.852 E9.87022
G1 X47.048 Y83.348 E10.23372
G0 F8400 X47.363 Y83.663
G1 F1800 X65.237 Y83.663 E10.58484
G1 X65.237 Y84.063 E10.59270
G1 X71.113 Y84.063 E10.70813
G1 X71.113 Y83.663 E10.71599
G1 X91.487 Y83.663 E11.11622
G1 X91.487 Y84.063 E11.12408
G1 X97.363 Y84.063 E11.23951
G1 X97.363 Y83.663 E11.24736
G1 X115.337 Y83.663 E11.60045
G1 X115.337 Y101.537 E11.95157
G1 X104.737 Y101.537 E12.15980
G1 X104.737 Y103.463 E12.19764
G1 X115.337 Y103.463 E12.40587
G1 X115.337 Y121.537 E12.76092
G1 X97.363 Y121.537 E13.11400
G1 X97.363 Y120.937 E13.12579
G1 X65.237 Y120.937 E13.75688
G1 X65.237 Y121.537 E13.76867
G1 X47.363 Y121.537 E14.11979
G1 X47.363 Y103.463 E14.47484
G1 X57.863 Y103.463 E14.68110
G1 X57.863 Y101.537 E14.71894
G1 X47.363 Y101.537 E14.92520
G1 X47.363 Y83.663 E15.27633
G0 F8400 X47.678 Y83.978
G1 F1800 X64.922 Y83.978 E15.61507
G1 X64.922 Y84.378 E15.62293
G1 X71.428 Y84.378 E15.75073
G1 X71.428 Y83.978 E15.75859
G1 X91.172 Y83.978 E16.14645
G1 X91.172 Y84.378 E16.15431
G1 X97.678 Y84.378 E16.28211
G1 X97.678 Y83.978 E16.28997
G1 X115.022 Y83.978 E16.63068
G1 X115.022 Y101.222 E16.96943
G1 X104.422 Y101.222 E17.17765
G1 X104.422 Y103.778 E17.22787
G1 X115.022 Y103.778 E17.43609
G1 X115.022 Y121.222 E17.77877
G1 X97.678 Y121.222 E18.11948
G1 X97.678 Y120.622 E18.13127
G1 X64.922 Y120.622 E18.77473
G1 X64.922 Y121.222 E18.78652
G1 X47.678 Y121.222 E19.12527
G1 X47.678 Y103.778 E19.46794
G1 X58.178 Y103.778 E19.67421
G1 X58.178 Y101.222 E19.72442
G1 X47.678 Y101.222 E19.93068
G1 X47.678 Y83.978 E20.26943
G0 F8400 X47.993 Y84.293
G1 F1800 X64.607 Y84.293 E20.59580
G1 X64.607 Y84.693 E20.60365
G1 X71.743 Y84.693 E20.74384
G1 X71.743 Y84.293 E20.75169
G1 X90.857 Y84.293 E21.12717
G1 X90.857 Y84.693 E21.13503
G1 X97.993 Y84.693 E21.27521
G1 X97.993 Y84.293 E21.28307
G1 X114.707 Y84.293 E21.61140
G1 X114.707 Y100.907 E21.93777
G1 X104.107 Y100.907 E22.14600
G1 X104.107 Y104.093 E22.20859
G1 X114.707 Y104.093 E22.41682
G1 X114.707 Y120.907 E22.74712
G1 X97.993 Y120.907 E23.07545
G1 X97.993 Y120.307 E23.08724
G1 X64.607 Y120.307 E23.74308
G1 X64.607 Y120.907 E23.75487
G1 X47.993 Y120.907 E24.08124
G1 X47.993 Y104.093 E24.41154
G1 X58.493 Y104.093 E24.61780
G1 X58.493 Y100.907 E24.68039
G1 X47.993 Y100.907 E24.88665
G1 X47.993 Y84.293 E25.21302
G0 F8400 X48.308 Y84.608
G1 F1800 X64.292 Y84.608 E25.52702
G1 X64.292 Y85.008 E25.53488
G1 X72.058 Y85.008 E25.68743
G1 X72.058 Y84.608 E25.69529
G1 X90.542 Y84.608 E26.05840
G1 X90.542 Y85.008 E26.06625
G1 X98.308 Y85.008 E26.21881
G1 X98.308 Y84.608 E26.22667
G1 X114.392 Y84.608 E26.54263
G1 X114.392 Y100.592 E26.85662
G1 X103.792 Y100.592 E27.06485
G1 X103.792 Y104.408 E27.13981
G1 X114.392 Y104.408 E27.34804
G1 X114.392 Y120.592 E27.66596
G1 X98.308 Y120.592 E27.98192
G1 X98.308 Y119.992 E27.99371
G1 X64.292 Y119.992 E28.66193
G1 X64.292 Y120.592 E28.67372
G1 X48.308 Y120.592 E28.98771
G1 X48.308 Y104.408 E29.30563
G1 X58.808 Y104.408 E29.51190
G1 X58.808 Y100.592 E29.58686
G1 X48.308 Y100.592 E29.79312
G1 X48.308 Y84.608 E30.10712
G0 F8400 X48.623 Y84.923
G1 F1800 X63.977 Y84.923 E30.40874
G1 X63.977 Y85.323 E30.41659
G1 X72.373 Y85.323 E30.58153
G1 X72.373 Y84.923 E30.58939
G1 X90.227 Y84.923 E30.94011
G1 X90.227 Y85.323 E30.94797
G1 X98.623 Y85.323 E31.11290
G1 X98.623 Y84.923 E31.12076
G1 X114.077 Y84.923 E31.42435
G1 X114.077 Y100.277 E31.72596
G1 X103.477 Y100.277 E31.93419
G1 X103.477 Y104.723 E32.02153
G1 X114.077 Y104.723 E32.22976
G1 X114.077 Y120.277 E32.53531
G1 X98.623 Y120.277 E32.83889
G1 X98.623 Y119.677 E32.85068
G1 X63.977 Y119.677 E33.53127
G1 X63.977 Y120.277 E33.54306
G1 X48.623 Y120.277 E33.84468
G1 X48.623 Y104.723 E34.15022
G1 X59.123 Y104.723 E34.35649
G1 X59.123 Y100.277 E34.44383
G1 X48.623 Y100.277 E34.65009
G1 X48.623 Y84.923 E34.95171
G0 F8400 X48.938 Y85.238
G1 F1800 X63.662 Y85.238 E35.24095
G1 X63.662 Y85.638 E35.24881
G1 X72.688 Y85.638 E35.42612
G1 X72.688 Y85.238 E35.43398
G1 X89.912 Y85.238 E35.77233
G1 X89.912 Y85.638 E35.78019
G1 X98.938 Y85.638 E35.95750
G1 X98.938 Y85.238 E35.96535
G1 X113.762 Y85.238 E36.25656
G1 X113.762 Y99.962 E36.54580
G1 X103.162 Y99.962 E36.75403
G1 X103.162 Y105.038 E36.85375
G1 X113.762 Y105.038 E37.06197
G1 X113.762 Y119.962 E37.35515
G1 X98.938 Y119.962 E37.64635
G1 X98.938 Y119.362 E37.65814
G1 X63.662 Y119.362 E38.35111
G1 X63.662 Y119.962 E38.36290
G1 X48.938 Y119.962 E38.65214
G1 X48.938 Y105.038 E38.94531
G1 X59.438 Y105.038 E39.15157
G1 X59.438 Y99.962 E39.25129
G1 X48.938 Y99.962 E39.45755
G1 X48.938 Y85.238 E39.74680
G0 F8400 X49.253 Y85.553
G1 F1800 X63.347 Y85.553 E40.02366
G1 X63.347 Y85.953 E40.03152
G1 X73.003 Y85.953 E40.22121
G1 X73.003 Y85.553 E40.22906
G1 X89.597 Y85.553 E40.55504
G1 X89.597 Y85.953 E40.56290
G1 X99.253 Y85.953 E40.75258
G1 X99.253 Y85.553 E40.76044
G1 X113.447 Y85.553 E41.03927
G1 X113.447 Y99.647 E41.31614
G1 X102.847 Y99.647 E41.52437
G1 X102.847 Y105.353 E41.63646
G1 X113.447 Y105.353 E41.84469
G1 X113.447 Y119.647 E42.12548
G1 X99.253 Y119.647 E42.40431
G1 X99.253 Y119.047 E42.41610
G1 X63.347 Y119.047 E43.12145
G1 X63.347 Y119.647 E43.13323
G1 X49.253 Y119.647 E43.41010
G1 X49.253 Y105.353 E43.69089
G1 X59.753 Y105.353 E43.89716
G1 X59.753 Y99.647 E44.00925
G1 X49.253 Y99.647 E44.21551
G1 X49.253 Y85.553 E44.49238
G0 F8400 X49.568 Y85.868
G1 F1800 X63.032 Y85.868 E44.75687
G1 X63.032 Y86.268 E44.76473
G1 X73.318 Y86.268 E44.96679
G1 X73.318 Y85.868 E44.97465
G1 X89.282 Y85.868 E45.28825
G1 X89.282 Y86.268 E45.29611
G1 X99.568 Y86.268 E45.49817
G1 X99.568 Y85.868 E45.50602
G1 X113.132 Y85.868 E45.77248
G1 X113.132 Y99.332 E46.03697
G1 X102.532 Y99.332 E46.24520
G1 X102.532 Y105.668 E46.36966
G1 X113.132 Y105.668 E46.57789
G1 X113.132 Y119.332 E46.84631
G1 X99.568 Y119.332 E47.11277
G1 X99.568 Y118.732 E47.12455
G1 X63.032 Y118.732 E47.84228
G1 X63.032 Y119.332 E47.85406
G1 X49.568 Y119.332 E48.11855
G1 X49.568 Y105.668 E48.38697
G1 X60.068 Y105.668 E48.59324
G1 X60.068 Y99.332 E48.71770
G1 X49.568 Y99.332 E48.92397
G1 X49.568 Y85.868 E49.18846
G0 F8400 X49.883 Y86.183
G1 F1800 X62.717 Y86.183 E49.44057
G1 X62.717 Y86.583 E49.44843
G1 X73.633 Y86.583 E49.66287
G1 X73.633 Y86.183 E49.67073
G1 X88.967 Y86.183 E49.97195
G1 X88.967 Y86.583 E49.97981
G1 X99.883 Y86.583 E50.19425
G1 X99.883 Y86.183 E50.20210
G1 X112.817 Y86.183 E50.45618
G1 X112.817 Y99.017 E50.70830
G1 X102.217 Y99.017 E50.91653
G1 X102.217 Y105.983 E51.05337
G1 X112.817 Y105.983 E51.26160
G1 X112.817 Y119.017 E51.51764
G1 X99.883 Y119.017 E51.77172
G1 X99.883 Y118.417 E51.78351
G1 X62.717 Y118.417 E52.51361
G1 X62.717 Y119.017 E52.52539
G1 X49.883 Y119.017 E52.77751
G1 X49.883 Y105.983 E53.03355
G1 X60.383 Y105.983 E53.23981
G1 X60.383 Y99.017 E53.37666
G1 X49.883 Y99.017 E53.58292
G1 X49.883 Y86.183 E53.83504
G0 F8400 X50.198 Y86.498
G1 F1800 X62.402 Y86.498 E54.07477
G1 X62.402 Y86.898 E54.08263
G1 X73.948 Y86.898 E54.30944
G1 X73.948 Y86.498 E54.31730
G1 X88.652 Y86.498 E54.60615
G1 X88.652 Y86.898 E54.61401
G1 X100.198 Y86.898 E54.84082
G1 X100.198 Y86.498 E54.84868
G1 X112.502 Y86.498 E55.09038
G1 X112.502 Y98.702 E55.33012
G1 X101.902 Y98.702 E55.53835
G1 X101.902 Y106.298 E55.68757
G1 X112.502 Y106.298 E55.89580
G1 X112.502 Y118.702 E56.13947
G1 X100.198 Y118.702 E56.38117
G1 X100.198 Y118.102 E56.39296
G1 X62.402 Y118.102 E57.13543
G1 X62.402 Y118.702 E57.14722
G1 X50.198 Y118.702 E57.38696
G1 X50.198 Y106.298 E57.63062
G1 X60.698 Y106.298 E57.83689
G1 X60.698 Y98.702 E57.98611
G1 X50.198 Y98.702 E58.19237
G1 X50.198 Y86.498 E58.43211
G0 F8400 X50.513 Y86.813
G1 F1800 X62.087 Y86.813 E58.65947
G1 X62.087 Y87.213 E58.66733
G1 X74.263 Y87.213 E58.90652
G1 X74.263 Y86.813 E58.91438
G1 X88.337 Y86.813 E59.19085
G1 X88.337 Y87.213 E59.19871
G1 X100.513 Y87.213 E59.43790
G1 X100.513 Y86.813 E59.44575
G1 X112.187 Y86.813 E59.67508
G1 X112.187 Y98.387 E59.90244
G1 X101.587 Y98.387 E60.11067
G1 X101.587 Y106.613 E60.27227
G1 X112.187 Y106.613 E60.48050
G1 X112.187 Y118.387 E60.71179
G1 X100.513 Y118.387 E60.94111
G1 X100.513 Y117.787 E60.95290
G1 X62.087 Y117.787 E61.70775
G1 X62.087 Y118.387 E61.71954
G1 X50.513 Y118.387 E61.94690
G1 X50.513 Y106.613 E62.17819
G1 X61.013 Y106.613 E62.38446
G1 X61.013 Y98.387 E62.54605
G1 X50.513 Y98.387 E62.75232
G1 X50.513 Y86.813 E62.97968
G0 F8400 X50.828 Y87.128
G1 F1800 X61.772 Y87.128 E63.19466
G1 X61.772 Y87.528 E63.20252
G1 X74.578 Y87.528 E63.45409
G1 X74.578 Y87.128 E63.46194
G1 X88.022 Y87.128 E63.72604
G1 X88.022 Y87.528 E63.73390
G1 X100.828 Y87.528 E63.98546
G1 X100.828 Y87.128 E63.99332
G1 X111.872 Y87.128 E64.21027
G1 X111.872 Y98.072 E64.42526
G1 X101.272 Y98.072 E64.63349
G1 X101.272 Y106.928 E64.80746
G1 X111.872 Y106.928 E65.01569
G1 X111.872 Y118.072 E65.23460
G1 X100.828 Y118.072 E65.45156
G1 X100.828 Y117.472 E65.46334
G1 X61.772 Y117.472 E66.23057
G1 X61.772 Y118.072 E66.24236
G1 X50.828 Y118.072 E66.45734
G1 X50.828 Y106.928 E66.67626
G1 X61.328 Y106.928 E66.88252
G1 X61.328 Y98.072 E67.05649
G1 X50.828 Y98.072 E67.26276
G1 X50.828 Y87.128 E67.47774
G0 F8400 X51.143 Y87.443
G1 F1800 X61.457 Y87.443 E67.68035
G1 X61.457 Y87.843 E67.68821
G1 X74.893 Y87.843 E67.95215
G1 X74.893 Y87.443 E67.96001
G1 X87.707 Y87.443 E68.21173
G1 X87.707 Y87.843 E68.21959
G1 X101.143 Y87.843 E68.48353
G1 X101.143 Y87.443 E68.49139
G1 X111.557 Y87.443 E68.69596
G1 X111.557 Y97.757 E68.89857
G1 X101.143 Y97.757 E69.10315
G1 X101.143 Y97.157 E69.11494
G1 X100.957 Y97.157 E69.11859
G1 X100.957 Y107.843 E69.32851
G1 X101.143 Y107.843 E69.33216
G1 X101.143 Y107.243 E69.34395
G1 X111.557 Y107.243 E69.54852
G1 X111.557 Y117.757 E69.75506
G1 X101.143 Y117.757 E69.95964
G1 X101.143 Y117.157 E69.97143
G1 X61.457 Y117.157 E70.75103
G1 X61.457 Y117.757 E70.76282
G1 X51.143 Y117.757 E70.96543
G1 X51.143 Y107.243 E71.17197
G1 X61.457 Y107.243 E71.37458
G1 X61.457 Y107.843 E71.38636
G1 X61.643 Y107.843 E71.39002
G1 X61.643 Y97.157 E71.59994
G1 X61.457 Y97.157 E71.60359
G1 X61.457 Y97.757 E71.61538
G1 X51.143 Y97.757 E71.81799
G1 X51.143 Y87.443 E72.02060
G0 F8400 X75.207 Y101.969
G1 F1800 X75.207 Y102.343 E72.02795
G1 X76.677 Y102.343 E72.05682
G1 X76.728 Y102.713 E72.06416
G1 X76.806 Y102.898 E72.06810
G1 X76.935 Y103.063 E72.07222
G1 X77.093 Y103.185 E72.07614
G1 X77.284 Y103.264 E72.08020
G1 X77.490 Y103.290 E72.08428
G1 X77.695 Y103.264 E72.08834
G1 X77.886 Y103.185 E72.09240
G1 X78.047 Y103.061 E72.09639
G1 X78.176 Y102.892 E72.10057
G1 X78.254 Y102.705 E72.10455
G1 X78.303 Y102.343 E72.11172
G1 X79.217 Y102.343 E72.12968
G1 X79.268 Y102.713 E72.13701
G1 X79.346 Y102.898 E72.14096
G1 X79.474 Y103.062 E72.14505
G1 X79.634 Y103.185 E72.14901
G1 X79.824 Y103.264 E72.15305
G1 X80.029 Y103.290 E72.15711
G1 X80.235 Y103.264 E72.16119
G1 X80.426 Y103.185 E72.16525
G1 X80.587 Y103.061 E72.16924
G1 X80.716 Y102.892 E72.17342
G1 X80.794 Y102.705 E72.17740
G1 X80.843 Y102.343 E72.18458
G1 X81.757 Y102.343 E72.20253
G1 X81.808 Y102.713 E72.20987
G1 X81.886 Y102.898 E72.21381
G1 X82.014 Y103.062 E72.21790
G1 X82.174 Y103.185 E72.22186
G1 X82.364 Y103.264 E72.22591
G1 X82.570 Y103.290 E72.22998
G1 X82.775 Y103.264 E72.23404
G1 X82.966 Y103.185 E72.23810
G1 X83.127 Y103.061 E72.24210
G1 X83.256 Y102.892 E72.24627
G1 X83.334 Y102.705 E72.25025
G1 X83.383 Y102.343 E72.25743
G1 X84.297 Y102.343 E72.27538
G1 X84.348 Y102.713 E72.28272
G1 X84.426 Y102.898 E72.28666
G1 X84.554 Y103.062 E72.29075
G1 X84.714 Y103.185 E72.29472
G1 X84.904 Y103.264 E72.29876
G1 X85.110 Y103.290 E72.30284
G1 X85.315 Y103.264 E72.30690
G1 X85.506 Y103.185 E72.31096
G1 X85.667 Y103.061 E72.31495
G1 X85.796 Y102.892 E72.31912
G1 X85.874 Y102.705 E72.32311
G1 X85.921 Y102.343 E72.33028
G1 X87.393 Y102.343 E72.35919
G1 X87.393 Y101.756 E72.37072
G1 X75.207 Y101.969 E72.61015
G0 F8400 X74.578 Y102.972
;TYPE:WALL-INNER
G1 F1800 X76.155 Y102.972 E72.64112
G1 X76.261 Y103.220 E72.64642
G1 X76.487 Y103.512 E72.65368
G1 X76.776 Y103.734 E72.66083
G1 X77.121 Y103.877 E72.66817
G1 X77.490 Y103.925 E72.67548
G1 X77.858 Y103.877 E72.68277
G1 X78.203 Y103.734 E72.69011
G1 X78.498 Y103.507 E72.69742
G1 X78.724 Y103.212 E72.70472
G1 X78.760 Y103.125 E72.70657
G1 X78.801 Y103.220 E72.70860
G1 X79.028 Y103.513 E72.71588
G1 X79.317 Y103.734 E72.72303
G1 X79.661 Y103.877 E72.73035
G1 X80.029 Y103.925 E72.73764
G1 X80.398 Y103.877 E72.74495
G1 X80.743 Y103.734 E72.75228
G1 X81.038 Y103.507 E72.75960
G1 X81.264 Y103.212 E72.76690
G1 X81.300 Y103.125 E72.76875
G1 X81.341 Y103.220 E72.77078
G1 X81.568 Y103.513 E72.77806
G1 X81.857 Y103.734 E72.78521
G1 X82.201 Y103.877 E72.79253
G1 X82.570 Y103.925 E72.79984
G1 X82.938 Y103.877 E72.80713
G1 X83.283 Y103.734 E72.81446
G1 X83.578 Y103.507 E72.82177
G1 X83.804 Y103.212 E72.82907
G1 X83.840 Y103.125 E72.83092
G1 X83.881 Y103.220 E72.83296
G1 X84.108 Y103.513 E72.84024
G1 X84.397 Y103.734 E72.84738
G1 X84.741 Y103.877 E72.85470
G1 X85.110 Y103.925 E72.86201
G1 X85.478 Y103.877 E72.86930
G1 X85.823 Y103.734 E72.87664
G1 X86.118 Y103.507 E72.88395
G1 X86.344 Y103.212 E72.89125
G1 X86.444 Y102.972 E72.89636
G1 X88.022 Y102.972 E72.92736
G1 X88.022 Y88.472 E73.21220
G1 X100.828 Y88.472 E73.46376
G1 X100.828 Y96.528 E73.62202
G1 X100.328 Y96.528 E73.63184
G1 X100.328 Y108.472 E73.86647
G1 X100.828 Y108.472 E73.87629
G1 X100.828 Y116.528 E74.03455
G1 X61.772 Y116.528 E74.80177
G1 X61.772 Y108.472 E74.96003
G1 X62.272 Y108.472 E74.96985
G1 X62.272 Y96.528 E75.20448
G1 X61.772 Y96.528 E75.21430
G1 X61.772 Y88.472 E75.37256
G1 X74.578 Y88.472 E75.62412
G1 X74.578 Y102.972 E75.90896
G0 F8400 X74.893 Y102.657
;TYPE:WALL-OUTER
G1 F1800 X76.403 Y102.657 E75.93863
G1 X76.421 Y102.793 E75.94132
G1 X76.534 Y103.059 E75.94700
G1 X76.711 Y103.287 E75.95267
G1 X76.935 Y103.459 E75.95822
G1 X77.203 Y103.570 E75.96392
G1 X77.490 Y103.607 E75.96960
G1 X77.776 Y103.570 E75.97527
G1 X78.044 Y103.459 E75.98096
G1 X78.273 Y103.283 E75.98664
G1 X78.449 Y103.053 E75.99233
G1 X78.560 Y102.786 E75.99801
G1 X78.578 Y102.657 E76.00057
G1 X78.943 Y102.657 E76.00774
G1 X78.961 Y102.793 E76.01043
G1 X79.074 Y103.059 E76.01611
G1 X79.251 Y103.287 E76.02178
G1 X79.476 Y103.459 E76.02734
G1 X79.743 Y103.570 E76.03302
G1 X80.029 Y103.607 E76.03869
G1 X80.316 Y103.570 E76.04437
