;Generated with Cura_SteamEngine 15.01
G28 ; Home extruder
G1 Z5 F300
G1 Z0 F300
M106 S165 ; Turn on fan
G90 ; Absolute positioning
M82 ; Extruder in absolute mode
; Activate all used extruder
M104 T0 S200
G92 E0 ; Reset extruder position
; Wait for all used extruders to reach temperature
M109 T0 S200
T0
M83
G1 E10 F100
M82
G92 E0 ; Reset extruder position
M117 Vertex is printing
G1 F300 Z5
;Layer count: 50
;LAYER:0
M106 S255
G0 F8400 X41.233 Y67.533 Z0.200
;TYPE:SKIRT
G1 F1800 X60.867 Y67.533 E0.38570
G1 X60.867 Y67.933 E0.39355
G1 X101.733 Y67.933 E1.19634
G1 X101.733 Y67.533 E1.20419
G1 X121.467 Y67.533 E1.59185
G1 X121.467 Y87.067 E1.97558
G1 X120.867 Y87.067 E1.98737
G1 X120.867 Y117.933 E2.59371
G1 X121.467 Y117.933 E2.60550
G1 X121.467 Y137.667 E2.99316
G1 X101.733 Y137.667 E3.38082
G1 X101.733 Y137.067 E3.39260
G1 X60.867 Y137.067 E4.19539
G1 X60.867 Y137.667 E4.20717
G1 X41.233 Y137.667 E4.59287
G1 X41.233 Y117.933 E4.98053
G1 X41.733 Y117.933 E4.99035
G1 X41.733 Y87.067 E5.59669
G1 X41.233 Y87.067 E5.60651
G1 X41.233 Y67.533 E5.99024
G0 F8400 X41.548 Y67.848
G1 F1800 X60.552 Y67.848 E6.36356
G1 X60.552 Y68.248 E6.37142
G1 X102.048 Y68.248 E7.18658
G1 X102.048 Y67.848 E7.19444
G1 X121.152 Y67.848 E7.56972
G1 X121.152 Y86.752 E7.94108
G1 X120.552 Y86.752 E7.95286
G1 X120.552 Y118.248 E8.57158
G1 X121.152 Y118.248 E8.58337
G1 X121.152 Y137.352 E8.95865
G1 X102.048 Y137.352 E9.33393
G1 X102.048 Y136.752 E9.34572
G1 X60.552 Y136.752 E10.16088
G1 X60.552 Y137.352 E10.17267
G1 X41.548 Y137.352 E10.54599
G1 X41.548 Y118.248 E10.92127
G1 X42.048 Y118.248 E10.93109
G1 X42.048 Y86.752 E11.54981
G1 X41.548 Y86.752 E11.55963
G1 X41.548 Y67.848 E11.93099
G0 F8400 X41.863 Y68.163
G1 F1800 X60.237 Y68.163 E12.29193
G1 X60.237 Y68.563 E12.29979
G1 X102.363 Y68.563 E13.12732
G1 X102.363 Y68.163 E13.13518
G1 X120.837 Y68.163 E13.49809
G1 X120.837 Y86.437 E13.85707
G1 X120.237 Y86.437 E13.86885
G1 X120.237 Y118.563 E14.49994
G1 X120.837 Y118.563 E14.51173
G1 X120.837 Y137.037 E14.87464
G1 X102.363 Y137.037 E15.23755
G1 X102.363 Y136.437 E15.24933
G1 X60.237 Y136.437 E16.07687
G1 X60.237 Y137.037 E16.08865
G1 X41.863 Y137.037 E16.44960
G1 X41.863 Y118.563 E16.81251
G1 X42.363 Y118.563 E16.82233
G1 X42.363 Y86.437 E17.45342
G1 X41.863 Y86.437 E17.46324
G1 X41.863 Y68.163 E17.82222
G0 F8400 X42.178 Y68.478
G1 F1800 X59.922 Y68.478 E18.17079
G1 X59.922 Y68.878 E18.17865
G1 X102.678 Y68.878 E19.01856
G1 X102.678 Y68.478 E19.02642
G1 X120.522 Y68.478 E19.37695
G1 X120.522 Y86.122 E19.72355
G1 X119.922 Y86.122 E19.73534
G1 X119.922 Y118.878 E20.37881
G1 X120.522 Y118.878 E20.39059
G1 X120.522 Y136.722 E20.74112
G1 X102.678 Y136.722 E21.09166
G1 X102.678 Y136.122 E21.10344
G1 X59.922 Y136.122 E21.94335
G1 X59.922 Y136.722 E21.95514
G1 X42.178 Y136.722 E22.30371
G1 X42.178 Y118.878 E22.65424
G1 X42.678 Y118.878 E22.66406
G1 X42.678 Y86.122 E23.30753
G1 X42.178 Y86.122 E23.31735
G1 X42.178 Y68.478 E23.66396
G0 F8400 X42.493 Y68.793
G1 F1800 X59.607 Y68.793 E24.00015
G1 X59.607 Y69.193 E24.00801
G1 X102.993 Y69.193 E24.86029
G1 X102.993 Y68.793 E24.86815
G1 X120.207 Y68.793 E25.20631
G1 X120.207 Y85.807 E25.54053
G1 X119.607 Y85.807 E25.55232
G1 X119.607 Y119.193 E26.20816
G1 X120.207 Y119.193 E26.21995
G1 X120.207 Y136.407 E26.55811
G1 X102.993 Y136.407 E26.89626
G1 X102.993 Y135.807 E26.90805
G1 X59.607 Y135.807 E27.76034
G1 X59.607 Y136.407 E27.77212
G1 X42.493 Y136.407 E28.10831
G1 X42.493 Y119.193 E28.44647
G1 X42.993 Y119.193 E28.45629
G1 X42.993 Y85.807 E29.11214
G1 X42.493 Y85.807 E29.12196
G1 X42.493 Y68.793 E29.45619
G0 F8400 X42.808 Y69.108
G1 F1800 X59.292 Y69.108 E29.78000
G1 X59.292 Y69.508 E29.78786
G1 X103.308 Y69.508 E30.65252
G1 X103.308 Y69.108 E30.66038
G1 X119.892 Y69.108 E30.98616
G1 X119.892 Y85.492 E31.30801
G1 X119.292 Y85.492 E31.31980
G1 X119.292 Y119.508 E31.98802
G1 X119.892 Y119.508 E31.99980
G1 X119.892 Y136.092 E32.32558
G1 X103.308 Y136.092 E32.65137
G1 X103.308 Y135.492 E32.66315
G1 X59.292 Y135.492 E33.52781
G1 X59.292 Y136.092 E33.53960
G1 X42.808 Y136.092 E33.86342
G1 X42.808 Y119.508 E34.18920
G1 X43.308 Y119.508 E34.19902
G1 X43.308 Y85.492 E34.86724
G1 X42.808 Y85.492 E34.87706
G1 X42.808 Y69.108 E35.19891
G0 F8400 X43.123 Y69.423
G1 F1800 X58.977 Y69.423 E35.51035
G1 X58.977 Y69.823 E35.51821
G1 X103.623 Y69.823 E36.39525
G1 X103.623 Y69.423 E36.40311
G1 X119.577 Y69.423 E36.71651
G1 X119.577 Y85.177 E37.02599
G1 X118.977 Y85.177 E37.03777
G1 X118.977 Y119.823 E37.71837
G1 X119.577 Y119.823 E37.73015
G1 X119.577 Y135.777 E38.04356
G1 X103.623 Y135.777 E38.35696
G1 X103.623 Y135.177 E38.36875
G1 X58.977 Y135.177 E39.24579
G1 X58.977 Y135.777 E39.25758
G1 X43.123 Y135.777 E39.56902
G1 X43.123 Y119.823 E39.88242
G1 X43.623 Y119.823 E39.89224
G1 X43.623 Y85.177 E40.57284
G1 X43.123 Y85.177 E40.58266
G1 X43.123 Y69.423 E40.89214
G0 F8400 X43.438 Y69.738
G1 F1800 X58.662 Y69.738 E41.19120
G1 X58.662 Y70.138 E41.19906
G1 X103.938 Y70.138 E42.08847
G1 X103.938 Y69.738 E42.09633
G1 X119.262 Y69.738 E42.39736
G1 X119.262 Y84.862 E42.69446
G1 X118.662 Y84.862 E42.70624
G1 X118.662 Y120.138 E43.39922
G1 X119.262 Y120.138 E43.41100
G1 X119.262 Y135.462 E43.71203
G1 X103.938 Y135.462 E44.01306
G1 X103.938 Y134.862 E44.02485
G1 X58.662 Y134.862 E44.91426
G1 X58.662 Y135.462 E44.92605
G1 X43.438 Y135.462 E45.22511
G1 X43.438 Y120.138 E45.52614
G1 X43.938 Y120.138 E45.53596
G1 X43.938 Y84.862 E46.22893
G1 X43.438 Y84.862 E46.23875
G1 X43.438 Y69.738 E46.53585
G0 F8400 X43.753 Y70.053
G1 F1800 X58.347 Y70.053 E46.82254
G1 X58.347 Y70.453 E46.83040
G1 X104.253 Y70.453 E47.73219
G1 X104.253 Y70.053 E47.74005
G1 X118.947 Y70.053 E48.02870
G1 X118.947 Y84.547 E48.31343
G1 X118.347 Y84.547 E48.32521
G1 X118.347 Y120.453 E49.03056
G1 X118.947 Y120.453 E49.04235
G1 X118.947 Y135.147 E49.33100
G1 X104.253 Y135.147 E49.61965
G1 X104.253 Y134.547 E49.63144
G1 X58.347 Y134.547 E50.53323
G1 X58.347 Y135.147 E50.54501
G1 X43.753 Y135.147 E50.83170
G1 X43.753 Y120.453 E51.12036
G1 X44.253 Y120.453 E51.13018
G1 X44.253 Y84.547 E51.83552
G1 X43.753 Y84.547 E51.84535
G1 X43.753 Y70.053 E52.13007
G0 F8400 X44.068 Y70.368
G1 F1800 X58.032 Y70.368 E52.40438
G1 X58.032 Y70.768 E52.41224
G1 X104.568 Y70.768 E53.32641
G1 X104.568 Y70.368 E53.33426
G1 X118.632 Y70.368 E53.61054
G1 X118.632 Y84.232 E53.88289
G1 X118.032 Y84.232 E53.89468
G1 X118.032 Y120.768 E54.61240
G1 X118.632 Y120.768 E54.62419
G1 X118.632 Y134.832 E54.90046
G1 X104.568 Y134.832 E55.17674
G1 X104.568 Y134.232 E55.18853
G1 X58.032 Y134.232 E56.10269
G1 X58.032 Y134.832 E56.11448
G1 X44.068 Y134.832 E56.38879
G1 X44.068 Y120.768 E56.66507
G1 X44.568 Y120.768 E56.67489
G1 X44.568 Y84.232 E57.39261
G1 X44.068 Y84.232 E57.40243
G1 X44.068 Y70.368 E57.67478
G0 F8400 X44.383 Y70.683
G1 F1800 X57.717 Y70.683 E57.93672
G1 X57.717 Y71.083 E57.94458
G1 X104.883 Y71.083 E58.87112
G1 X104.883 Y70.683 E58.87898
G1 X118.317 Y70.683 E59.14288
G1 X118.317 Y83.917 E59.40285
G1 X117.717 Y83.917 E59.41464
G1 X117.717 Y121.083 E60.14474
G1 X118.317 Y121.083 E60.15652
G1 X118.317 Y134.517 E60.42042
G1 X104.883 Y134.517 E60.68432
G1 X104.883 Y133.917 E60.69611
G1 X57.717 Y133.917 E61.62265
G1 X57.717 Y134.517 E61.63444
G1 X44.383 Y134.517 E61.89638
G1 X44.383 Y121.083 E62.16028
G1 X44.883 Y121.083 E62.17010
G1 X44.883 Y83.917 E62.90020
G1 X44.383 Y83.917 E62.91002
G1 X44.383 Y70.683 E63.16999
G0 F8400 X44.698 Y70.998
G1 F1800 X57.402 Y70.998 E63.41955
G1 X57.402 Y71.398 E63.42741
G1 X105.198 Y71.398 E64.36633
G1 X105.198 Y70.998 E64.37419
G1 X118.002 Y70.998 E64.62571
G1 X118.002 Y83.602 E64.87331
G1 X117.402 Y83.602 E64.88509
G1 X117.402 Y121.398 E65.62757
G1 X118.002 Y121.398 E65.63935
G1 X118.002 Y134.202 E65.89088
G1 X105.198 Y134.202 E66.14241
G1 X105.198 Y133.602 E66.15419
G1 X57.402 Y133.602 E67.09311
G1 X57.402 Y134.202 E67.10490
G1 X44.698 Y134.202 E67.35446
G1 X44.698 Y121.398 E67.60598
G1 X45.198 Y121.398 E67.61580
G1 X45.198 Y83.602 E68.35828
G1 X44.698 Y83.602 E68.36810
G1 X44.698 Y70.998 E68.61570
G0 F8400 X45.013 Y71.313
G1 F1800 X57.087 Y71.313 E68.85288
G1 X57.087 Y71.713 E68.86074
G1 X105.513 Y71.713 E69.81203
G1 X105.513 Y71.313 E69.81989
G1 X117.687 Y71.313 E70.05904
G1 X117.687 Y83.287 E70.29426
G1 X117.087 Y83.287 E70.30605
G1 X117.087 Y121.713 E71.06090
G1 X117.687 Y121.713 E71.07268
G1 X117.687 Y133.887 E71.31183
G1 X105.513 Y133.887 E71.55098
G1 X105.513 Y133.287 E71.56277
G1 X57.087 Y133.287 E72.51406
G1 X57.087 Y133.887 E72.52585
G1 X45.013 Y133.887 E72.76303
G1 X45.013 Y121.713 E73.00218
G1 X45.513 Y121.713 E73.01201
G1 X45.513 Y83.287 E73.76686
G1 X45.013 Y83.287 E73.77668
G1 X45.013 Y71.313 E74.01190
G0 F8400 X45.328 Y71.628
G1 F1800 X56.772 Y71.628 E74.23671
G1 X56.772 Y72.028 E74.24457
G1 X105.828 Y72.028 E75.20823
G1 X105.828 Y71.628 E75.21609
G1 X117.372 Y71.628 E75.44287
G1 X117.372 Y82.972 E75.66571
G1 X116.772 Y82.972 E75.67750
G1 X116.772 Y122.028 E76.44472
G1 X117.372 Y122.028 E76.45651
G1 X117.372 Y133.572 E76.68328
G1 X105.828 Y133.572 E76.91006
G1 X105.828 Y132.972 E76.92184
G1 X56.772 Y132.972 E77.88551
G1 X56.772 Y133.572 E77.89730
G1 X45.328 Y133.572 E78.12211
G1 X45.328 Y122.028 E78.34888
G1 X45.828 Y122.028 E78.35870
G1 X45.828 Y82.972 E79.12593
G1 X45.328 Y82.972 E79.13575
G1 X45.328 Y71.628 E79.35860
G0 F8400 X45.643 Y71.943
G1 F1800 X56.457 Y71.943 E79.57103
G1 X56.457 Y72.343 E79.57889
G1 X106.143 Y72.343 E80.55493
G1 X106.143 Y71.943 E80.56279
G1 X117.057 Y71.943 E80.77719
G1 X117.057 Y82.657 E80.98766
G1 X116.457 Y82.657 E80.99944
G1 X116.457 Y122.343 E81.77905
G1 X117.057 Y122.343 E81.79083
G1 X117.057 Y133.257 E82.00523
G1 X106.143 Y133.257 E82.21963
G1 X106.143 Y132.657 E82.23141
G1 X56.457 Y132.657 E83.20746
G1 X56.457 Y133.257 E83.21925
G1 X45.643 Y133.257 E83.43168
G1 X45.643 Y122.343 E83.64608
G1 X46.143 Y122.343 E83.65590
G1 X46.143 Y82.657 E84.43550
G1 X45.643 Y82.657 E84.44532
G1 X45.643 Y71.943 E84.65579
G1 F6600 E81.65579
G0 F8400 X46.772 Y82.972
;TYPE:WALL-INNER
G1 F6600 E84.65579
G1 F1800 X56.772 Y82.972 E84.85223
G1 X56.772 Y72.972 E85.04868
G1 X105.828 Y72.972 E86.01235
G1 X105.828 Y82.972 E86.20879
G1 X115.828 Y82.972 E86.40523
G1 X115.828 Y122.028 E87.17246
G1 X105.828 Y122.028 E87.36890
G1 X105.828 Y132.028 E87.56534
G1 X56.772 Y132.028 E88.52901
G1 X56.772 Y122.028 E88.72545
G1 X46.772 Y122.028 E88.92190
G1 X46.772 Y82.972 E89.68912
G0 F8400 X62.315 Y94.084
G1 F1800 X61.948 Y95.011 E89.70871
G1 X61.836 Y95.908 E89.72647
G1 X61.824 Y95.998 E89.72825
G1 X61.937 Y96.902 E89.74615
G1 X61.949 Y96.991 E89.74791
G1 X62.282 Y97.831 E89.76566
G1 X62.315 Y97.915 E89.76743
G1 X62.901 Y98.721 E89.78701
G1 X63.669 Y99.357 E89.80660
G1 X64.542 Y99.767 E89.82555
G1 X65.548 Y99.968 E89.84570
G1 X66.544 Y99.905 E89.86530
G1 X67.463 Y99.607 E89.88428
G1 X68.257 Y99.111 E89.90267
G1 X68.334 Y99.062 E89.90447
G1 X68.951 Y98.405 E89.92217
G1 X69.015 Y98.338 E89.92399
G1 X69.448 Y97.550 E89.94165
G1 X69.495 Y97.468 E89.94351
G1 X69.744 Y96.498 E89.96318
G1 X69.744 Y95.563 E89.98155
G1 X69.730 Y95.446 E89.98386
G1 X69.496 Y94.536 E90.00232
G1 X69.057 Y93.736 E90.02025
G1 X69.012 Y93.659 E90.02200
G1 X68.394 Y93.000 E90.03975
G1 X68.332 Y92.935 E90.04151
G1 X67.493 Y92.403 E90.06103
G1 X66.642 Y92.126 E90.07861
G1 X66.551 Y92.094 E90.08050
G1 X65.550 Y92.031 E90.10021
G1 X64.602 Y92.212 E90.11917
G1 X63.670 Y92.641 E90.13932
G1 X62.948 Y93.239 E90.15774
G1 X62.868 Y93.324 E90.16003
G1 X62.315 Y94.084 E90.17849
G0 F8400 X61.782 Y95.997
G0 X62.279 Y97.935
G0 X64.602 Y105.212
G1 F1800 X63.670 Y105.641 E90.19865
G1 X62.948 Y106.239 E90.21707
G1 X62.868 Y106.324 E90.21936
G1 X62.315 Y107.084 E90.23782
G1 X61.948 Y108.011 E90.25741
G1 X61.836 Y108.908 E90.27516
G1 X61.824 Y108.998 E90.27695
G1 X61.937 Y109.902 E90.29485
G1 X61.949 Y109.991 E90.29661
G1 X62.282 Y110.831 E90.31436
G1 X62.315 Y110.915 E90.31613
G1 X62.901 Y111.721 E90.33571
G1 X63.669 Y112.357 E90.35530
G1 X64.542 Y112.767 E90.37424
G1 X65.548 Y112.968 E90.39440
G1 X66.544 Y112.905 E90.41400
G1 X67.463 Y112.607 E90.43298
G1 X68.257 Y112.111 E90.45137
G1 X68.334 Y112.062 E90.45316
G1 X68.951 Y111.405 E90.47087
G1 X69.015 Y111.338 E90.47269
G1 X69.448 Y110.550 E90.49035
G1 X69.495 Y110.468 E90.49221
G1 X69.744 Y109.498 E90.51188
G1 X69.744 Y108.563 E90.53025
G1 X69.730 Y108.446 E90.53256
G1 X69.496 Y107.536 E90.55102
G1 X69.057 Y106.736 E90.56895
G1 X69.012 Y106.659 E90.57070
G1 X68.394 Y106.000 E90.58845
G1 X68.332 Y105.935 E90.59021
G1 X67.493 Y105.403 E90.60973
G1 X66.642 Y105.126 E90.62731
G1 X66.551 Y105.094 E90.62920
G1 X65.550 Y105.031 E90.64890
G1 X64.602 Y105.212 E90.66786
G0 F8400 X64.699 Y105.514
;TYPE:WALL-OUTER
G1 F1800 X63.840 Y105.910 E90.68645
G1 X63.164 Y106.470 E90.70369
G1 X62.593 Y107.237 E90.72247
G1 X62.256 Y108.090 E90.74049
G1 X62.148 Y108.949 E90.75750
G1 X62.142 Y108.999 E90.75849
G1 X62.249 Y109.861 E90.77555
G1 X62.256 Y109.910 E90.77652
G1 X62.593 Y110.762 E90.79452
G1 X63.133 Y111.503 E90.81253
G1 X63.839 Y112.089 E90.83056
G1 X64.642 Y112.465 E90.84797
G1 X65.569 Y112.651 E90.86655
G1 X66.485 Y112.593 E90.88458
G1 X67.329 Y112.319 E90.90201
G1 X68.089 Y111.845 E90.91960
G1 X68.131 Y111.818 E90.92059
G1 X68.724 Y111.187 E90.93760
G1 X68.759 Y111.151 E90.93858
G1 X69.177 Y110.390 E90.95564
G1 X69.201 Y110.348 E90.95659
G1 X69.429 Y109.458 E90.97464
G1 X69.429 Y108.582 E90.99184
G1 X69.420 Y108.504 E90.99339
G1 X69.201 Y107.653 E91.01065
G1 X68.783 Y106.891 E91.02772
G1 X68.758 Y106.848 E91.02870
G1 X68.165 Y106.217 E91.04571
G1 X68.130 Y106.181 E91.04670
G1 X67.357 Y105.690 E91.06469
G1 X66.536 Y105.424 E91.08164
G1 X66.487 Y105.406 E91.08266
G1 X65.570 Y105.348 E91.10071
G1 X64.699 Y105.514 E91.11813
G0 F8400 X64.651 Y105.261
G0 X65.519 Y99.903
G0 X65.569 Y99.651
G1 F1800 X66.485 Y99.593 E91.13616
G1 X67.329 Y99.319 E91.15359
G1 X68.089 Y98.845 E91.17119
G1 X68.131 Y98.818 E91.17217
G1 X68.724 Y98.187 E91.18918
G1 X68.759 Y98.151 E91.19017
G1 X69.177 Y97.390 E91.20722
G1 X69.201 Y97.348 E91.20817
G1 X69.429 Y96.458 E91.22622
G1 X69.429 Y95.582 E91.24343
G1 X69.420 Y95.504 E91.24497
G1 X69.201 Y94.653 E91.26223
G1 X68.783 Y93.891 E91.27931
G1 X68.758 Y93.848 E91.28028
G1 X68.165 Y93.217 E91.29729
G1 X68.130 Y93.181 E91.29828
G1 X67.357 Y92.690 E91.31627
G1 X66.536 Y92.424 E91.33322
G1 X66.487 Y92.406 E91.33425
G1 X65.570 Y92.348 E91.35230
G1 X64.699 Y92.514 E91.36972
G1 X63.840 Y92.910 E91.38830
G1 X63.164 Y93.470 E91.40554
G1 X62.593 Y94.237 E91.42433
G1 X62.256 Y95.090 E91.44234
G1 X62.148 Y95.949 E91.45935
G1 X62.142 Y95.999 E91.46034
G1 X62.249 Y96.861 E91.47740
G1 X62.256 Y96.910 E91.47838
G1 X62.593 Y97.762 E91.49637
G1 X63.133 Y98.503 E91.51439
G1 X63.839 Y99.089 E91.53241
G1 X64.642 Y99.465 E91.54983
G1 X65.569 Y99.651 E91.56840
G0 F8400 X65.519 Y99.903
G0 X63.647 Y99.391
G0 X62.279 Y97.935
G0 X61.841 Y96.063
G0 X56.457 Y82.915
G0 X56.457 Y82.657
G1 F1800 X56.457 Y72.657 E91.76484
G1 X106.143 Y72.657 E92.74089
G1 X106.143 Y82.657 E92.93733
G1 X116.143 Y82.657 E93.13377
G1 X116.143 Y122.343 E93.91338
G1 X106.143 Y122.343 E94.10982
G1 X106.143 Y132.343 E94.30626
G1 X56.457 Y132.343 E95.28231
G1 X56.457 Y122.343 E95.47875
G1 X46.457 Y122.343 E95.67519
G1 X46.457 Y82.657 E96.45479
G1 X56.457 Y82.657 E96.65124
G0 F8400 X56.944 Y82.559
;TYPE:SKIN
G1 F1800 X66.288 Y91.904 E96.91084
G0 F8400 X65.813 Y91.874
G1 F1800 X56.944 Y83.005 E97.15723
G0 F8400 X56.637 Y83.143
G1 F1800 X65.380 Y91.887 E97.40013
G0 F8400 X65.006 Y91.958
G1 F1800 X56.191 Y83.143 E97.64503
G0 F8400 X55.746 Y83.143
G1 F1800 X64.633 Y92.030 E97.89192
G0 F8400 X64.312 Y92.155
G1 F1800 X55.300 Y83.143 E98.14228
G0 F8400 X54.855 Y83.143
G1 F1800 X64.007 Y92.295 E98.39653
G0 F8400 X63.701 Y92.435
G1 F1800 X54.409 Y83.143 E98.65468
G0 F8400 X53.964 Y83.143
G1 F1800 X63.433 Y92.612 E98.91774
G0 F8400 X63.189 Y92.814
G1 F1800 X53.518 Y83.143 E99.18641
G0 F8400 X53.073 Y83.143
G1 F1800 X62.945 Y93.016 E99.46068
G0 F8400 X62.719 Y93.235
G1 F1800 X52.627 Y83.143 E99.74105
G0 F8400 X52.182 Y83.143
G1 F1800 X62.532 Y93.493 E100.02858
G0 F8400 X62.344 Y93.751
