;Generated with Cura_SteamEngine 15.01
G28 ; Home extruder
G1 Z5 F300
G1 Z0 F300
M106 S165 ; Turn on fan
G90 ; Absolute positioning
M82 ; Extruder in absolute mode
; Activate all used extruder
M104 T0 S200
G92 E0 ; Reset extruder position
; Wait for all used extruders to reach temperature
M109 T0 S200
T0
M83
G1 E10 F100
M82
G92 E0 ; Reset extruder position
M117 Vertex is printing
G1 F300 Z5
;Layer count: 25
;LAYER:0
M106 S255
G0 F8400 X41.733 Y67.933 Z0.200
;TYPE:SKIRT
G1 F1800 X120.867 Y67.933 E1.55453
G1 X120.867 Y137.067 E2.91262
G1 X41.733 Y137.067 E4.46715
G1 X41.733 Y67.933 E5.82523
G0 F8400 X42.048 Y68.248
G1 F1800 X120.552 Y68.248 E7.36739
G1 X120.552 Y136.752 E8.71310
G1 X42.048 Y136.752 E10.25525
G1 X42.048 Y68.248 E11.60096
G0 F8400 X42.363 Y68.563
G1 F1800 X120.237 Y68.563 E13.13074
G1 X120.237 Y136.437 E14.46407
G1 X42.363 Y136.437 E15.99385
G1 X42.363 Y68.563 E17.32719
G0 F8400 X42.678 Y68.878
G1 F1800 X119.922 Y68.878 E18.84459
G1 X119.922 Y136.122 E20.16555
G1 X42.678 Y136.122 E21.68295
G1 X42.678 Y68.878 E23.00391
G0 F8400 X42.993 Y69.193
G1 F1800 X119.607 Y69.193 E24.50893
G1 X119.607 Y135.807 E25.81752
G1 X42.993 Y135.807 E27.32254
G1 X42.993 Y69.193 E28.63113
G0 F8400 X43.308 Y69.508
G1 F1800 X119.292 Y69.508 E30.12378
G1 X119.292 Y135.492 E31.41998
G1 X43.308 Y135.492 E32.91263
G1 X43.308 Y69.508 E34.20884
G0 F8400 X43.623 Y69.823
G1 F1800 X118.977 Y69.823 E35.68912
G1 X118.977 Y135.177 E36.97295
G1 X43.623 Y135.177 E38.45322
G1 X43.623 Y69.823 E39.73705
G0 F8400 X43.938 Y70.138
G1 F1800 X118.662 Y70.138 E41.20495
G1 X118.662 Y134.862 E42.47641
G1 X43.938 Y134.862 E43.94430
G1 X43.938 Y70.138 E45.21576
G0 F8400 X44.253 Y70.453
G1 F1800 X118.347 Y70.453 E46.67128
G1 X118.347 Y134.547 E47.93036
G1 X44.253 Y134.547 E49.38588
G1 X44.253 Y70.453 E50.64496
G0 F8400 X44.568 Y70.768
G1 F1800 X118.032 Y70.768 E52.08811
G1 X118.032 Y134.232 E53.33481
G1 X44.568 Y134.232 E54.77796
G1 X44.568 Y70.768 E56.02466
G0 F8400 X44.883 Y71.083
G1 F1800 X117.717 Y71.083 E57.45544
G1 X117.717 Y133.917 E58.68976
G1 X44.883 Y133.917 E60.12053
G1 X44.883 Y71.083 E61.35486
G0 F8400 X45.198 Y71.398
G1 F1800 X117.402 Y71.398 E62.77326
G1 X117.402 Y133.602 E63.99521
G1 X45.198 Y133.602 E65.41360
G1 X45.198 Y71.398 E66.63555
G0 F8400 X45.513 Y71.713
G1 F1800 X117.087 Y71.713 E68.04157
G1 X117.087 Y133.287 E69.25115
G1 X45.513 Y133.287 E70.65717
G1 X45.513 Y71.713 E71.86674
G0 F8400 X45.828 Y72.028
G1 F1800 X116.772 Y72.028 E73.26039
G1 X116.772 Y132.972 E74.45759
G1 X45.828 Y132.972 E75.85123
G1 X45.828 Y72.028 E77.04843
G0 F8400 X46.143 Y72.343
G1 F1800 X116.457 Y72.343 E78.42970
G1 X116.457 Y132.657 E79.61452
G1 X46.143 Y132.657 E80.99579
G1 X46.143 Y72.343 E82.18061
G0 F8400 X46.772 Y72.972
;TYPE:WALL-INNER
G1 F1800 X115.828 Y72.972 E83.53717
G1 X115.828 Y132.028 E84.69728
G1 X46.772 Y132.028 E86.05383
G1 X46.772 Y72.972 E87.21395
G0 F8400 X50.224 Y76.489
G1 F1800 X50.006 Y76.789 E87.22123
G1 X49.870 Y77.133 E87.22850
G1 X49.824 Y77.500 E87.23576
G1 X49.870 Y77.866 E87.24301
G1 X50.006 Y78.210 E87.25028
G1 X50.224 Y78.510 E87.25756
G1 X50.508 Y78.745 E87.26480
G1 X50.844 Y78.904 E87.27210
G1 X51.222 Y78.973 E87.27965
G1 X51.580 Y78.949 E87.28670
G1 X51.940 Y78.827 E87.29417
G1 X52.240 Y78.637 E87.30114
G1 X52.494 Y78.366 E87.30844
G1 X52.671 Y78.043 E87.31568
G1 X52.764 Y77.685 E87.32294
G1 X52.764 Y77.314 E87.33023
G1 X52.671 Y76.956 E87.33750
G1 X52.494 Y76.633 E87.34473
G1 X52.240 Y76.362 E87.35203
G1 X51.928 Y76.165 E87.35928
G1 X51.577 Y76.050 E87.36653
G1 X51.207 Y76.026 E87.37382
G1 X50.843 Y76.096 E87.38110
G1 X50.508 Y76.254 E87.38837
G1 X50.224 Y76.489 E87.39561
G0 F8400 X49.783 Y77.500
G0 X50.486 Y78.780
G0 X54.189 Y88.121
G1 F1800 X53.741 Y88.331 E87.40533
G1 X53.359 Y88.647 E87.41507
G1 X53.068 Y89.048 E87.42481
G1 X52.886 Y89.508 E87.43452
G1 X52.824 Y90.000 E87.44427
G1 X52.887 Y90.494 E87.45405
G1 X53.081 Y90.968 E87.46411
G1 X53.361 Y91.354 E87.47348
G1 X53.761 Y91.677 E87.48358
G1 X54.189 Y91.878 E87.49287
G1 X54.675 Y91.972 E87.50259
G1 X55.170 Y91.940 E87.51233
G1 X55.641 Y91.787 E87.52206
G1 X56.059 Y91.521 E87.53180
G1 X56.398 Y91.161 E87.54151
G1 X56.636 Y90.727 E87.55123
G1 X56.760 Y90.248 E87.56095
G1 X56.760 Y89.751 E87.57072
G1 X56.636 Y89.272 E87.58044
G1 X56.398 Y88.838 E87.59016
G1 X56.057 Y88.475 E87.59994
G1 X55.621 Y88.206 E87.61001
G1 X55.171 Y88.059 E87.61931
G1 X54.675 Y88.027 E87.62907
G1 X54.189 Y88.121 E87.63879
G0 F8400 X53.032 Y89.028
G0 X52.847 Y90.504
G0 X53.739 Y91.712
G0 X54.675 Y113.027
G1 F1800 X54.189 Y113.121 E87.64852
G1 X53.741 Y113.331 E87.65824
G1 X53.359 Y113.647 E87.66798
G1 X53.068 Y114.048 E87.67771
G1 X52.886 Y114.508 E87.68743
G1 X52.824 Y115.000 E87.69717
G1 X52.887 Y115.494 E87.70695
G1 X53.081 Y115.968 E87.71701
G1 X53.361 Y116.354 E87.72638
G1 X53.761 Y116.677 E87.73648
G1 X54.189 Y116.878 E87.74577
G1 X54.675 Y116.972 E87.75549
G1 X55.170 Y116.940 E87.76524
G1 X55.641 Y116.787 E87.77497
G1 X56.059 Y116.521 E87.78470
G1 X56.398 Y116.161 E87.79441
G1 X56.636 Y115.727 E87.80414
G1 X56.760 Y115.248 E87.81386
G1 X56.760 Y114.751 E87.82362
G1 X56.636 Y114.272 E87.83334
G1 X56.398 Y113.838 E87.84306
G1 X56.057 Y113.475 E87.85285
G1 X55.621 Y113.206 E87.86291
G1 X55.171 Y113.059 E87.87221
G1 X54.675 Y113.027 E87.88197
G0 F8400 X53.330 Y113.619
G0 X52.783 Y115.000
G0 X53.331 Y116.382
G0 X51.577 Y126.050
G1 F1800 X51.207 Y126.026 E87.88926
G1 X50.843 Y126.096 E87.89654
G1 X50.508 Y126.254 E87.90381
G1 X50.224 Y126.489 E87.91106
G1 X50.006 Y126.789 E87.91834
G1 X49.870 Y127.133 E87.92561
G1 X49.824 Y127.500 E87.93287
G1 X49.870 Y127.866 E87.94012
G1 X50.006 Y128.210 E87.94739
G1 X50.224 Y128.510 E87.95467
G1 X50.508 Y128.745 E87.96191
G1 X50.844 Y128.904 E87.96921
G1 X51.222 Y128.973 E87.97676
G1 X51.580 Y128.949 E87.98381
G1 X51.940 Y128.827 E87.99128
G1 X52.240 Y128.637 E87.99825
G1 X52.494 Y128.366 E88.00555
G1 X52.671 Y128.043 E88.01278
G1 X52.764 Y127.685 E88.02005
G1 X52.764 Y127.314 E88.02734
G1 X52.671 Y126.956 E88.03461
G1 X52.494 Y126.633 E88.04184
G1 X52.240 Y126.362 E88.04914
G1 X51.928 Y126.165 E88.05639
G1 X51.577 Y126.050 E88.06364
G0 F8400 X105.387 Y115.494
G1 F1800 X105.581 Y115.968 E88.07370
G1 X105.861 Y116.354 E88.08307
G1 X106.261 Y116.677 E88.09317
G1 X106.689 Y116.878 E88.10246
G1 X107.175 Y116.972 E88.11218
G1 X107.670 Y116.940 E88.12193
G1 X108.141 Y116.787 E88.13165
G1 X108.559 Y116.521 E88.14139
G1 X108.898 Y116.161 E88.15110
G1 X109.136 Y115.727 E88.16083
G1 X109.260 Y115.248 E88.17054
G1 X109.260 Y114.751 E88.18031
G1 X109.136 Y114.272 E88.19003
G1 X108.898 Y113.838 E88.19975
G1 X108.557 Y113.475 E88.20954
G1 X108.121 Y113.206 E88.21960
G1 X107.671 Y113.059 E88.22890
G1 X107.175 Y113.027 E88.23866
G1 X106.689 Y113.121 E88.24839
G1 X106.241 Y113.331 E88.25811
G1 X105.859 Y113.647 E88.26784
G1 X105.568 Y114.048 E88.27758
G1 X105.386 Y114.508 E88.28730
G1 X105.324 Y115.000 E88.29704
G1 X105.387 Y115.494 E88.30682
G0 F8400 X110.508 Y126.254
G1 F1800 X110.224 Y126.489 E88.31406
G1 X110.006 Y126.789 E88.32135
G1 X109.870 Y127.133 E88.32861
G1 X109.824 Y127.500 E88.33588
G1 X109.870 Y127.866 E88.34312
G1 X110.006 Y128.210 E88.35039
G1 X110.224 Y128.510 E88.35768
G1 X110.508 Y128.745 E88.36492
G1 X110.844 Y128.904 E88.37222
G1 X111.222 Y128.973 E88.37977
G1 X111.580 Y128.949 E88.38682
G1 X111.940 Y128.827 E88.39428
G1 X112.240 Y128.637 E88.40126
G1 X112.494 Y128.366 E88.40856
G1 X112.671 Y128.043 E88.41579
G1 X112.764 Y127.685 E88.42306
G1 X112.764 Y127.314 E88.43035
G1 X112.671 Y126.956 E88.43761
G1 X112.494 Y126.633 E88.44485
G1 X112.240 Y126.362 E88.45214
G1 X111.928 Y126.165 E88.45939
G1 X111.577 Y126.050 E88.46665
G1 X111.207 Y126.026 E88.47393
G1 X110.843 Y126.096 E88.48121
G1 X110.508 Y126.254 E88.48849
G0 F8400 X107.670 Y91.940
G1 F1800 X108.141 Y91.787 E88.49822
G1 X108.559 Y91.521 E88.50795
G1 X108.898 Y91.161 E88.51766
G1 X109.136 Y90.727 E88.52739
G1 X109.260 Y90.248 E88.53711
G1 X109.260 Y89.751 E88.54687
G1 X109.136 Y89.272 E88.55659
G1 X108.898 Y88.838 E88.56631
G1 X108.557 Y88.475 E88.57610
G1 X108.121 Y88.206 E88.58616
G1 X107.671 Y88.059 E88.59546
G1 X107.175 Y88.027 E88.60522
G1 X106.689 Y88.121 E88.61495
G1 X106.241 Y88.331 E88.62467
G1 X105.859 Y88.647 E88.63441
G1 X105.568 Y89.048 E88.64414
G1 X105.386 Y89.508 E88.65386
G1 X105.324 Y90.000 E88.66360
G1 X105.387 Y90.494 E88.67338
G1 X105.581 Y90.968 E88.68344
G1 X105.861 Y91.354 E88.69281
G1 X106.261 Y91.677 E88.70291
G1 X106.689 Y91.878 E88.71220
G1 X107.175 Y91.972 E88.72192
G1 X107.670 Y91.940 E88.73167
G0 F8400 X108.931 Y91.185
G0 X109.301 Y89.746
G0 X110.844 Y78.904
G1 F1800 X111.222 Y78.973 E88.73922
G1 X111.580 Y78.949 E88.74626
G1 X111.940 Y78.827 E88.75373
G1 X112.240 Y78.637 E88.76071
G1 X112.494 Y78.366 E88.76800
G1 X112.671 Y78.043 E88.77524
G1 X112.764 Y77.685 E88.78250
G1 X112.764 Y77.314 E88.78979
G1 X112.671 Y76.956 E88.79706
G1 X112.494 Y76.633 E88.80429
G1 X112.240 Y76.362 E88.81159
G1 X111.928 Y76.165 E88.81884
G1 X111.577 Y76.050 E88.82609
G1 X111.207 Y76.026 E88.83338
G1 X110.843 Y76.096 E88.84066
G1 X110.508 Y76.254 E88.84794
G1 X110.224 Y76.489 E88.85518
G1 X110.006 Y76.789 E88.86246
G1 X109.870 Y77.133 E88.86973
G1 X109.824 Y77.500 E88.87699
G1 X109.870 Y77.866 E88.88424
G1 X110.006 Y78.210 E88.89151
G1 X110.224 Y78.510 E88.89879
G1 X110.508 Y78.745 E88.90603
G1 X110.844 Y78.904 E88.91334
G0 F8400 X110.942 Y78.602
;TYPE:WALL-OUTER
G1 F1800 X111.240 Y78.656 E88.91929
G1 X111.518 Y78.637 E88.92476
G1 X111.803 Y78.541 E88.93067
G1 X112.038 Y78.392 E88.93613
G1 X112.237 Y78.180 E88.94184
G1 X112.376 Y77.926 E88.94753
G1 X112.449 Y77.645 E88.95324
G1 X112.449 Y77.354 E88.95895
G1 X112.376 Y77.073 E88.96466
G1 X112.237 Y76.819 E88.97034
G1 X112.038 Y76.607 E88.97606
G1 X111.792 Y76.452 E88.98177
G1 X111.517 Y76.362 E88.98745
G1 X111.227 Y76.343 E88.99316
G1 X110.941 Y76.398 E88.99888
G1 X110.679 Y76.522 E89.00458
G1 X110.456 Y76.707 E89.01027
G1 X110.284 Y76.942 E89.01599
G1 X110.178 Y77.212 E89.02169
G1 X110.142 Y77.500 E89.02739
G1 X110.178 Y77.787 E89.03307
G1 X110.284 Y78.057 E89.03877
G1 X110.456 Y78.292 E89.04449
G1 X110.679 Y78.477 E89.05018
G1 X110.942 Y78.602 E89.05590
G0 F8400 X110.896 Y78.855
G0 X111.958 Y78.864
G0 X112.805 Y77.690
G0 X115.885 Y72.825
G0 X116.143 Y72.657
G1 F1800 X116.143 Y132.343 E90.22839
G1 X46.457 Y132.343 E91.59732
G1 X46.457 Y72.657 E92.76981
G1 X116.143 Y72.657 E94.13874
G0 F8400 X115.885 Y72.825
G0 X108.069 Y88.249
G0 X107.988 Y88.494
G1 F1800 X107.611 Y88.371 E94.14653
G1 X107.195 Y88.344 E94.15472
G1 X106.787 Y88.423 E94.16288
G1 X106.411 Y88.599 E94.17104
G1 X106.091 Y88.865 E94.17921
G1 X105.846 Y89.201 E94.18738
G1 X105.694 Y89.587 E94.19553
G1 X105.642 Y90.000 E94.20371
G1 X105.694 Y90.413 E94.21188
G1 X105.858 Y90.814 E94.22039
G1 X106.091 Y91.135 E94.22819
G1 X106.429 Y91.408 E94.23672
G1 X106.787 Y91.576 E94.24449
G1 X107.195 Y91.655 E94.25265
G1 X107.611 Y91.628 E94.26084
G1 X108.005 Y91.500 E94.26898
G1 X108.357 Y91.277 E94.27717
G1 X108.641 Y90.974 E94.28532
G1 X108.841 Y90.610 E94.29348
G1 X108.945 Y90.208 E94.30164
G1 X108.945 Y89.791 E94.30983
G1 X108.841 Y89.389 E94.31799
G1 X108.641 Y89.025 E94.32615
G1 X108.356 Y88.721 E94.33433
G1 X107.988 Y88.494 E94.34283
G0 F8400 X108.069 Y88.249
G0 X108.931 Y88.814
G0 X109.301 Y90.253
G0 X108.586 Y91.554
G0 X107.210 Y113.087
G0 X107.195 Y113.344
G1 F1800 X106.787 Y113.423 E94.35099
G1 X106.411 Y113.599 E94.35915
G1 X106.091 Y113.865 E94.36732
G1 X105.846 Y114.201 E94.37549
G1 X105.694 Y114.587 E94.38364
G1 X105.642 Y115.000 E94.39182
G1 X105.694 Y115.413 E94.39999
G1 X105.858 Y115.814 E94.40850
G1 X106.091 Y116.135 E94.41630
G1 X106.429 Y116.408 E94.42483
G1 X106.787 Y116.576 E94.43260
G1 X107.195 Y116.655 E94.44076
G1 X107.611 Y116.628 E94.44895
G1 X108.005 Y116.500 E94.45709
G1 X108.357 Y116.277 E94.46528
G1 X108.641 Y115.974 E94.47343
G1 X108.841 Y115.610 E94.48159
G1 X108.945 Y115.208 E94.48975
G1 X108.945 Y114.791 E94.49794
G1 X108.841 Y114.389 E94.50610
G1 X108.641 Y114.025 E94.51426
G1 X108.356 Y113.721 E94.52244
G1 X107.988 Y113.494 E94.53094
G1 X107.611 Y113.371 E94.53873
G1 X107.195 Y113.344 E94.54692
G0 F8400 X107.210 Y113.087
G0 X108.583 Y113.444
G0 X109.301 Y114.746
G0 X108.931 Y116.185
G0 X110.832 Y126.164
G0 X110.941 Y126.398
G1 F1800 X110.679 Y126.522 E94.55261
G1 X110.456 Y126.707 E94.55830
G1 X110.284 Y126.942 E94.56402
G1 X110.178 Y127.212 E94.56972
G1 X110.142 Y127.500 E94.57542
G1 X110.178 Y127.787 E94.58110
G1 X110.284 Y128.057 E94.58680
G1 X110.456 Y128.292 E94.59252
G1 X110.679 Y128.477 E94.59821
G1 X110.942 Y128.602 E94.60393
G1 X111.240 Y128.656 E94.60988
G1 X111.518 Y128.637 E94.61536
G1 X111.803 Y128.541 E94.62127
G1 X112.038 Y128.392 E94.62673
G1 X112.237 Y128.180 E94.63244
G1 X112.376 Y127.926 E94.63813
G1 X112.449 Y127.645 E94.64384
G1 X112.449 Y127.354 E94.64955
G1 X112.376 Y127.073 E94.65525
G1 X112.237 Y126.819 E94.66094
G1 X112.038 Y126.607 E94.66665
G1 X111.792 Y126.452 E94.67237
G1 X111.517 Y126.362 E94.67805
G1 X111.227 Y126.343 E94.68376
G1 X110.941 Y126.398 E94.68948
G0 F8400 X110.832 Y126.164
G0 X56.693 Y115.273
G0 X56.445 Y115.208
G1 F1800 X56.445 Y114.791 E94.69767
G1 X56.341 Y114.389 E94.70583
G1 X56.141 Y114.025 E94.71399
G1 X55.856 Y113.721 E94.72217
G1 X55.488 Y113.494 E94.73067
G1 X55.111 Y113.371 E94.73846
G1 X54.695 Y113.344 E94.74665
G1 X54.287 Y113.423 E94.75481
G1 X53.911 Y113.599 E94.76297
G1 X53.591 Y113.865 E94.77114
G1 X53.346 Y114.201 E94.77931
G1 X53.194 Y114.587 E94.78746
G1 X53.142 Y115.000 E94.79564
G1 X53.194 Y115.413 E94.80381
G1 X53.358 Y115.814 E94.81232
G1 X53.591 Y116.135 E94.82012
G1 X53.929 Y116.408 E94.82865
G1 X54.287 Y116.576 E94.83642
G1 X54.695 Y116.655 E94.84458
G1 X55.111 Y116.628 E94.85277
G1 X55.505 Y116.500 E94.86091
G1 X55.857 Y116.277 E94.86910
G1 X56.141 Y115.974 E94.87725
G1 X56.341 Y115.610 E94.88541
G1 X56.445 Y115.208 E94.89357
G0 F8400 X56.693 Y115.273
G0 X51.873 Y126.208
G0 X51.792 Y126.452
G1 F1800 X51.517 Y126.362 E94.89925
G1 X51.227 Y126.343 E94.90496
G1 X50.941 Y126.398 E94.91068
G1 X50.679 Y126.522 E94.91638
G1 X50.456 Y126.707 E94.92207
G1 X50.284 Y126.942 E94.92779
G1 X50.178 Y127.212 E94.93349
G1 X50.142 Y127.500 E94.93919
G1 X50.178 Y127.787 E94.94487
G1 X50.284 Y128.057 E94.95057
G1 X50.456 Y128.292 E94.95629
G1 X50.679 Y128.477 E94.96198
G1 X50.942 Y128.602 E94.96770
G1 X51.240 Y128.656 E94.97365
G1 X51.518 Y128.637 E94.97913
G1 X51.803 Y128.541 E94.98503
G1 X52.038 Y128.392 E94.99050
G1 X52.237 Y128.180 E94.99621
G1 X52.376 Y127.926 E95.00190
G1 X52.449 Y127.645 E95.00760
G1 X52.449 Y127.354 E95.01332
G1 X52.376 Y127.073 E95.01902
G1 X52.237 Y126.819 E95.02471
G1 X52.038 Y126.607 E95.03042
G1 X51.792 Y126.452 E95.03613
G0 F8400 X51.873 Y126.208
G0 X54.647 Y91.908
G0 X54.695 Y91.655
G1 F1800 X55.111 Y91.628 E95.04432
G1 X55.505 Y91.500 E95.05246
G1 X55.857 Y91.277 E95.06065
G1 X56.141 Y90.974 E95.06881
G1 X56.341 Y90.610 E95.07696
G1 X56.445 Y90.208 E95.08512
G1 X56.445 Y89.791 E95.09331
G1 X56.341 Y89.389 E95.10147
G1 X56.141 Y89.025 E95.10963
G1 X55.856 Y88.721 E95.11781
G1 X55.488 Y88.494 E95.12631
G1 X55.111 Y88.371 E95.13410
G1 X54.695 Y88.344 E95.14229
G1 X54.287 Y88.423 E95.15045
G1 X53.911 Y88.599 E95.15861
G1 X53.591 Y88.865 E95.16678
G1 X53.346 Y89.201 E95.17495
G1 X53.194 Y89.587 E95.18310
G1 X53.142 Y90.000 E95.19128
G1 X53.194 Y90.413 E95.19945
G1 X53.358 Y90.814 E95.20796
G1 X53.591 Y91.135 E95.21576
G1 X53.929 Y91.408 E95.22429
G1 X54.287 Y91.576 E95.23206
G1 X54.695 Y91.655 E95.24022
G0 F8400 X54.647 Y91.908
G0 X53.331 Y91.382
G0 X52.783 Y90.000
G0 X53.330 Y88.619
G0 X51.600 Y78.882
G0 X51.518 Y78.637
G1 F1800 X51.803 Y78.541 E95.24613
G1 X52.038 Y78.392 E95.25160
G1 X52.237 Y78.180 E95.25731
G1 X52.376 Y77.926 E95.26300
G1 X52.449 Y77.645 E95.26870
G1 X52.449 Y77.354 E95.27442
G1 X52.376 Y77.073 E95.28012
G1 X52.237 Y76.819 E95.28581
G1 X52.038 Y76.607 E95.29152
G1 X51.792 Y76.452 E95.29723
G1 X51.517 Y76.362 E95.30292
G1 X51.227 Y76.343 E95.30863
G1 X50.941 Y76.398 E95.31435
G1 X50.679 Y76.522 E95.32004
