;Generated with Cura_SteamEngine 15.01
G28 ; Home extruder
G1 Z5 F300
G1 Z0 F300
M106 S165 ; Turn on fan
G90 ; Absolute positioning
M82 ; Extruder in absolute mode
; Activate all used extruder
M104 T0 S200
G92 E0 ; Reset extruder position
; Wait for all used extruders to reach temperature
M109 T0 S200
T0
M83
G1 E10 F100
M82
G92 E0 ; Reset extruder position
M117 Vertex is printing
G1 F300 Z5
;Layer count: 25
;LAYER:0
M106 S255
G0 F8400 X49.233 Y80.433 Z0.200
;TYPE:SKIRT
G1 F1800 X113.367 Y80.433 E1.25987
G1 X113.367 Y124.567 E2.12685
G1 X49.233 Y124.567 E3.38671
G1 X49.233 Y80.433 E4.25369
G0 F8400 X49.548 Y80.748
G1 F1800 X113.052 Y80.748 E5.50118
G1 X113.052 Y124.252 E6.35578
G1 X49.548 Y124.252 E7.60327
G1 X49.548 Y80.748 E8.45788
G0 F8400 X49.863 Y81.063
G1 F1800 X112.737 Y81.063 E9.69299
G1 X112.737 Y123.937 E10.53522
G1 X49.863 Y123.937 E11.77033
G1 X49.863 Y81.063 E12.61256
G0 F8400 X50.178 Y81.378
G1 F1800 X112.422 Y81.378 E13.83530
G1 X112.422 Y123.622 E14.66515
G1 X50.178 Y123.622 E15.88789
G1 X50.178 Y81.378 E16.71774
G0 F8400 X50.493 Y81.693
G1 F1800 X112.107 Y81.693 E17.92810
G1 X112.107 Y123.307 E18.74558
G1 X50.493 Y123.307 E19.95594
G1 X50.493 Y81.693 E20.77342
G0 F8400 X50.808 Y82.008
G1 F1800 X111.792 Y82.008 E21.97141
G1 X111.792 Y122.992 E22.77651
G1 X50.808 Y122.992 E23.97449
G1 X50.808 Y82.008 E24.77959
G0 F8400 X51.123 Y82.323
G1 F1800 X111.477 Y82.323 E25.96520
G1 X111.477 Y122.677 E26.75793
G1 X51.123 Y122.677 E27.94354
G1 X51.123 Y82.323 E28.73626
G0 F8400 X51.438 Y82.638
G1 F1800 X111.162 Y82.638 E29.90950
G1 X111.162 Y122.362 E30.68985
G1 X51.438 Y122.362 E31.86308
G1 X51.438 Y82.638 E32.64343
G0 F8400 X51.753 Y82.953
G1 F1800 X110.847 Y82.953 E33.80429
G1 X110.847 Y122.047 E34.57226
G1 X51.753 Y122.047 E35.73312
G1 X51.753 Y82.953 E36.50109
G0 F8400 X52.068 Y83.268
G1 F1800 X110.532 Y83.268 E37.64957
G1 X110.532 Y121.732 E38.40517
G1 X52.068 Y121.732 E39.55365
G1 X52.068 Y83.268 E40.30925
G0 F8400 X52.383 Y83.583
G1 F1800 X110.217 Y83.583 E41.44536
G1 X110.217 Y121.417 E42.18858
G1 X52.383 Y121.417 E43.32468
G1 X52.383 Y83.583 E44.06791
G0 F8400 X52.698 Y83.898
G1 F1800 X109.902 Y83.898 E45.19164
G1 X109.902 Y121.102 E45.92248
G1 X52.698 Y121.102 E47.04621
G1 X52.698 Y83.898 E47.77706
G0 F8400 X53.013 Y84.213
G1 F1800 X109.587 Y84.213 E48.88841
G1 X109.587 Y120.787 E49.60688
G1 X53.013 Y120.787 E50.71824
G1 X53.013 Y84.213 E51.43671
G0 F8400 X53.328 Y84.528
G1 F1800 X109.272 Y84.528 E52.53569
G1 X109.272 Y120.472 E53.24178
G1 X53.328 Y120.472 E54.34076
G1 X53.328 Y84.528 E55.04685
G0 F8400 X53.643 Y84.843
G1 F1800 X108.957 Y84.843 E56.13345
G1 X108.957 Y120.157 E56.82717
G1 X53.643 Y120.157 E57.91378
G1 X53.643 Y84.843 E58.60749
G0 F8400 X54.272 Y85.472
;TYPE:WALL-INNER
G1 F1800 X108.328 Y85.472 E59.66938
G1 X108.328 Y119.528 E60.33839
G1 X54.272 Y119.528 E61.40028
G1 X54.272 Y85.472 E62.06928
G0 F8400 X55.355 Y86.366
G1 F1800 X55.105 Y86.633 E62.07647
G1 X54.928 Y86.956 E62.08370
G1 X54.835 Y87.314 E62.09097
G1 X54.835 Y87.685 E62.09826
G1 X54.928 Y88.043 E62.10552
G1 X55.106 Y88.368 E62.11280
G1 X55.364 Y88.639 E62.12015
G1 X55.671 Y88.834 E62.12730
G1 X56.022 Y88.949 E62.13455
G1 X56.393 Y88.973 E62.14186
G1 X56.761 Y88.901 E62.14922
G1 X57.091 Y88.745 E62.15639
G1 X57.375 Y88.510 E62.16364
G1 X57.593 Y88.210 E62.17092
G1 X57.729 Y87.867 E62.17817
G1 X57.776 Y87.500 E62.18544
G1 X57.727 Y87.127 E62.19283
G1 X57.592 Y86.788 E62.20000
G1 X57.371 Y86.486 E62.20735
G1 X57.090 Y86.254 E62.21451
G1 X56.756 Y86.096 E62.22176
G1 X56.391 Y86.026 E62.22906
G1 X56.017 Y86.051 E62.23643
G1 X55.670 Y86.165 E62.24360
G1 X55.355 Y86.366 E62.25094
G0 F8400 X54.794 Y87.309
G0 X55.072 Y88.391
G0 X56.391 Y116.026
G1 F1800 X56.017 Y116.051 E62.25831
G1 X55.670 Y116.165 E62.26548
G1 X55.355 Y116.366 E62.27282
G1 X55.105 Y116.633 E62.28001
G1 X54.928 Y116.956 E62.28724
G1 X54.835 Y117.314 E62.29451
G1 X54.835 Y117.685 E62.30180
G1 X54.928 Y118.043 E62.30906
G1 X55.106 Y118.368 E62.31634
G1 X55.364 Y118.639 E62.32369
G1 X55.671 Y118.834 E62.33084
G1 X56.022 Y118.949 E62.33809
G1 X56.393 Y118.973 E62.34540
G1 X56.761 Y118.901 E62.35276
G1 X57.091 Y118.745 E62.35993
G1 X57.375 Y118.510 E62.36717
G1 X57.593 Y118.210 E62.37446
G1 X57.729 Y117.867 E62.38171
G1 X57.776 Y117.500 E62.38898
G1 X57.727 Y117.127 E62.39637
G1 X57.592 Y116.788 E62.40353
G1 X57.371 Y116.486 E62.41089
G1 X57.090 Y116.254 E62.41804
G1 X56.756 Y116.096 E62.42530
G1 X56.391 Y116.026 E62.43260
G0 F8400 X99.835 Y117.314
G1 F1800 X99.835 Y117.685 E62.43989
G1 X99.928 Y118.043 E62.44716
G1 X100.106 Y118.368 E62.45444
G1 X100.364 Y118.639 E62.46179
G1 X100.671 Y118.834 E62.46893
G1 X101.022 Y118.949 E62.47619
G1 X101.393 Y118.973 E62.48349
G1 X101.761 Y118.901 E62.49086
G1 X102.091 Y118.745 E62.49803
G1 X102.375 Y118.510 E62.50527
G1 X102.593 Y118.210 E62.51255
G1 X102.729 Y117.867 E62.51980
G1 X102.776 Y117.500 E62.52707
G1 X102.727 Y117.127 E62.53446
G1 X102.592 Y116.788 E62.54163
G1 X102.371 Y116.486 E62.54898
G1 X102.090 Y116.254 E62.55614
G1 X101.756 Y116.096 E62.56340
G1 X101.391 Y116.026 E62.57070
G1 X101.017 Y116.051 E62.57806
G1 X100.670 Y116.165 E62.58523
G1 X100.355 Y116.366 E62.59258
G1 X100.105 Y116.633 E62.59976
G1 X99.928 Y116.956 E62.60700
G1 X99.835 Y117.314 E62.61426
G0 F8400 X101.393 Y88.973
G1 F1800 X101.761 Y88.901 E62.62163
G1 X102.091 Y88.745 E62.62880
G1 X102.375 Y88.510 E62.63604
G1 X102.593 Y88.210 E62.64332
G1 X102.729 Y87.867 E62.65057
G1 X102.776 Y87.500 E62.65784
G1 X102.727 Y87.127 E62.66523
G1 X102.592 Y86.788 E62.67240
G1 X102.371 Y86.486 E62.67975
G1 X102.090 Y86.254 E62.68691
G1 X101.756 Y86.096 E62.69417
G1 X101.391 Y86.026 E62.70147
G1 X101.017 Y86.051 E62.70883
G1 X100.670 Y86.165 E62.71601
G1 X100.355 Y86.366 E62.72335
G1 X100.105 Y86.633 E62.73053
G1 X99.928 Y86.956 E62.73777
G1 X99.835 Y87.314 E62.74503
G1 X99.835 Y87.685 E62.75232
G1 X99.928 Y88.043 E62.75959
G1 X100.106 Y88.368 E62.76687
G1 X100.364 Y88.639 E62.77422
G1 X100.671 Y88.834 E62.78136
G1 X101.022 Y88.949 E62.78862
G1 X101.393 Y88.973 E62.79592
G0 F8400 X101.372 Y88.656
;TYPE:WALL-OUTER
G1 F1800 X101.662 Y88.599 E62.80173
G1 X101.920 Y88.477 E62.80733
G1 X102.143 Y88.292 E62.81303
G1 X102.315 Y88.057 E62.81875
G1 X102.421 Y87.787 E62.82444
G1 X102.458 Y87.500 E62.83013
G1 X102.420 Y87.207 E62.83593
G1 X102.314 Y86.941 E62.84156
G1 X102.140 Y86.703 E62.84735
G1 X101.920 Y86.521 E62.85296
G1 X101.658 Y86.398 E62.85864
G1 X101.372 Y86.343 E62.86436
G1 X101.078 Y86.363 E62.87015
G1 X100.806 Y86.452 E62.87578
G1 X100.558 Y86.610 E62.88155
G1 X100.362 Y86.819 E62.88718
G1 X100.223 Y87.073 E62.89287
G1 X100.150 Y87.354 E62.89857
G1 X100.150 Y87.645 E62.90429
G1 X100.223 Y87.926 E62.90999
G1 X100.362 Y88.180 E62.91568
G1 X100.566 Y88.394 E62.92149
G1 X100.806 Y88.547 E62.92708
G1 X101.082 Y88.637 E62.93278
G1 X101.372 Y88.656 E62.93849
G0 F8400 X101.357 Y88.913
G0 X102.113 Y88.780
G0 X108.385 Y85.325
G0 X108.643 Y85.157
G1 F1800 X108.643 Y119.843 E63.61987
G1 X53.957 Y119.843 E64.69414
G1 X53.957 Y85.157 E65.37552
G1 X108.643 Y85.157 E66.44979
G0 F8400 X108.385 Y85.325
G0 X101.707 Y116.145
G0 X101.658 Y116.398
G1 F1800 X101.372 Y116.343 E66.45551
G1 X101.078 Y116.363 E66.46130
G1 X100.806 Y116.452 E66.46692
G1 X100.558 Y116.610 E66.47269
G1 X100.362 Y116.819 E66.47832
G1 X100.223 Y117.073 E66.48401
G1 X100.150 Y117.354 E66.48971
G1 X100.150 Y117.645 E66.49543
G1 X100.223 Y117.926 E66.50113
G1 X100.362 Y118.180 E66.50682
G1 X100.566 Y118.394 E66.51263
G1 X100.806 Y118.547 E66.51822
G1 X101.082 Y118.637 E66.52392
G1 X101.372 Y118.656 E66.52963
G1 X101.662 Y118.599 E66.53544
G1 X101.920 Y118.477 E66.54104
G1 X102.143 Y118.292 E66.54674
G1 X102.315 Y118.057 E66.55246
G1 X102.421 Y117.787 E66.55816
G1 X102.458 Y117.500 E66.56384
G1 X102.420 Y117.207 E66.56964
G1 X102.314 Y116.941 E66.57527
G1 X102.140 Y116.703 E66.58106
G1 X101.920 Y116.521 E66.58667
G1 X101.658 Y116.398 E66.59235
G0 F8400 X101.707 Y116.145
G0 X57.714 Y117.533
G0 X57.458 Y117.500
G1 F1800 X57.420 Y117.207 E66.59816
G1 X57.314 Y116.941 E66.60378
G1 X57.140 Y116.703 E66.60958
G1 X56.920 Y116.521 E66.61518
G1 X56.658 Y116.398 E66.62087
G1 X56.372 Y116.343 E66.62659
G1 X56.078 Y116.363 E66.63238
G1 X55.806 Y116.452 E66.63800
G1 X55.558 Y116.610 E66.64378
G1 X55.362 Y116.819 E66.64941
G1 X55.223 Y117.073 E66.65510
G1 X55.150 Y117.354 E66.66080
G1 X55.150 Y117.645 E66.66651
G1 X55.223 Y117.926 E66.67222
G1 X55.362 Y118.180 E66.67791
G1 X55.566 Y118.394 E66.68371
G1 X55.806 Y118.547 E66.68931
G1 X56.082 Y118.637 E66.69501
G1 X56.372 Y118.656 E66.70072
G1 X56.662 Y118.599 E66.70652
G1 X56.920 Y118.477 E66.71213
G1 X57.143 Y118.292 E66.71782
G1 X57.315 Y118.057 E66.72354
G1 X57.421 Y117.787 E66.72924
G1 X57.458 Y117.500 E66.73492
G0 F8400 X57.714 Y117.533
G0 X56.357 Y88.913
G0 X56.372 Y88.656
G1 F1800 X56.662 Y88.599 E66.74073
G1 X56.920 Y88.477 E66.74634
G1 X57.143 Y88.292 E66.75203
G1 X57.315 Y88.057 E66.75775
G1 X57.421 Y87.787 E66.76345
G1 X57.458 Y87.500 E66.76913
G1 X57.420 Y87.207 E66.77494
G1 X57.314 Y86.941 E66.78056
G1 X57.140 Y86.703 E66.78635
G1 X56.920 Y86.521 E66.79196
G1 X56.658 Y86.398 E66.79765
G1 X56.372 Y86.343 E66.80337
G1 X56.078 Y86.363 E66.80916
G1 X55.806 Y86.452 E66.81478
G1 X55.558 Y86.610 E66.82056
G1 X55.362 Y86.819 E66.82618
G1 X55.223 Y87.073 E66.83187
G1 X55.150 Y87.354 E66.83758
G1 X55.150 Y87.645 E66.84329
G1 X55.223 Y87.926 E66.84900
G1 X55.362 Y88.180 E66.85468
G1 X55.566 Y88.394 E66.86049
G1 X55.806 Y88.547 E66.86608
G1 X56.082 Y88.637 E66.87178
G1 X56.372 Y88.656 E66.87749
G0 F8400 X56.402 Y89.145
;TYPE:SKIN
G1 F1800 X86.612 Y119.355 E67.71676
G0 F8400 X87.057 Y119.355
G1 F1800 X56.775 Y89.072 E68.55805
G0 F8400 X57.085 Y88.937
G1 F1800 X87.503 Y119.355 E69.40310
G0 F8400 X87.948 Y119.355
G1 F1800 X57.348 Y88.755 E70.25320
G0 F8400 X57.569 Y88.531
G1 F1800 X88.394 Y119.355 E71.10954
G0 F8400 X88.839 Y119.355
G1 F1800 X57.753 Y88.269 E71.97315
G0 F8400 X57.880 Y87.950
G1 F1800 X89.284 Y119.355 E72.84560
G0 F8400 X89.730 Y119.355
G1 F1800 X57.940 Y87.565 E73.72877
G0 F8400 X57.888 Y87.068
G1 F1800 X90.175 Y119.355 E74.62574
G0 F8400 X90.621 Y119.355
G1 F1800 X56.910 Y85.644 E75.56227
G0 F8400 X56.737 Y85.917
G1 F1800 X56.351 Y85.753 E75.56985
G1 X55.935 Y85.783 E75.57591
G1 X55.552 Y85.845 E75.58363
G1 X55.128 Y85.644 E75.59285
G0 F8400 X54.682 Y85.644
G1 F1800 X55.259 Y86.221 E75.60888
G0 F8400 X55.041 Y86.448
G1 F1800 X54.444 Y85.851 E75.62547
G0 F8400 X54.444 Y86.296
G1 F1800 X54.797 Y86.872 E75.63709
G1 X54.444 Y86.964 E75.64508
G1 X54.553 Y87.519 E75.65114
G1 X54.714 Y87.903 E75.65932
G0 F8400 X54.444 Y88.078
G1 F1800 X85.721 Y119.355 E76.52824
G0 F8400 X86.166 Y119.355
G1 F1800 X55.901 Y89.089 E77.36905
G0 F8400 X54.444 Y88.969
G1 F1800 X84.830 Y119.355 E78.21321
G0 F8400 X85.275 Y119.355
G1 F1800 X54.444 Y88.524 E79.06973
G0 F8400 X54.444 Y89.415
G1 F1800 X84.384 Y119.355 E79.90150
G0 F8400 X83.939 Y119.355
G1 F1800 X54.444 Y89.860 E80.72090
G0 F8400 X54.444 Y90.306
G1 F1800 X83.493 Y119.355 E81.52792
G0 F8400 X83.048 Y119.355
G1 F1800 X54.444 Y90.751 E82.32257
G0 F8400 X54.444 Y91.196
G1 F1800 X82.602 Y119.355 E83.10485
G0 F8400 X82.157 Y119.355
G1 F1800 X54.444 Y91.642 E83.87475
G0 F8400 X54.444 Y92.087
G1 F1800 X81.711 Y119.355 E84.63227
G0 F8400 X81.266 Y119.355
G1 F1800 X54.444 Y92.533 E85.37742
G0 F8400 X54.444 Y92.978
G1 F1800 X80.820 Y119.355 E86.11019
G0 F8400 X80.375 Y119.355
G1 F1800 X54.444 Y93.424 E86.83059
G0 F8400 X54.444 Y93.869
G1 F1800 X79.929 Y119.355 E87.53860
G0 F8400 X79.484 Y119.355
G1 F1800 X54.444 Y94.315 E88.23424
G0 F8400 X54.444 Y94.760
G1 F1800 X79.038 Y119.355 E88.91751
G0 F8400 X78.593 Y119.355
G1 F1800 X54.444 Y95.206 E89.58840
G0 F8400 X54.444 Y95.651
G1 F1800 X78.148 Y119.355 E90.24692
G0 F8400 X77.702 Y119.355
G1 F1800 X54.444 Y96.097 E90.89306
G0 F8400 X54.444 Y96.542
G1 F1800 X77.257 Y119.355 E91.52683
G0 F8400 X76.811 Y119.355
G1 F1800 X54.444 Y96.988 E92.14821
G0 F8400 X54.444 Y97.433
G1 F1800 X76.366 Y119.355 E92.75723
G0 F8400 X75.920 Y119.355
G1 F1800 X54.444 Y97.879 E93.35386
G0 F8400 X54.444 Y98.324
G1 F1800 X75.475 Y119.355 E93.93812
G0 F8400 X75.029 Y119.355
G1 F1800 X54.444 Y98.770 E94.51000
G0 F8400 X54.444 Y99.215
G1 F1800 X74.584 Y119.355 E95.06951
G0 F8400 X74.138 Y119.355
G1 F1800 X54.444 Y99.661 E95.61664
G0 F8400 X57.767 Y87.117
G0 X57.355 Y85.644
G1 F1800 X91.066 Y119.355 E96.55317
G0 F8400 X91.512 Y119.355
G1 F1800 X57.801 Y85.644 E97.48970
G0 F8400 X58.246 Y85.644
G1 F1800 X91.957 Y119.355 E98.42623
G0 F8400 X92.403 Y119.355
G1 F1800 X58.691 Y85.644 E99.36278
G0 F8400 X59.137 Y85.644
G1 F1800 X92.848 Y119.355 E100.29931
G0 F8400 X93.294 Y119.355
G1 F1800 X59.582 Y85.644 E101.23585
G0 F8400 X60.028 Y85.644
G1 F1800 X93.739 Y119.355 E102.17239
G0 F8400 X94.185 Y119.355
G1 F1800 X60.473 Y85.644 E103.10893
G0 F8400 X60.919 Y85.644
G1 F1800 X94.630 Y119.355 E104.04546
G0 F8400 X95.076 Y119.355
G1 F1800 X61.364 Y85.644 E104.98201
G0 F8400 X61.810 Y85.644
G1 F1800 X95.521 Y119.355 E105.91854
G0 F8400 X95.967 Y119.355
G1 F1800 X62.255 Y85.644 E106.85509
G0 F8400 X62.701 Y85.644
G1 F1800 X96.412 Y119.355 E107.79162
G0 F8400 X96.858 Y119.355
G1 F1800 X63.146 Y85.644 E108.72816
G0 F8400 X63.592 Y85.644
G1 F1800 X97.303 Y119.355 E109.66469
G0 F8400 X97.749 Y119.355
G1 F1800 X64.037 Y85.644 E110.60124
G0 F8400 X64.483 Y85.644
G1 F1800 X98.194 Y119.355 E111.53777
G0 F8400 X98.639 Y119.355
G1 F1800 X64.928 Y85.644 E112.47430
G0 F8400 X65.374 Y85.644
G1 F1800 X99.085 Y119.355 E113.41084
G0 F8400 X99.530 Y119.355
G1 F1800 X65.819 Y85.644 E114.34737
G0 F8400 X66.265 Y85.644
G1 F1800 X99.976 Y119.355 E115.28390
G0 F8400 X99.947 Y118.435
G1 F1800 X67.156 Y85.644 E116.19487
G0 F8400 X67.601 Y85.644
G1 F1800 X99.663 Y117.705 E117.08558
G0 F8400 X99.670 Y117.267
G1 F1800 X68.047 Y85.644 E117.96410
G0 F8400 X68.492 Y85.644
G1 F1800 X99.762 Y116.913 E118.83281
G0 F8400 X99.915 Y116.621
G1 F1800 X68.937 Y85.644 E119.69340
G0 F8400 X69.383 Y85.644
G1 F1800 X100.112 Y116.372 E120.54707
G0 F8400 X100.349 Y116.164
G1 F1800 X69.828 Y85.644 E121.39497
G0 F8400 X70.274 Y85.644
G1 F1800 X100.626 Y115.996 E122.23818
G0 F8400 X100.962 Y115.886
G1 F1800 X70.719 Y85.644 E123.07836
G0 F8400 X71.165 Y85.644
G1 F1800 X101.375 Y115.853 E123.91761
G0 F8400 X101.974 Y116.007
G1 F1800 X71.610 Y85.644 E124.76115
G0 F8400 X72.056 Y85.644
G1 F1800 X105.767 Y119.355 E125.69768
G0 F8400 X105.322 Y119.355
G1 F1800 X102.792 Y116.825 E125.76796
G0 F8400 X102.937 Y117.415
G1 F1800 X104.876 Y119.355 E125.82185
G0 F8400 X104.431 Y119.355
G1 F1800 X102.906 Y117.830 E125.86421
G0 F8400 X102.794 Y118.164
G1 F1800 X103.985 Y119.355 E125.89730
G0 F8400 X103.540 Y119.355
G1 F1800 X102.631 Y118.446 E125.92255
G0 F8400 X102.427 Y118.688
G1 F1800 X103.094 Y119.355 E125.94108
G0 F8400 X102.649 Y119.355
G1 F1800 X102.185 Y118.891 E125.95397
G0 F8400 X101.882 Y119.033
G1 F1800 X101.980 Y119.355 E125.96289
G1 X101.418 Y119.238 E125.96937
G1 X101.081 Y119.124 E125.97636
G0 F8400 X100.867 Y119.355
G1 F1800 X100.336 Y118.824 E125.99111
G0 F8400 X100.421 Y119.355
G1 F1800 X66.710 Y85.644 E126.92765
G0 F8400 X72.501 Y85.644
G1 F1800 X106.213 Y119.355 E127.86419
G0 F8400 X106.658 Y119.355
G1 F1800 X72.947 Y85.644 E128.80072
G0 F8400 X73.392 Y85.644
G1 F1800 X107.104 Y119.355 E129.73727
G0 F8400 X107.549 Y119.355
G1 F1800 X73.838 Y85.644 E130.67380
G0 F8400 X74.283 Y85.644
G1 F1800 X107.995 Y119.355 E131.61035
G0 F8400 X108.156 Y119.071
G1 F1800 X74.729 Y85.644 E132.53899
G0 F8400 X75.174 Y85.644
G1 F1800 X108.156 Y118.625 E133.45525
G0 F8400 X108.156 Y118.180
G1 F1800 X75.620 Y85.644 E134.35914
G0 F8400 X76.065 Y85.644
G1 F1800 X108.156 Y117.734 E135.25065
G0 F8400 X108.156 Y117.289
G1 F1800 X76.511 Y85.644 E136.12979
G0 F8400 X76.956 Y85.644
G1 F1800 X108.156 Y116.843 E136.99655
G0 F8400 X108.156 Y116.398
G1 F1800 X77.402 Y85.644 E137.85093
G0 F8400 X77.847 Y85.644
G1 F1800 X108.156 Y115.952 E138.69294
G0 F8400 X108.156 Y115.507
G1 F1800 X78.292 Y85.644 E139.52258
G0 F8400 X78.738 Y85.644
G1 F1800 X108.156 Y115.061 E140.33983
