;Generated with Cura_SteamEngine 15.01
G28 ; Home extruder
G1 Z5 F300
G1 Z0 F300
M106 S165 ; Turn on fan
G90 ; Absolute positioning
M82 ; Extruder in absolute mode
; Activate all used extruder
M104 T0 S200
G92 E0 ; Reset extruder position
; Wait for all used extruders to reach temperature
M109 T0 S200
T0
M83
G1 E10 F100
M82
G92 E0 ; Reset extruder position
M117 Vertex is printing
G1 F300 Z5
;Layer count: 25
;LAYER:0
M106 S255
G0 F8400 X67.733 Y91.933 Z0.200
;TYPE:SKIRT
G1 F1800 X94.867 Y91.933 E0.53303
G1 X94.867 Y113.067 E0.94819
G1 X67.733 Y113.067 E1.48122
G1 X67.733 Y91.933 E1.89638
G0 F8400 X68.048 Y92.248
G1 F1800 X94.552 Y92.248 E2.41703
G1 X94.552 Y112.752 E2.81982
G1 X68.048 Y112.752 E3.34047
G1 X68.048 Y92.248 E3.74325
G0 F8400 X68.363 Y92.563
G1 F1800 X94.237 Y92.563 E4.25153
G1 X94.237 Y112.437 E4.64194
G1 X68.363 Y112.437 E5.15022
G1 X68.363 Y92.563 E5.54063
G0 F8400 X68.678 Y92.878
G1 F1800 X93.922 Y92.878 E6.03653
G1 X93.922 Y112.122 E6.41456
G1 X68.678 Y112.122 E6.91046
G1 X68.678 Y92.878 E7.28849
G0 F8400 X68.993 Y93.193
G1 F1800 X93.607 Y93.193 E7.77202
G1 X93.607 Y111.807 E8.13768
G1 X68.993 Y111.807 E8.62120
G1 X68.993 Y93.193 E8.98686
G0 F8400 X69.308 Y93.508
G1 F1800 X93.292 Y93.508 E9.45801
G1 X93.292 Y111.492 E9.81129
G1 X69.308 Y111.492 E10.28244
G1 X69.308 Y93.508 E10.63572
G0 F8400 X69.623 Y93.823
G1 F1800 X92.977 Y93.823 E11.09449
G1 X92.977 Y111.177 E11.43540
G1 X69.623 Y111.177 E11.89417
G1 X69.623 Y93.823 E12.23508
G0 F8400 X69.938 Y94.138
G1 F1800 X92.662 Y94.138 E12.68147
G1 X92.662 Y110.862 E13.01001
G1 X69.938 Y110.862 E13.45640
G1 X69.938 Y94.138 E13.78493
G0 F8400 X70.253 Y94.453
G1 F1800 X92.347 Y94.453 E14.21895
G1 X92.347 Y110.547 E14.53511
G1 X70.253 Y110.547 E14.96913
G1 X70.253 Y94.453 E15.28528
G0 F8400 X70.568 Y94.768
G1 F1800 X92.032 Y94.768 E15.70693
G1 X92.032 Y110.232 E16.01071
G1 X70.568 Y110.232 E16.43235
G1 X70.568 Y94.768 E16.73613
G0 F8400 X70.883 Y95.083
G1 F1800 X91.717 Y95.083 E17.14540
G1 X91.717 Y109.917 E17.43680
G1 X70.883 Y109.917 E17.84607
G1 X70.883 Y95.083 E18.13747
G0 F8400 X71.198 Y95.398
G1 F1800 X91.402 Y95.398 E18.53437
G1 X91.402 Y109.602 E18.81339
G1 X71.198 Y109.602 E19.21029
G1 X71.198 Y95.398 E19.48931
G0 F8400 X71.513 Y95.713
G1 F1800 X91.087 Y95.713 E19.87383
G1 X91.087 Y109.287 E20.14048
G1 X71.513 Y109.287 E20.52500
G1 X71.513 Y95.713 E20.79165
G0 F8400 X71.828 Y96.028
G1 F1800 X90.772 Y96.028 E21.16379
G1 X90.772 Y108.972 E21.41807
G1 X71.828 Y108.972 E21.79021
G1 X71.828 Y96.028 E22.04448
G0 F8400 X72.143 Y96.343
G1 F1800 X90.457 Y96.343 E22.40425
G1 X90.457 Y108.657 E22.64615
G1 X72.143 Y108.657 E23.00591
G1 X72.143 Y96.343 E23.24781
G0 F8400 X72.772 Y96.972
;TYPE:WALL-INNER
G1 F1800 X89.828 Y96.972 E23.58286
G1 X89.828 Y108.028 E23.80005
G1 X72.772 Y108.028 E24.13510
G1 X72.772 Y96.972 E24.35229
G0 F8400 X75.540 Y99.978
G1 F1800 X75.201 Y100.338 E24.36200
G1 X74.963 Y100.772 E24.37173
G1 X74.839 Y101.251 E24.38145
G1 X74.839 Y101.748 E24.39121
G1 X74.963 Y102.227 E24.40093
G1 X75.201 Y102.661 E24.41065
G1 X75.542 Y103.024 E24.42044
G1 X75.978 Y103.293 E24.43050
G1 X76.428 Y103.440 E24.43980
G1 X76.924 Y103.472 E24.44957
G1 X77.410 Y103.378 E24.45929
G1 X77.858 Y103.168 E24.46901
G1 X78.240 Y102.852 E24.47875
G1 X78.531 Y102.451 E24.48848
G1 X78.713 Y101.992 E24.49818
G1 X78.776 Y101.500 E24.50792
G1 X78.713 Y101.007 E24.51769
G1 X78.531 Y100.548 E24.52739
G1 X78.240 Y100.147 E24.53712
G1 X77.858 Y99.831 E24.54686
G1 X77.410 Y99.621 E24.55658
G1 X76.924 Y99.527 E24.56630
G1 X76.429 Y99.559 E24.57605
G1 X75.958 Y99.712 E24.58578
G1 X75.540 Y99.978 E24.59551
G0 F8400 X76.926 Y99.486
G0 X78.269 Y100.119
G0 X83.839 Y101.251
G1 F1800 X83.839 Y101.748 E24.60527
G1 X83.963 Y102.227 E24.61499
G1 X84.201 Y102.661 E24.62471
G1 X84.542 Y103.024 E24.63450
G1 X84.978 Y103.293 E24.64456
G1 X85.428 Y103.440 E24.65386
G1 X85.924 Y103.472 E24.66363
G1 X86.410 Y103.378 E24.67335
G1 X86.858 Y103.168 E24.68307
G1 X87.240 Y102.852 E24.69281
G1 X87.531 Y102.451 E24.70254
G1 X87.713 Y101.992 E24.71224
G1 X87.776 Y101.500 E24.72198
G1 X87.713 Y101.007 E24.73175
G1 X87.531 Y100.548 E24.74145
G1 X87.240 Y100.147 E24.75118
G1 X86.858 Y99.831 E24.76092
G1 X86.410 Y99.621 E24.77064
G1 X85.924 Y99.527 E24.78036
G1 X85.429 Y99.559 E24.79011
G1 X84.958 Y99.712 E24.79984
G1 X84.540 Y99.978 E24.80957
G1 X84.201 Y100.338 E24.81928
G1 X83.963 Y100.772 E24.82901
G1 X83.839 Y101.251 E24.83873
G0 F8400 X84.154 Y101.291
;TYPE:WALL-OUTER
G1 F1800 X84.154 Y101.708 E24.84692
G1 X84.258 Y102.110 E24.85507
G1 X84.458 Y102.474 E24.86323
G1 X84.743 Y102.778 E24.87142
G1 X85.111 Y103.005 E24.87991
G1 X85.488 Y103.128 E24.88770
G1 X85.904 Y103.155 E24.89589
G1 X86.312 Y103.076 E24.90406
G1 X86.688 Y102.900 E24.91221
G1 X87.008 Y102.634 E24.92039
G1 X87.253 Y102.298 E24.92855
G1 X87.405 Y101.912 E24.93670
G1 X87.458 Y101.500 E24.94486
G1 X87.405 Y101.087 E24.95304
G1 X87.253 Y100.701 E24.96119
G1 X87.008 Y100.365 E24.96936
G1 X86.688 Y100.099 E24.97754
G1 X86.312 Y99.923 E24.98569
G1 X85.904 Y99.844 E24.99386
G1 X85.488 Y99.871 E25.00204
G1 X85.094 Y99.999 E25.01018
G1 X84.742 Y100.222 E25.01837
G1 X84.458 Y100.525 E25.02653
G1 X84.258 Y100.889 E25.03469
G1 X84.154 Y101.291 E25.04284
G0 F8400 X83.906 Y101.226
G0 X78.714 Y101.532
G0 X78.458 Y101.500
G1 F1800 X78.405 Y101.087 E25.05102
G1 X78.253 Y100.701 E25.05917
G1 X78.008 Y100.365 E25.06734
G1 X77.688 Y100.099 E25.07551
G1 X77.312 Y99.923 E25.08367
G1 X76.904 Y99.844 E25.09183
G1 X76.488 Y99.871 E25.10002
G1 X76.094 Y99.999 E25.10816
G1 X75.742 Y100.222 E25.11635
G1 X75.458 Y100.525 E25.12450
G1 X75.258 Y100.889 E25.13266
G1 X75.154 Y101.291 E25.14082
G1 X75.154 Y101.708 E25.14901
G1 X75.258 Y102.110 E25.15717
G1 X75.458 Y102.474 E25.16533
G1 X75.743 Y102.778 E25.17351
G1 X76.111 Y103.005 E25.18201
G1 X76.488 Y103.128 E25.18980
G1 X76.904 Y103.155 E25.19799
G1 X77.312 Y103.076 E25.20615
G1 X77.688 Y102.900 E25.21431
G1 X78.008 Y102.634 E25.22248
G1 X78.253 Y102.298 E25.23065
G1 X78.405 Y101.912 E25.23880
G1 X78.458 Y101.500 E25.24696
G0 F8400 X78.714 Y101.532
G0 X78.269 Y100.119
G0 X76.926 Y99.486
G0 X72.715 Y96.825
G0 X72.457 Y96.657
G1 F1800 X90.143 Y96.657 E25.59439
G1 X90.143 Y108.343 E25.82395
G1 X72.457 Y108.343 E26.17138
G1 X72.457 Y96.657 E26.40094
G0 F8400 X72.943 Y97.222
;TYPE:SKIN
G1 F1800 X75.511 Y99.790 E26.47228
G0 F8400 X75.278 Y100.003
G1 F1800 X72.943 Y97.668 E26.53715
G0 F8400 X72.943 Y98.113
G1 F1800 X75.062 Y100.233 E26.59603
G0 F8400 X74.905 Y100.520
G1 F1800 X72.943 Y98.559 E26.65053
G0 F8400 X72.943 Y99.004
G1 F1800 X74.770 Y100.831 E26.70128
G0 F8400 X74.678 Y101.185
G1 F1800 X72.943 Y99.450 E26.74948
G0 F8400 X72.943 Y99.895
G1 F1800 X74.666 Y101.619 E26.79737
G0 F8400 X74.770 Y102.168
G1 F1800 X72.943 Y100.341 E26.84812
G0 F8400 X72.943 Y100.786
G1 F1800 X80.011 Y107.854 E27.04448
G0 F8400 X80.457 Y107.854
G1 F1800 X76.122 Y103.520 E27.16490
G0 F8400 X76.675 Y103.627
G1 F1800 X80.902 Y107.854 E27.28233
G0 F8400 X81.348 Y107.854
G1 F1800 X77.105 Y103.611 E27.40020
G0 F8400 X77.475 Y103.536
G1 F1800 X81.793 Y107.854 E27.52016
G0 F8400 X82.239 Y107.854
G1 F1800 X77.779 Y103.395 E27.64405
G0 F8400 X78.056 Y103.226
G1 F1800 X82.684 Y107.854 E27.77262
G0 F8400 X83.130 Y107.854
G1 F1800 X78.300 Y103.024 E27.90681
G0 F8400 X78.501 Y102.780
G1 F1800 X83.575 Y107.854 E28.04777
G0 F8400 X84.021 Y107.854
G1 F1800 X78.686 Y102.520 E28.19597
G0 F8400 X78.814 Y102.202
G1 F1800 X84.466 Y107.854 E28.35299
G0 F8400 X84.912 Y107.854
G1 F1800 X78.903 Y101.846 E28.51991
G0 F8400 X78.941 Y101.438
G1 F1800 X85.357 Y107.854 E28.69815
G0 F8400 X85.803 Y107.854
G1 F1800 X78.860 Y100.912 E28.89102
G0 F8400 X77.422 Y99.581
G0 X75.941 Y99.674
G0 X74.925 Y100.757
G0 X72.943 Y101.232
G1 F1800 X79.566 Y107.854 E29.07501
G0 F8400 X79.121 Y107.854
G1 F1800 X72.943 Y101.677 E29.24662
G0 F8400 X72.943 Y102.123
G1 F1800 X78.675 Y107.854 E29.40585
G0 F8400 X78.230 Y107.854
G1 F1800 X72.943 Y102.568 E29.55272
G0 F8400 X72.943 Y103.014
G1 F1800 X77.784 Y107.854 E29.68719
G0 F8400 X77.339 Y107.854
G1 F1800 X72.943 Y103.459 E29.80930
G0 F8400 X72.943 Y103.905
G1 F1800 X76.893 Y107.854 E29.91903
G0 F8400 X76.448 Y107.854
G1 F1800 X72.943 Y104.350 E30.01639
G0 F8400 X72.943 Y104.796
G1 F1800 X76.002 Y107.854 E30.10135
G0 F8400 X75.557 Y107.854
G1 F1800 X72.943 Y105.241 E30.17396
G0 F8400 X72.943 Y105.687
G1 F1800 X75.111 Y107.854 E30.23418
G0 F8400 X74.666 Y107.854
G1 F1800 X72.943 Y106.132 E30.28203
G0 F8400 X72.943 Y106.577
G1 F1800 X74.220 Y107.854 E30.31751
G0 F8400 X73.775 Y107.854
G1 F1800 X72.943 Y107.023 E30.34061
G0 F8400 X72.943 Y107.468
G1 F1800 X73.329 Y107.854 E30.35133
G1 F6600 E27.35133
G0 F8400 X75.784 Y99.617
G1 F6600 E30.35133
G1 F1800 X73.309 Y97.143 E30.42007
G0 F8400 X73.754 Y97.143
G1 F1800 X76.096 Y99.484 E30.48512
G0 F8400 X76.441 Y99.384
G1 F1800 X74.200 Y97.143 E30.54738
G0 F8400 X74.645 Y97.143
G1 F1800 X76.860 Y99.357 E30.60890
G0 F8400 X77.390 Y99.441
G1 F1800 X75.091 Y97.143 E30.67276
G0 F8400 X75.536 Y97.143
G1 F1800 X86.248 Y107.854 E30.97034
G0 F8400 X86.694 Y107.854
G1 F1800 X75.982 Y97.143 E31.26791
G0 F8400 X76.427 Y97.143
G1 F1800 X87.139 Y107.854 E31.56549
G0 F8400 X87.585 Y107.854
G1 F1800 X76.873 Y97.143 E31.86307
G0 F8400 X77.318 Y97.143
G1 F1800 X88.030 Y107.854 E32.16065
G0 F8400 X88.476 Y107.854
G1 F1800 X77.764 Y97.143 E32.45823
G0 F8400 X78.209 Y97.143
G1 F1800 X88.921 Y107.854 E32.75581
G0 F8400 X89.366 Y107.854
G1 F1800 X84.989 Y103.477 E32.87740
G0 F8400 X85.578 Y103.620
G1 F1800 X89.656 Y107.698 E32.99070
G0 F8400 X89.656 Y107.253
G1 F1800 X86.029 Y103.626 E33.09146
G0 F8400 X86.402 Y103.553
G1 F1800 X89.656 Y106.807 E33.18186
G0 F8400 X89.656 Y106.362
G1 F1800 X86.717 Y103.423 E33.26351
G0 F8400 X87.007 Y103.267
G1 F1800 X89.656 Y105.916 E33.33710
G0 F8400 X89.656 Y105.471
G1 F1800 X87.250 Y103.065 E33.40394
G0 F8400 X87.463 Y102.833
G1 F1800 X89.656 Y105.025 E33.46485
G0 F8400 X89.656 Y104.580
G1 F1800 X87.651 Y102.575 E33.52055
G0 F8400 X87.788 Y102.266
G1 F1800 X89.656 Y104.134 E33.57245
G0 F8400 X89.656 Y103.689
G1 F1800 X87.894 Y101.927 E33.62140
G0 F8400 X87.944 Y101.532
G1 F1800 X89.656 Y103.243 E33.66894
G0 F8400 X89.656 Y102.798
G1 F1800 X87.889 Y101.031 E33.71803
G0 F8400 X87.456 Y100.153
G1 F1800 X89.656 Y102.352 E33.77914
G0 F8400 X89.656 Y101.907
G1 F1800 X84.891 Y97.143 E33.91150
G0 F8400 X84.446 Y97.143
G1 F1800 X87.162 Y99.859 E33.98696
G0 F8400 X86.276 Y99.419
G1 F1800 X84.000 Y97.143 E34.05019
G0 F8400 X83.555 Y97.143
G1 F1800 X85.775 Y99.363 E34.11186
G0 F8400 X85.364 Y99.398
G1 F1800 X83.109 Y97.143 E34.17451
G0 F8400 X82.664 Y97.143
G1 F1800 X85.028 Y99.506 E34.24017
G0 F8400 X84.728 Y99.652
G1 F1800 X82.218 Y97.143 E34.30988
G0 F8400 X81.773 Y97.143
G1 F1800 X84.456 Y99.825 E34.38441
G0 F8400 X84.234 Y100.049
G1 F1800 X81.327 Y97.143 E34.46515
G0 F8400 X80.882 Y97.143
G1 F1800 X84.030 Y100.291 E34.55261
G0 F8400 X83.872 Y100.578
G1 F1800 X80.436 Y97.143 E34.64805
G0 F8400 X85.337 Y97.143
G1 F1800 X89.656 Y101.462 E34.76804
G0 F8400 X89.656 Y101.016
G1 F1800 X85.782 Y97.143 E34.87565
G0 F8400 X86.228 Y97.143
G1 F1800 X89.656 Y100.571 E34.97088
G0 F8400 X89.656 Y100.125
G1 F1800 X86.673 Y97.143 E35.05374
G0 F8400 X87.119 Y97.143
G1 F1800 X89.656 Y99.680 E35.12422
G0 F8400 X89.656 Y99.234
G1 F1800 X87.564 Y97.143 E35.18233
G0 F8400 X88.010 Y97.143
G1 F1800 X89.656 Y98.789 E35.22805
G0 F8400 X89.656 Y98.343
G1 F1800 X88.455 Y97.143 E35.26140
G0 F8400 X88.901 Y97.143
G1 F1800 X89.656 Y97.898 E35.28238
G0 F8400 X89.656 Y97.452
G1 F1800 X89.346 Y97.143 E35.29098
G0 F8400 X84.168 Y100.314
G0 X83.751 Y100.903
G1 F1800 X79.991 Y97.143 E35.39543
G0 F8400 X79.545 Y97.143
G1 F1800 X83.666 Y101.264 E35.50992
G0 F8400 X83.666 Y101.709
G1 F1800 X79.100 Y97.143 E35.63677
G0 F8400 X78.655 Y97.143
G1 F1800 X83.802 Y102.290 E35.77976
;LAYER:1
G0 F8400 X83.913 Y102.247 Z0.400
;TYPE:WALL-INNER
G1 F1980 X84.158 Y102.692 E35.79085
G1 X84.505 Y103.063 E35.80194
G1 X84.936 Y103.336 E35.81307
G1 X85.419 Y103.493 E35.82416
G1 X85.927 Y103.525 E35.83527
G1 X86.427 Y103.429 E35.84638
G1 X86.887 Y103.213 E35.85747
G1 X87.279 Y102.888 E35.86859
G1 X87.578 Y102.477 E35.87968
G1 X87.764 Y102.005 E35.89075
G1 X87.829 Y101.500 E35.90187
G1 X87.764 Y100.994 E35.91300
G1 X87.578 Y100.522 E35.92408
G1 X87.279 Y100.111 E35.93517
G1 X86.887 Y99.786 E35.94628
G1 X86.427 Y99.570 E35.95738
G1 X85.927 Y99.474 E35.96849
G1 X85.419 Y99.506 E35.97960
G1 X84.936 Y99.663 E35.99068
G1 X84.505 Y99.936 E36.00182
G1 X84.158 Y100.307 E36.01291
G1 X83.913 Y100.752 E36.02400
G1 X83.786 Y101.244 E36.03509
G1 X83.786 Y101.755 E36.04624
G1 X83.913 Y102.247 E36.05733
G0 F8400 X78.829 Y101.500
G1 F1980 X78.764 Y100.994 E36.06847
G1 X78.578 Y100.522 E36.07954
G1 X78.279 Y100.111 E36.09063
G1 X77.887 Y99.786 E36.10175
G1 X77.427 Y99.570 E36.11284
G1 X76.927 Y99.474 E36.12395
G1 X76.419 Y99.506 E36.13506
G1 X75.936 Y99.663 E36.14615
G1 X75.505 Y99.936 E36.15728
G1 X75.158 Y100.307 E36.16837
G1 X74.913 Y100.752 E36.17946
G1 X74.786 Y101.244 E36.19055
G1 X74.786 Y101.755 E36.20170
G1 X74.913 Y102.247 E36.21279
G1 X75.158 Y102.692 E36.22388
G1 X75.505 Y103.063 E36.23497
G1 X75.936 Y103.336 E36.24611
G1 X76.419 Y103.493 E36.25719
G1 X76.927 Y103.525 E36.26830
G1 X77.427 Y103.429 E36.27941
G1 X77.887 Y103.213 E36.29051
G1 X78.279 Y102.888 E36.30162
G1 X78.578 Y102.477 E36.31271
G1 X78.764 Y102.005 E36.32379
G1 X78.829 Y101.500 E36.33490
G0 F8400 X78.295 Y100.095
G0 X76.928 Y99.451
G0 X72.825 Y97.025
G1 F1980 X89.775 Y97.025 E36.70487
G1 X89.775 Y107.975 E36.94387
G1 X72.825 Y107.975 E37.31384
G1 X72.825 Y97.025 E37.55285
G0 F8400 X72.475 Y96.675
;TYPE:WALL-OUTER
G1 F1980 X90.125 Y96.675 E37.93809
G1 X90.125 Y108.325 E38.19238
G1 X72.475 Y108.325 E38.57762
G1 X72.475 Y96.675 E38.83191
G0 F8400 X72.750 Y96.860
G0 X75.530 Y100.020
G0 X75.730 Y100.208
G1 F1980 X75.443 Y100.514 E38.84106
G1 X75.241 Y100.882 E38.85023
G1 X75.136 Y101.289 E38.85940
G1 X75.136 Y101.710 E38.86859
G1 X75.241 Y102.117 E38.87776
G1 X75.443 Y102.485 E38.88693
G1 X75.730 Y102.791 E38.89608
G1 X76.086 Y103.017 E38.90529
G1 X76.485 Y103.146 E38.91444
G1 X76.905 Y103.173 E38.92363
G1 X77.318 Y103.094 E38.93280
G1 X77.698 Y102.915 E38.94197
G1 X78.022 Y102.647 E38.95115
G1 X78.269 Y102.307 E38.96032
G1 X78.423 Y101.917 E38.96948
G1 X78.476 Y101.500 E38.97865
G1 X78.423 Y101.082 E38.98785
G1 X78.269 Y100.692 E38.99700
G1 X78.022 Y100.352 E39.00617
G1 X77.698 Y100.084 E39.01535
G1 X77.318 Y99.905 E39.02452
G1 X76.905 Y99.826 E39.03370
G1 X76.485 Y99.853 E39.04288
G1 X76.086 Y99.982 E39.05204
G1 X75.730 Y100.208 E39.06124
G0 F8400 X75.530 Y100.020
G0 X76.415 Y99.484
G0 X77.899 Y99.766
G0 X83.871 Y101.221
G0 X84.136 Y101.289
G1 F1980 X84.136 Y101.710 E39.07043
G1 X84.241 Y102.117 E39.07960
G1 X84.443 Y102.485 E39.08877
G1 X84.730 Y102.791 E39.09792
G1 X85.086 Y103.017 E39.10713
G1 X85.485 Y103.146 E39.11628
G1 X85.905 Y103.173 E39.12547
G1 X86.318 Y103.094 E39.13464
G1 X86.698 Y102.915 E39.14381
G1 X87.022 Y102.647 E39.15299
G1 X87.269 Y102.307 E39.16216
G1 X87.423 Y101.917 E39.17131
G1 X87.476 Y101.500 E39.18049
G1 X87.423 Y101.082 E39.18969
G1 X87.269 Y100.692 E39.19884
G1 X87.022 Y100.352 E39.20801
G1 X86.698 Y100.084 E39.21719
G1 X86.318 Y99.905 E39.22636
G1 X85.905 Y99.826 E39.23554
G1 X85.485 Y99.853 E39.24472
G1 X85.086 Y99.982 E39.25387
G1 X84.730 Y100.208 E39.26308
G1 X84.443 Y100.514 E39.27224
G1 X84.241 Y100.882 E39.28140
G1 X84.136 Y101.289 E39.29057
G0 F8400 X83.594 Y101.278
;TYPE:SKIN
G1 F1980 X77.090 Y107.782 E39.49134
G0 F8400 X77.585 Y107.782
G1 F1980 X83.594 Y101.773 E39.67682
G0 F8400 X83.693 Y102.169
G1 F1980 X78.080 Y107.782 E39.85009
G0 F8400 X78.575 Y107.782
G1 F1980 X83.841 Y102.516 E40.01264
G0 F8400 X84.022 Y102.830
G1 F1980 X79.070 Y107.782 E40.16550
G0 F8400 X79.565 Y107.782
G1 F1980 X84.262 Y103.085 E40.31048
G0 F8400 X84.534 Y103.308
G1 F1980 X80.060 Y107.782 E40.44859
G0 F8400 X80.555 Y107.782
G1 F1980 X84.837 Y103.500 E40.58076
G0 F8400 X85.207 Y103.625
G1 F1980 X81.050 Y107.782 E40.70908
G0 F8400 X81.545 Y107.782
