;Generated with Cura_SteamEngine 15.01
G28 ; Home extruder
G1 Z5 F300
G1 Z0 F300
M106 S165 ; Turn on fan
G90 ; Absolute positioning
M82 ; Extruder in absolute mode
; Activate all used extruder
M104 T0 S200
G92 E0 ; Reset extruder position
; Wait for all used extruders to reach temperature
M109 T0 S200
T0
M83
G1 E10 F100
M82
G92 E0 ; Reset extruder position
M117 Vertex is printing
G1 F300 Z5
;Layer count: 125
;LAYER:0
M106 S255
G0 F8400 X46.233 Y32.533 Z0.200
;TYPE:SKIRT
G1 F1800 X65.867 Y32.533 E0.38570
G1 X65.867 Y32.933 E0.39355
G1 X96.733 Y32.933 E0.99989
G1 X96.733 Y32.533 E1.00775
G1 X116.467 Y32.533 E1.39541
G1 X116.467 Y52.067 E1.77914
G1 X115.867 Y52.067 E1.79093
G1 X115.867 Y152.933 E3.77237
G1 X116.467 Y152.933 E3.78415
G1 X116.467 Y172.667 E4.17181
G1 X96.733 Y172.667 E4.55947
G1 X96.733 Y172.067 E4.57126
G1 X65.867 Y172.067 E5.17760
G1 X65.867 Y172.667 E5.18939
G1 X46.233 Y172.667 E5.57508
G1 X46.233 Y152.933 E5.96274
G1 X46.733 Y152.933 E5.97256
G1 X46.733 Y52.067 E7.95400
G1 X46.233 Y52.067 E7.96383
G1 X46.233 Y32.533 E8.34756
G0 F8400 X46.548 Y32.848
G1 F1800 X65.552 Y32.848 E8.72088
G1 X65.552 Y33.248 E8.72873
G1 X97.048 Y33.248 E9.34745
G1 X97.048 Y32.848 E9.35531
G1 X116.152 Y32.848 E9.73059
G1 X116.152 Y51.752 E10.10195
G1 X115.552 Y51.752 E10.11373
G1 X115.552 Y153.248 E12.10755
G1 X116.152 Y153.248 E12.11933
G1 X116.152 Y172.352 E12.49462
G1 X97.048 Y172.352 E12.86990
G1 X97.048 Y171.752 E12.88169
G1 X65.552 Y171.752 E13.50040
G1 X65.552 Y172.352 E13.51219
G1 X46.548 Y172.352 E13.88551
G1 X46.548 Y153.248 E14.26080
G1 X47.048 Y153.248 E14.27062
G1 X47.048 Y51.752 E16.26443
G1 X46.548 Y51.752 E16.27425
G1 X46.548 Y32.848 E16.64561
G0 F8400 X46.863 Y33.163
G1 F1800 X65.237 Y33.163 E17.00655
G1 X65.237 Y33.563 E17.01441
G1 X97.363 Y33.563 E17.64550
G1 X97.363 Y33.163 E17.65336
G1 X115.837 Y33.163 E18.01627
G1 X115.837 Y51.437 E18.37525
G1 X115.237 Y51.437 E18.38703
G1 X115.237 Y153.563 E20.39322
G1 X115.837 Y153.563 E20.40501
G1 X115.837 Y172.037 E20.76792
G1 X97.363 Y172.037 E21.13083
G1 X97.363 Y171.437 E21.14261
G1 X65.237 Y171.437 E21.77371
G1 X65.237 Y172.037 E21.78549
G1 X46.863 Y172.037 E22.14644
G1 X46.863 Y153.563 E22.50934
G1 X47.363 Y153.563 E22.51917
G1 X47.363 Y51.437 E24.52536
G1 X46.863 Y51.437 E24.53518
G1 X46.863 Y33.163 E24.89416
G0 F8400 X47.178 Y33.478
G1 F1800 X64.922 Y33.478 E25.24273
G1 X64.922 Y33.878 E25.25058
G1 X97.678 Y33.878 E25.89405
G1 X97.678 Y33.478 E25.90191
G1 X115.522 Y33.478 E26.25244
G1 X115.522 Y51.122 E26.59905
G1 X114.922 Y51.122 E26.61083
G1 X114.922 Y153.878 E28.62940
G1 X115.522 Y153.878 E28.64118
G1 X115.522 Y171.722 E28.99172
G1 X97.678 Y171.722 E29.34225
G1 X97.678 Y171.122 E29.35404
G1 X64.922 Y171.122 E29.99750
G1 X64.922 Y171.722 E30.00929
G1 X47.178 Y171.722 E30.35786
G1 X47.178 Y153.878 E30.70839
G1 X47.678 Y153.878 E30.71821
G1 X47.678 Y51.122 E32.73678
G1 X47.178 Y51.122 E32.74660
G1 X47.178 Y33.478 E33.09320
G0 F8400 X47.493 Y33.793
G1 F1800 X64.607 Y33.793 E33.42940
G1 X64.607 Y34.193 E33.43725
G1 X97.993 Y34.193 E34.09310
G1 X97.993 Y33.793 E34.10096
G1 X115.207 Y33.793 E34.43911
G1 X115.207 Y50.807 E34.77334
G1 X114.607 Y50.807 E34.78513
G1 X114.607 Y154.193 E36.81607
G1 X115.207 Y154.193 E36.82785
G1 X115.207 Y171.407 E37.16601
G1 X97.993 Y171.407 E37.50417
G1 X97.993 Y170.807 E37.51595
G1 X64.607 Y170.807 E38.17180
G1 X64.607 Y171.407 E38.18358
G1 X47.493 Y171.407 E38.51978
G1 X47.493 Y154.193 E38.85793
G1 X47.993 Y154.193 E38.86775
G1 X47.993 Y50.807 E40.89870
G1 X47.493 Y50.807 E40.90852
G1 X47.493 Y33.793 E41.24275
G0 F8400 X47.808 Y34.108
G1 F1800 X64.292 Y34.108 E41.56656
G1 X64.292 Y34.508 E41.57442
G1 X98.308 Y34.508 E42.24264
G1 X98.308 Y34.108 E42.25050
G1 X114.892 Y34.108 E42.57628
G1 X114.892 Y50.492 E42.89813
G1 X114.292 Y50.492 E42.90992
G1 X114.292 Y154.508 E44.95323
G1 X114.892 Y154.508 E44.96502
G1 X114.892 Y171.092 E45.29080
G1 X98.308 Y171.092 E45.61658
G1 X98.308 Y170.492 E45.62837
G1 X64.292 Y170.492 E46.29659
G1 X64.292 Y171.092 E46.30837
G1 X47.808 Y171.092 E46.63219
G1 X47.808 Y154.508 E46.95797
G1 X48.308 Y154.508 E46.96779
G1 X48.308 Y50.492 E49.01111
G1 X47.808 Y50.492 E49.02093
G1 X47.808 Y34.108 E49.34278
G0 F8400 X48.123 Y34.423
G1 F1800 X63.977 Y34.423 E49.65423
G1 X63.977 Y34.823 E49.66208
G1 X98.623 Y34.823 E50.34268
G1 X98.623 Y34.423 E50.35054
G1 X114.577 Y34.423 E50.66394
G1 X114.577 Y50.177 E50.97342
G1 X113.977 Y50.177 E50.98520
G1 X113.977 Y154.823 E53.04090
G1 X114.577 Y154.823 E53.05268
G1 X114.577 Y170.777 E53.36609
G1 X98.623 Y170.777 E53.67949
G1 X98.623 Y170.177 E53.69128
G1 X63.977 Y170.177 E54.37187
G1 X63.977 Y170.777 E54.38366
G1 X48.123 Y170.777 E54.69510
G1 X48.123 Y154.823 E55.00851
G1 X48.623 Y154.823 E55.01833
G1 X48.623 Y50.177 E57.07402
G1 X48.123 Y50.177 E57.08384
G1 X48.123 Y34.423 E57.39332
G0 F8400 X48.438 Y34.738
G1 F1800 X63.662 Y34.738 E57.69238
G1 X63.662 Y35.138 E57.70024
G1 X98.938 Y35.138 E58.39321
G1 X98.938 Y34.738 E58.40107
G1 X114.262 Y34.738 E58.70210
G1 X114.262 Y49.862 E58.99920
G1 X113.662 Y49.862 E59.01099
G1 X113.662 Y155.138 E61.07906
G1 X114.262 Y155.138 E61.09084
G1 X114.262 Y170.462 E61.39187
G1 X98.938 Y170.462 E61.69290
G1 X98.938 Y169.862 E61.70469
G1 X63.662 Y169.862 E62.39766
G1 X63.662 Y170.462 E62.40944
G1 X48.438 Y170.462 E62.70851
G1 X48.438 Y155.138 E63.00954
G1 X48.938 Y155.138 E63.01936
G1 X48.938 Y49.862 E65.08743
G1 X48.438 Y49.862 E65.09725
G1 X48.438 Y34.738 E65.39435
G0 F8400 X48.753 Y35.053
G1 F1800 X63.347 Y35.053 E65.68104
G1 X63.347 Y35.453 E65.68890
G1 X99.253 Y35.453 E66.39424
G1 X99.253 Y35.053 E66.40210
G1 X113.947 Y35.053 E66.69076
G1 X113.947 Y49.547 E66.97548
G1 X113.347 Y49.547 E66.98727
G1 X113.347 Y155.453 E69.06771
G1 X113.947 Y155.453 E69.07950
G1 X113.947 Y170.147 E69.36815
G1 X99.253 Y170.147 E69.65680
G1 X99.253 Y169.547 E69.66859
G1 X63.347 Y169.547 E70.37394
G1 X63.347 Y170.147 E70.38572
G1 X48.753 Y170.147 E70.67241
G1 X48.753 Y155.453 E70.96107
G1 X49.253 Y155.453 E70.97089
G1 X49.253 Y49.547 E73.05133
G1 X48.753 Y49.547 E73.06116
G1 X48.753 Y35.053 E73.34588
G0 F8400 X49.068 Y35.368
G1 F1800 X63.032 Y35.368 E73.62019
G1 X63.032 Y35.768 E73.62805
G1 X99.568 Y35.768 E74.34577
G1 X99.568 Y35.368 E74.35363
G1 X113.632 Y35.368 E74.62991
G1 X113.632 Y49.232 E74.90226
G1 X113.032 Y49.232 E74.91404
G1 X113.032 Y155.768 E77.00686
G1 X113.632 Y155.768 E77.01865
G1 X113.632 Y169.832 E77.29493
G1 X99.568 Y169.832 E77.57120
G1 X99.568 Y169.232 E77.58299
G1 X63.032 Y169.232 E78.30071
G1 X63.032 Y169.832 E78.31250
G1 X49.068 Y169.832 E78.58681
G1 X49.068 Y155.768 E78.86309
G1 X49.568 Y155.768 E78.87291
G1 X49.568 Y49.232 E80.96573
G1 X49.068 Y49.232 E80.97556
G1 X49.068 Y35.368 E81.24790
G0 F8400 X49.383 Y35.683
G1 F1800 X62.717 Y35.683 E81.50984
G1 X62.717 Y36.083 E81.51770
G1 X99.883 Y36.083 E82.24780
G1 X99.883 Y35.683 E82.25565
G1 X113.317 Y35.683 E82.51956
G1 X113.317 Y48.917 E82.77953
G1 X112.717 Y48.917 E82.79131
G1 X112.717 Y156.083 E84.89651
G1 X113.317 Y156.083 E84.90830
G1 X113.317 Y169.517 E85.17220
G1 X99.883 Y169.517 E85.43610
G1 X99.883 Y168.917 E85.44789
G1 X62.717 Y168.917 E86.17799
G1 X62.717 Y169.517 E86.18977
G1 X49.383 Y169.517 E86.45171
G1 X49.383 Y156.083 E86.71561
G1 X49.883 Y156.083 E86.72543
G1 X49.883 Y48.917 E88.83063
G1 X49.383 Y48.917 E88.84045
G1 X49.383 Y35.683 E89.10042
G0 F8400 X49.698 Y35.998
G1 F1800 X62.402 Y35.998 E89.34999
G1 X62.402 Y36.398 E89.35784
G1 X100.198 Y36.398 E90.10032
G1 X100.198 Y35.998 E90.10818
G1 X113.002 Y35.998 E90.35970
G1 X113.002 Y48.602 E90.60730
G1 X112.402 Y48.602 E90.61908
G1 X112.402 Y156.398 E92.73666
G1 X113.002 Y156.398 E92.74844
G1 X113.002 Y169.202 E92.99997
G1 X100.198 Y169.202 E93.25149
G1 X100.198 Y168.602 E93.26328
G1 X62.402 Y168.602 E94.00576
G1 X62.402 Y169.202 E94.01754
G1 X49.698 Y169.202 E94.26710
G1 X49.698 Y156.398 E94.51863
G1 X50.198 Y156.398 E94.52845
G1 X50.198 Y48.602 E96.64602
G1 X49.698 Y48.602 E96.65585
G1 X49.698 Y35.998 E96.90344
G0 F8400 X50.013 Y36.313
G1 F1800 X62.087 Y36.313 E97.14063
G1 X62.087 Y36.713 E97.14848
G1 X100.513 Y36.713 E97.90333
G1 X100.513 Y36.313 E97.91119
G1 X112.687 Y36.313 E98.15034
G1 X112.687 Y48.287 E98.38556
G1 X112.087 Y48.287 E98.39735
G1 X112.087 Y156.713 E100.52730
G1 X112.687 Y156.713 E100.53908
G1 X112.687 Y168.887 E100.77823
G1 X100.513 Y168.887 E101.01738
G1 X100.513 Y168.287 E101.02917
G1 X62.087 Y168.287 E101.78402
G1 X62.087 Y168.887 E101.79581
G1 X50.013 Y168.887 E102.03299
G1 X50.013 Y156.713 E102.27214
G1 X50.513 Y156.713 E102.28196
G1 X50.513 Y48.287 E104.41191
G1 X50.013 Y48.287 E104.42173
G1 X50.013 Y36.313 E104.65696
G0 F8400 X50.328 Y36.628
G1 F1800 X61.772 Y36.628 E104.88176
G1 X61.772 Y37.028 E104.88962
G1 X100.828 Y37.028 E105.65685
G1 X100.828 Y36.628 E105.66471
G1 X112.372 Y36.628 E105.89148
G1 X112.372 Y47.972 E106.11432
G1 X111.772 Y47.972 E106.12611
G1 X111.772 Y157.028 E108.26844
G1 X112.372 Y157.028 E108.28022
G1 X112.372 Y168.572 E108.50700
G1 X100.828 Y168.572 E108.73377
G1 X100.828 Y167.972 E108.74556
G1 X61.772 Y167.972 E109.51278
G1 X61.772 Y168.572 E109.52457
G1 X50.328 Y168.572 E109.74938
G1 X50.328 Y157.028 E109.97615
G1 X50.828 Y157.028 E109.98597
G1 X50.828 Y47.972 E112.12830
G1 X50.328 Y47.972 E112.13812
G1 X50.328 Y36.628 E112.36097
G0 F8400 X50.643 Y36.943
G1 F1800 X61.457 Y36.943 E112.57340
G1 X61.457 Y37.343 E112.58126
G1 X101.143 Y37.343 E113.36086
G1 X101.143 Y36.943 E113.36872
G1 X112.057 Y36.943 E113.58311
G1 X112.057 Y47.657 E113.79358
G1 X111.457 Y47.657 E113.80537
G1 X111.457 Y157.343 E115.96007
G1 X112.057 Y157.343 E115.97186
G1 X112.057 Y168.257 E116.18625
G1 X101.143 Y168.257 E116.40065
G1 X101.143 Y167.657 E116.41244
G1 X61.457 Y167.657 E117.19204
G1 X61.457 Y168.257 E117.20383
G1 X50.643 Y168.257 E117.41626
G1 X50.643 Y157.343 E117.63066
G1 X51.143 Y157.343 E117.64048
G1 X51.143 Y47.657 E119.79518
G1 X50.643 Y47.657 E119.80500
G1 X50.643 Y36.943 E120.01547
G1 F6600 E117.01547
G0 F8400 X51.772 Y47.972
;TYPE:WALL-INNER
G1 F6600 E120.01547
G1 F1800 X61.772 Y47.972 E120.21191
G1 X61.772 Y37.972 E120.40836
G1 X100.828 Y37.972 E121.17558
G1 X100.828 Y47.972 E121.37203
G1 X110.828 Y47.972 E121.56847
G1 X110.828 Y157.028 E123.71079
G1 X100.828 Y157.028 E123.90724
G1 X100.828 Y167.028 E124.10368
G1 X61.772 Y167.028 E124.87091
G1 X61.772 Y157.028 E125.06735
G1 X51.772 Y157.028 E125.26379
G1 X51.772 Y47.972 E127.40612
G0 F8400 X84.104 Y59.031
G1 F1800 X83.855 Y60.001 E127.42579
G1 X83.855 Y60.997 E127.44536
G1 X84.081 Y61.880 E127.46326
G1 X84.105 Y61.967 E127.46503
G1 X84.583 Y62.837 E127.48453
G1 X85.205 Y63.499 E127.50238
G1 X85.267 Y63.564 E127.50414
G1 X86.106 Y64.096 E127.52366
G1 X86.957 Y64.373 E127.54124
G1 X87.048 Y64.405 E127.54313
G1 X88.049 Y64.468 E127.56284
G1 X88.997 Y64.287 E127.58180
G1 X89.929 Y63.858 E127.60195
G1 X90.698 Y63.221 E127.62157
G1 X91.227 Y62.493 E127.63924
G1 X91.283 Y62.419 E127.64107
G1 X91.618 Y61.571 E127.65898
G1 X91.651 Y61.488 E127.66073
G1 X91.763 Y60.593 E127.67845
G1 X91.776 Y60.503 E127.68024
G1 X91.655 Y59.543 E127.69925
G1 X91.285 Y58.585 E127.71942
G1 X90.698 Y57.778 E127.73902
G1 X89.930 Y57.142 E127.75861
G1 X89.028 Y56.719 E127.77818
G1 X88.136 Y56.548 E127.79602
G1 X88.053 Y56.531 E127.79769
G1 X87.055 Y56.594 E127.81733
G1 X86.136 Y56.892 E127.83631
G1 X85.267 Y57.435 E127.85644
G1 X84.583 Y58.162 E127.87605
G1 X84.151 Y58.949 E127.89369
G1 X84.104 Y59.031 E127.89554
G0 F8400 X85.241 Y57.403
G0 X87.048 Y56.553
G0 X89.040 Y56.679
G0 X90.727 Y57.751
G0 X92.855 Y60.001
G1 F1800 X92.855 Y60.997 E127.91511
G1 X93.081 Y61.880 E127.93301
G1 X93.105 Y61.967 E127.93479
G1 X93.583 Y62.837 E127.95429
G1 X94.205 Y63.499 E127.97213
G1 X94.267 Y63.564 E127.97389
G1 X95.106 Y64.096 E127.99341
G1 X95.957 Y64.373 E128.01099
G1 X96.048 Y64.405 E128.01289
G1 X97.049 Y64.468 E128.03259
G1 X97.997 Y64.287 E128.05155
G1 X98.929 Y63.858 E128.07170
G1 X99.698 Y63.221 E128.09132
G1 X100.227 Y62.493 E128.10900
G1 X100.283 Y62.419 E128.11082
G1 X100.618 Y61.571 E128.12873
G1 X100.651 Y61.488 E128.13048
G1 X100.763 Y60.593 E128.14820
G1 X100.776 Y60.503 E128.14999
G1 X100.655 Y59.543 E128.16900
G1 X100.285 Y58.585 E128.18917
G1 X99.698 Y57.778 E128.20877
G1 X98.930 Y57.142 E128.22836
G1 X98.028 Y56.719 E128.24793
G1 X97.136 Y56.548 E128.26578
G1 X97.053 Y56.531 E128.26744
G1 X96.055 Y56.594 E128.28708
G1 X95.136 Y56.892 E128.30606
G1 X94.267 Y57.435 E128.32619
G1 X93.583 Y58.162 E128.34580
G1 X93.151 Y58.949 E128.36344
G1 X93.104 Y59.031 E128.36529
G1 X92.855 Y60.001 E128.38497
G0 F8400 X92.814 Y61.003
G0 X100.555 Y101.594
G1 F1800 X99.636 Y101.892 E128.40394
G1 X98.767 Y102.435 E128.42407
G1 X98.083 Y103.162 E128.44368
G1 X97.651 Y103.949 E128.46132
G1 X97.604 Y104.031 E128.46318
G1 X97.355 Y105.001 E128.48285
G1 X97.355 Y105.997 E128.50241
G1 X97.581 Y106.880 E128.52032
G1 X97.605 Y106.967 E128.52209
G1 X98.083 Y107.837 E128.54159
G1 X98.705 Y108.499 E128.55944
G1 X98.767 Y108.564 E128.56120
G1 X99.606 Y109.096 E128.58072
G1 X100.457 Y109.373 E128.59830
G1 X100.548 Y109.405 E128.60019
G1 X101.549 Y109.468 E128.61990
G1 X102.497 Y109.287 E128.63885
G1 X103.429 Y108.858 E128.65901
G1 X104.198 Y108.221 E128.67863
G1 X104.727 Y107.493 E128.69630
G1 X104.783 Y107.419 E128.69813
G1 X105.118 Y106.571 E128.71604
G1 X105.151 Y106.488 E128.71779
G1 X105.263 Y105.593 E128.73551
G1 X105.276 Y105.503 E128.73730
G1 X105.155 Y104.543 E128.75630
G1 X104.785 Y103.585 E128.77648
G1 X104.198 Y102.778 E128.79608
G1 X103.430 Y102.142 E128.81567
G1 X102.528 Y101.719 E128.83524
G1 X101.636 Y101.548 E128.85308
G1 X101.553 Y101.531 E128.85475
G1 X100.555 Y101.594 E128.87439
G0 F8400 X87.155 Y104.543
G1 F1800 X86.785 Y103.585 E128.89457
G1 X86.198 Y102.778 E128.91417
G1 X85.430 Y102.142 E128.93376
G1 X84.528 Y101.719 E128.95333
G1 X83.636 Y101.548 E128.97117
G1 X83.553 Y101.531 E128.97283
G1 X82.555 Y101.594 E128.99248
G1 X81.636 Y101.892 E129.01146
G1 X80.767 Y102.435 E129.03159
G1 X80.083 Y103.162 E129.05119
G1 X79.651 Y103.949 E129.06883
G1 X79.604 Y104.031 E129.07069
G1 X79.355 Y105.001 E129.09036
G1 X79.355 Y105.997 E129.10993
G1 X79.581 Y106.880 E129.12783
G1 X79.605 Y106.967 E129.12960
G1 X80.083 Y107.837 E129.14910
G1 X80.705 Y108.499 E129.16695
G1 X80.767 Y108.564 E129.16871
G1 X81.606 Y109.096 E129.18823
G1 X82.457 Y109.373 E129.20581
G1 X82.548 Y109.405 E129.20770
G1 X83.549 Y109.468 E129.22741
G1 X84.497 Y109.287 E129.24637
G1 X85.429 Y108.858 E129.26652
G1 X86.198 Y108.221 E129.28614
G1 X86.727 Y107.493 E129.30381
G1 X86.783 Y107.419 E129.30564
G1 X87.118 Y106.571 E129.32355
G1 X87.151 Y106.488 E129.32530
G1 X87.263 Y105.593 E129.34302
G1 X87.276 Y105.503 E129.34481
G1 X87.155 Y104.543 E129.36382
G0 F8400 X86.847 Y104.620
;TYPE:WALL-OUTER
G1 F1800 X86.506 Y103.737 E129.38241
G1 X85.966 Y102.996 E129.40042
G1 X85.260 Y102.410 E129.41845
G1 X84.430 Y102.020 E129.43646
G1 X83.580 Y101.859 E129.45346
G1 X83.530 Y101.848 E129.45446
G1 X82.614 Y101.906 E129.47249
G1 X81.770 Y102.180 E129.48992
G1 X80.969 Y102.681 E129.50848
G1 X80.340 Y103.349 E129.52651
G1 X79.922 Y104.109 E129.54355
G1 X79.898 Y104.151 E129.54450
G1 X79.670 Y105.041 E129.56254
G1 X79.670 Y105.958 E129.58056
G1 X79.885 Y106.799 E129.59761
G1 X79.899 Y106.848 E129.59861
G1 X80.340 Y107.650 E129.61659
G1 X80.934 Y108.282 E129.63363
G1 X80.969 Y108.318 E129.63461
G1 X81.742 Y108.809 E129.65260
G1 X82.563 Y109.075 E129.66956
G1 X82.612 Y109.093 E129.67058
G1 X83.529 Y109.151 E129.68863
G1 X84.400 Y108.985 E129.70605
G1 X85.259 Y108.589 E129.72463
G1 X85.966 Y108.003 E129.74267
G1 X86.475 Y107.304 E129.75966
G1 X86.505 Y107.263 E129.76065
G1 X86.843 Y106.409 E129.77870
G1 X86.952 Y105.550 E129.79571
G1 X86.958 Y105.501 E129.79668
G1 X86.847 Y104.620 E129.81412
G0 F8400 X87.089 Y104.528
G0 X97.412 Y105.041
G0 X97.670 Y105.041
G1 F1800 X97.670 Y105.958 E129.83213
G1 X97.885 Y106.799 E129.84919
G1 X97.899 Y106.848 E129.85019
G1 X98.340 Y107.650 E129.86817
G1 X98.934 Y108.282 E129.88520
G1 X98.969 Y108.318 E129.88619
G1 X99.742 Y108.809 E129.90418
G1 X100.563 Y109.075 E129.92113
