;FLAVOR:Marlin
;TIME:6039
;Filament used: 8.33113m
;Layer height: 0.2
;Generated with Cura_SteamEngine 3.3.1
M190 S60
M104 S210
M109 S210
M82 ;absolute extrusion mode
G21 ;metric values
G90 ;absolute positioning
M82 ;set extruder to absolute mode
M107 ;start with the fan off
G28 X0 Y0 ;move X/Y to min endstops
G28 Z0 ;move Z to min endstops
G1 Z15.0 F9000 ;move the platform down 15mm
G92 E0 ;zero the extruded length
G1 F200 E3 ;extrude 3mm of feed stock
G92 E0 ;zero the extruded length again
G1 F9000
;Put printing message on LCD screen
M117 Printing...
G92 E0
G1 F1500 E-6.5
;LAYER_COUNT:25
;LAYER:0
M107
G0 F3600 X80.602 Y38.779 Z0.3
;TYPE:SKIRT
G1 F1500 E0
G1 F2400 X80.949 Y38.066 E0.03462
G1 X81.367 Y37.391 E0.06927
G1 X81.85 Y36.762 E0.10389
G1 X82.277 Y36.301 E0.13133
G1 X82.38 Y36.198 E0.13768
G1 X82.968 Y35.665 E0.17233
G1 X83.607 Y35.195 E0.20696
G1 X84.291 Y34.792 E0.24161
G1 X85.011 Y34.459 E0.27624
G1 X85.761 Y34.201 E0.31087
G1 X86.534 Y34.019 E0.34553
G1 X87.32 Y33.916 E0.38014
G1 X87.948 Y33.891 E0.40757
G1 X147.742 Y33.891 E3.01782
G1 X148.534 Y33.931 E3.05244
G1 X149.319 Y34.05 E3.0871
G1 X150.087 Y34.248 E3.12172
G1 X150.832 Y34.523 E3.15639
G1 X151.545 Y34.87 E3.191
G1 X152.22 Y35.288 E3.22566
G1 X152.849 Y35.771 E3.26028
G1 X153.31 Y36.198 E3.28771
G1 X153.413 Y36.301 E3.29407
G1 X153.946 Y36.889 E3.32871
G1 X154.416 Y37.528 E3.36334
G1 X154.819 Y38.212 E3.398
G1 X155.152 Y38.932 E3.43263
G1 X155.41 Y39.682 E3.46725
G1 X155.592 Y40.455 E3.50192
G1 X155.695 Y41.241 E3.53652
G1 X155.72 Y41.869 E3.56396
G1 X155.72 Y171.663 E9.22998
G1 X155.68 Y172.455 E9.2646
G1 X155.561 Y173.24 E9.29926
G1 X155.363 Y174.008 E9.33388
G1 X155.088 Y174.753 E9.36855
G1 X154.741 Y175.466 E9.40316
G1 X154.323 Y176.141 E9.43782
G1 X153.84 Y176.77 E9.47244
G1 X153.413 Y177.231 E9.49987
G1 X153.31 Y177.334 E9.50623
G1 X152.722 Y177.867 E9.54087
G1 X152.083 Y178.337 E9.5755
G1 X151.399 Y178.74 E9.61016
G1 X150.679 Y179.073 E9.64479
G1 X149.929 Y179.331 E9.67941
G1 X149.156 Y179.513 E9.71408
G1 X148.37 Y179.616 E9.74868
G1 X147.742 Y179.641 E9.77612
G1 X87.948 Y179.641 E12.38636
G1 X87.156 Y179.601 E12.42098
G1 X86.371 Y179.482 E12.45564
G1 X85.603 Y179.284 E12.49026
G1 X84.858 Y179.009 E12.52493
G1 X84.145 Y178.662 E12.55955
G1 X83.47 Y178.244 E12.59421
G1 X82.841 Y177.761 E12.62882
G1 X82.38 Y177.334 E12.65626
G1 X82.277 Y177.231 E12.66261
G1 X81.744 Y176.643 E12.69726
G1 X81.274 Y176.004 E12.73189
G1 X80.871 Y175.32 E12.76654
G1 X80.538 Y174.6 E12.80117
G1 X80.28 Y173.85 E12.8358
G1 X80.098 Y173.077 E12.87046
G1 X79.995 Y172.291 E12.90507
G1 X79.97 Y171.663 E12.93251
G1 X79.97 Y41.869 E18.59852
G1 X80.01 Y41.077 E18.63314
G1 X80.129 Y40.292 E18.6678
G1 X80.327 Y39.524 E18.70242
G1 X80.602 Y38.779 E18.73709
G0 F3600 X80.951 Y38.852
G1 F2400 X81.298 Y38.159 E18.77092
G1 X81.715 Y37.505 E18.80478
G1 X82.197 Y36.897 E18.83865
G1 X82.524 Y36.548 E18.85953
G1 X82.627 Y36.445 E18.86589
G1 X83.203 Y35.926 E18.89974
G1 X83.829 Y35.468 E18.9336
G1 X84.5 Y35.078 E18.96748
G1 X85.206 Y34.758 E19.00131
G1 X85.942 Y34.513 E19.03518
G1 X86.7 Y34.345 E19.06907
G1 X87.47 Y34.256 E19.10291
G1 X87.948 Y34.241 E19.12378
G1 X147.742 Y34.241 E21.73403
G1 X148.517 Y34.281 E21.7679
G1 X149.283 Y34.4 E21.80174
G1 X150.033 Y34.598 E21.83561
G1 X150.759 Y34.872 E21.86948
G1 X151.452 Y35.219 E21.90331
G1 X152.106 Y35.636 E21.93717
G1 X152.714 Y36.118 E21.97104
G1 X153.063 Y36.445 E21.99192
G1 X153.166 Y36.548 E21.99828
G1 X153.685 Y37.124 E22.03213
G1 X154.143 Y37.75 E22.06599
G1 X154.533 Y38.421 E22.09987
G1 X154.853 Y39.127 E22.1337
G1 X155.098 Y39.863 E22.16757
G1 X155.266 Y40.621 E22.20146
G1 X155.355 Y41.391 E22.2353
G1 X155.37 Y41.869 E22.25617
G1 X155.37 Y171.663 E27.92219
G1 X155.33 Y172.438 E27.95607
G1 X155.211 Y173.204 E27.98991
G1 X155.013 Y173.954 E28.02377
G1 X154.739 Y174.68 E28.05764
G1 X154.392 Y175.373 E28.09148
G1 X153.975 Y176.027 E28.12534
G1 X153.493 Y176.635 E28.15921
G1 X153.166 Y176.984 E28.18008
G1 X153.063 Y177.087 E28.18644
G1 X152.487 Y177.606 E28.22029
G1 X151.861 Y178.064 E28.25415
G1 X151.19 Y178.454 E28.28803
G1 X150.484 Y178.774 E28.32187
G1 X149.748 Y179.019 E28.35573
G1 X148.99 Y179.187 E28.38962
G1 X148.22 Y179.276 E28.42346
G1 X147.742 Y179.291 E28.44434
G1 X87.948 Y179.291 E31.05458
G1 X87.173 Y179.251 E31.08846
G1 X86.407 Y179.132 E31.1223
G1 X85.657 Y178.934 E31.15616
G1 X84.931 Y178.66 E31.19003
G1 X84.238 Y178.313 E31.22387
G1 X83.584 Y177.896 E31.25773
G1 X82.976 Y177.414 E31.2916
G1 X82.627 Y177.087 E31.31247
G1 X82.524 Y176.984 E31.31883
G1 X82.005 Y176.408 E31.35268
G1 X81.547 Y175.782 E31.38654
G1 X81.157 Y175.111 E31.42042
G1 X80.837 Y174.405 E31.45426
G1 X80.592 Y173.669 E31.48812
G1 X80.424 Y172.911 E31.52201
G1 X80.335 Y172.141 E31.55585
G1 X80.32 Y171.663 E31.57673
G1 X80.32 Y41.869 E37.24274
G1 X80.36 Y41.094 E37.27662
G1 X80.479 Y40.328 E37.31046
G1 X80.677 Y39.578 E37.34432
G1 X80.951 Y38.852 E37.3782
G0 F3600 X81.301 Y38.927
G1 F2400 X81.647 Y38.254 E37.41123
G1 X82.063 Y37.621 E37.4443
G1 X82.772 Y36.796 E37.49179
G1 X82.875 Y36.693 E37.49814
G1 X83.438 Y36.186 E37.53122
G1 X84.051 Y35.742 E37.56426
G1 X84.708 Y35.364 E37.59735
G1 X85.4 Y35.058 E37.63038
G1 X86.122 Y34.827 E37.66347
G1 X86.863 Y34.673 E37.69651
G1 X87.948 Y34.591 E37.74401
G1 X147.742 Y34.591 E40.35425
G1 X148.498 Y34.631 E40.3873
G1 X149.246 Y34.75 E40.42036
G1 X149.977 Y34.948 E40.45343
G1 X150.684 Y35.222 E40.48653
G1 X151.357 Y35.568 E40.51956
G1 X151.99 Y35.984 E40.55263
G1 X152.815 Y36.693 E40.60011
G1 X152.918 Y36.796 E40.60647
G1 X153.425 Y37.359 E40.63955
G1 X153.869 Y37.972 E40.67259
G1 X154.247 Y38.629 E40.70568
G1 X154.553 Y39.321 E40.73871
G1 X154.784 Y40.043 E40.7718
G1 X154.938 Y40.784 E40.80484
G1 X155.02 Y41.869 E40.85234
G1 X155.02 Y171.663 E46.51835
G1 X154.98 Y172.419 E46.5514
G1 X154.861 Y173.167 E46.58447
G1 X154.663 Y173.898 E46.61753
G1 X154.389 Y174.605 E46.65063
G1 X154.043 Y175.278 E46.68366
G1 X153.627 Y175.911 E46.71673
G1 X152.918 Y176.736 E46.76422
G1 X152.815 Y176.839 E46.77057
G1 X152.252 Y177.346 E46.80365
G1 X151.639 Y177.79 E46.83669
G1 X150.982 Y178.168 E46.86978
G1 X150.29 Y178.474 E46.90281
G1 X149.568 Y178.705 E46.9359
G1 X148.827 Y178.859 E46.96894
G1 X147.742 Y178.941 E47.01644
G1 X87.948 Y178.941 E49.62668
G1 X87.192 Y178.901 E49.65973
G1 X86.444 Y178.782 E49.69279
G1 X85.713 Y178.584 E49.72586
G1 X85.006 Y178.31 E49.75896
G1 X84.333 Y177.964 E49.79199
G1 X83.7 Y177.548 E49.82506
G1 X82.875 Y176.839 E49.87254
G1 X82.772 Y176.736 E49.8789
G1 X82.265 Y176.173 E49.91198
G1 X81.821 Y175.56 E49.94502
G1 X81.443 Y174.903 E49.97811
G1 X81.137 Y174.211 E50.01114
G1 X80.906 Y173.489 E50.04423
G1 X80.752 Y172.748 E50.07727
G1 X80.67 Y171.663 E50.12477
G1 X80.67 Y41.869 E55.79078
G1 X80.71 Y41.113 E55.82383
G1 X80.829 Y40.365 E55.8569
G1 X81.027 Y39.634 E55.88996
G1 X81.301 Y38.927 E55.92306
G0 F3600 X81.65 Y39.005
G1 F2400 X81.996 Y38.352 E55.95532
G1 X82.41 Y37.74 E55.98757
G1 X83.019 Y37.043 E56.02798
G1 X83.122 Y36.94 E56.03434
G1 X83.672 Y36.447 E56.06658
G1 X84.272 Y36.016 E56.09883
G1 X84.915 Y35.652 E56.13108
G1 X85.593 Y35.36 E56.16331
G1 X86.299 Y35.143 E56.19555
G1 X87.025 Y35.004 E56.22782
G1 X87.948 Y34.941 E56.26821
G1 X147.742 Y34.941 E58.87845
G1 X148.48 Y34.981 E58.91071
G1 X149.208 Y35.1 E58.94292
G1 X149.92 Y35.298 E58.97518
G1 X150.606 Y35.571 E59.00741
G1 X151.259 Y35.917 E59.03967
G1 X151.871 Y36.331 E59.07192
G1 X152.568 Y36.94 E59.11233
G1 X152.671 Y37.043 E59.11869
G1 X153.164 Y37.593 E59.15093
G1 X153.595 Y38.193 E59.18318
G1 X153.959 Y38.836 E59.21544
G1 X154.251 Y39.514 E59.24766
G1 X154.468 Y40.22 E59.2799
G1 X154.607 Y40.946 E59.31217
G1 X154.67 Y41.869 E59.35256
G1 X154.67 Y171.663 E65.01858
G1 X154.63 Y172.401 E65.05084
G1 X154.511 Y173.129 E65.08304
G1 X154.313 Y173.841 E65.1153
G1 X154.04 Y174.527 E65.14753
G1 X153.694 Y175.18 E65.17979
G1 X153.28 Y175.792 E65.21205
G1 X152.671 Y176.489 E65.25245
G1 X152.568 Y176.592 E65.25881
G1 X152.018 Y177.085 E65.29106
G1 X151.418 Y177.516 E65.32331
G1 X150.775 Y177.88 E65.35556
G1 X150.097 Y178.172 E65.38779
G1 X149.391 Y178.389 E65.42003
G1 X148.665 Y178.528 E65.4523
G1 X147.742 Y178.591 E65.49268
G1 X87.948 Y178.591 E68.10293
G1 X87.21 Y178.551 E68.13519
G1 X86.482 Y178.432 E68.16739
G1 X85.77 Y178.234 E68.19965
G1 X85.084 Y177.961 E68.23188
G1 X84.431 Y177.615 E68.26414
G1 X83.819 Y177.201 E68.2964
G1 X83.122 Y176.592 E68.3368
G1 X83.019 Y176.489 E68.34316
G1 X82.526 Y175.939 E68.37541
G1 X82.095 Y175.339 E68.40766
G1 X81.731 Y174.696 E68.43991
G1 X81.439 Y174.018 E68.47214
G1 X81.222 Y173.312 E68.50438
G1 X81.083 Y172.586 E68.53665
G1 X81.02 Y171.663 E68.57703
G1 X81.02 Y41.869 E74.24305
G1 X81.06 Y41.131 E74.27532
G1 X81.179 Y40.403 E74.30752
G1 X81.377 Y39.691 E74.33978
G1 X81.65 Y39.005 E74.37201
G0 F3600 X82 Y39.084
G1 F2400 X82.345 Y38.452 E74.40344
G1 X82.758 Y37.863 E74.43485
G1 X83.266 Y37.29 E74.46827
G1 X83.369 Y37.187 E74.47463
G1 X83.906 Y36.708 E74.50605
G1 X84.492 Y36.291 E74.53744
G1 X85.121 Y35.941 E74.56887
G1 X85.784 Y35.663 E74.60025
G1 X86.475 Y35.461 E74.63168
G1 X87.183 Y35.336 E74.66306
G1 X87.948 Y35.291 E74.69651
G1 X147.742 Y35.291 E77.30676
G1 X148.46 Y35.331 E77.33815
G1 X149.17 Y35.45 E77.36958
G1 X149.862 Y35.648 E77.401
G1 X150.527 Y35.921 E77.43238
G1 X151.159 Y36.266 E77.46381
G1 X151.748 Y36.679 E77.49521
G1 X152.321 Y37.187 E77.52864
G1 X152.424 Y37.29 E77.535
G1 X152.903 Y37.827 E77.56641
G1 X153.32 Y38.413 E77.59781
G1 X153.67 Y39.042 E77.62923
G1 X153.948 Y39.705 E77.66062
G1 X154.15 Y40.396 E77.69205
G1 X154.275 Y41.104 E77.72343
G1 X154.32 Y41.869 E77.75688
G1 X154.32 Y171.663 E83.4229
G1 X154.28 Y172.381 E83.45429
G1 X154.161 Y173.091 E83.48572
G1 X153.963 Y173.783 E83.51714
G1 X153.69 Y174.448 E83.54852
G1 X153.345 Y175.08 E83.57995
G1 X152.932 Y175.669 E83.61136
G1 X152.424 Y176.242 E83.64479
G1 X152.321 Y176.345 E83.65114
G1 X151.784 Y176.824 E83.68256
G1 X151.198 Y177.241 E83.71395
G1 X150.569 Y177.591 E83.74538
G1 X149.906 Y177.869 E83.77676
G1 X149.215 Y178.071 E83.80819
G1 X148.507 Y178.196 E83.83957
G1 X147.742 Y178.241 E83.87303
G1 X87.948 Y178.241 E86.48327
G1 X87.23 Y178.201 E86.51466
G1 X86.52 Y178.082 E86.54609
G1 X85.828 Y177.884 E86.57751
G1 X85.163 Y177.611 E86.60889
G1 X84.531 Y177.266 E86.64032
G1 X83.942 Y176.853 E86.67173
G1 X83.369 Y176.345 E86.70515
G1 X83.266 Y176.242 E86.71151
G1 X82.787 Y175.705 E86.74293
G1 X82.37 Y175.119 E86.77432
G1 X82.02 Y174.49 E86.80575
G1 X81.742 Y173.827 E86.83713
G1 X81.54 Y173.136 E86.86856
G1 X81.415 Y172.428 E86.89994
G1 X81.37 Y171.663 E86.93339
G1 X81.37 Y41.869 E92.59941
G1 X81.41 Y41.151 E92.6308
G1 X81.529 Y40.441 E92.66223
G1 X81.727 Y39.749 E92.69365
G1 X82 Y39.084 E92.72503
G0 F3600 X82.349 Y39.165
G1 F2400 X82.693 Y38.556 E92.75557
G1 X83.105 Y37.99 E92.78613
G1 X83.514 Y37.538 E92.81274
G1 X83.617 Y37.435 E92.8191
G1 X84.139 Y36.969 E92.84964
G1 X84.711 Y36.566 E92.88019
G1 X85.325 Y36.231 E92.91072
G1 X85.974 Y35.968 E92.94129
G1 X86.648 Y35.781 E92.97182
G1 X87.339 Y35.671 E93.00237
G1 X87.948 Y35.641 E93.02899
G1 X147.742 Y35.641 E95.63923
G1 X148.441 Y35.681 E95.66979
G1 X149.13 Y35.8 E95.70032
G1 X149.801 Y35.998 E95.73086
G1 X150.446 Y36.27 E95.76142
G1 X151.055 Y36.614 E95.79195
G1 X151.621 Y37.026 E95.82251
G1 X152.073 Y37.435 E95.84912
G1 X152.176 Y37.538 E95.85548
G1 X152.642 Y38.06 E95.88603
G1 X153.045 Y38.632 E95.91657
G1 X153.38 Y39.246 E95.9471
G1 X153.643 Y39.895 E95.97767
G1 X153.83 Y40.569 E96.00821
G1 X153.94 Y41.26 E96.03875
G1 X153.97 Y41.869 E96.06537
G1 X153.97 Y171.663 E101.73139
G1 X153.93 Y172.362 E101.76195
G1 X153.811 Y173.051 E101.79247
G1 X153.613 Y173.722 E101.82301
G1 X153.341 Y174.367 E101.85357
G1 X152.997 Y174.976 E101.88411
G1 X152.585 Y175.542 E101.91467
G1 X152.176 Y175.994 E101.94128
G1 X152.073 Y176.097 E101.94764
G1 X151.551 Y176.563 E101.97818
G1 X150.979 Y176.966 E102.00873
G1 X150.365 Y177.301 E102.03926
G1 X149.716 Y177.564 E102.06983
G1 X149.042 Y177.751 E102.10036
G1 X148.351 Y177.861 E102.13091
G1 X147.742 Y177.891 E102.15753
G1 X87.948 Y177.891 E104.76777
G1 X87.249 Y177.851 E104.79833
G1 X86.56 Y177.732 E104.82886
G1 X85.889 Y177.534 E104.8594
G1 X85.244 Y177.262 E104.88995
G1 X84.635 Y176.918 E104.92049
G1 X84.069 Y176.506 E104.95105
G1 X83.617 Y176.097 E104.97766
G1 X83.514 Y175.994 E104.98402
G1 X83.048 Y175.472 E105.01456
G1 X82.645 Y174.9 E105.04511
G1 X82.31 Y174.286 E105.07564
G1 X82.047 Y173.637 E105.10621
G1 X81.86 Y172.963 E105.13675
G1 X81.75 Y172.272 E105.16729
G1 X81.72 Y171.663 E105.19391
G1 X81.72 Y41.869 E110.85993
G1 X81.76 Y41.17 E110.89049
G1 X81.879 Y40.481 E110.92101
G1 X82.077 Y39.81 E110.95155
G1 X82.349 Y39.165 E110.98211
G0 F3600 X82.426 Y39.872
G1 F2400 X82.698 Y39.249 E111.01179
G1 X83.042 Y38.663 E111.04145
G1 X83.452 Y38.121 E111.07112
G1 X83.761 Y37.785 E111.09105
G1 X83.864 Y37.682 E111.0974
G1 X84.372 Y37.231 E111.12706
G1 X84.93 Y36.843 E111.15673
G1 X85.529 Y36.522 E111.18639
G1 X86.161 Y36.274 E111.21603
G1 X86.819 Y36.102 E111.24572
G1 X87.492 Y36.009 E111.27538
G1 X87.948 Y35.991 E111.2953
G1 X147.742 Y35.991 E113.90554
G1 X148.42 Y36.031 E113.93519
G1 X149.089 Y36.15 E113.96486
G1 X149.739 Y36.347 E113.99451
G1 X150.362 Y36.619 E114.02418
G1 X150.948 Y36.963 E114.05384
G1 X151.49 Y37.373 E114.08351
G1 X151.826 Y37.682 E114.10344
G1 X151.929 Y37.785 E114.1098
G1 X152.38 Y38.293 E114.13945
G1 X152.768 Y38.851 E114.16912
G1 X153.089 Y39.45 E114.19879
G1 X153.337 Y40.082 E114.22843
G1 X153.509 Y40.74 E114.25812
G1 X153.602 Y41.413 E114.28777
G1 X153.62 Y41.869 E114.3077
G1 X153.62 Y171.663 E119.97371
G1 X153.58 Y172.341 E120.00336
G1 X153.461 Y173.01 E120.03302
G1 X153.264 Y173.66 E120.06267
G1 X152.992 Y174.283 E120.09235
G1 X152.648 Y174.869 E120.12201
G1 X152.238 Y175.411 E120.15168
G1 X151.929 Y175.747 E120.17161
G1 X151.826 Y175.85 E120.17797
G1 X151.318 Y176.301 E120.20762
G1 X150.76 Y176.689 E120.23729
G1 X150.161 Y177.01 E120.26696
G1 X149.529 Y177.258 E120.29659
G1 X148.871 Y177.43 E120.32628
G1 X148.198 Y177.523 E120.35594
G1 X147.742 Y177.541 E120.37586
G1 X87.948 Y177.541 E122.98611
G1 X87.27 Y177.501 E123.01576
G1 X86.601 Y177.382 E123.04542
G1 X85.951 Y177.185 E123.07507
G1 X85.328 Y176.913 E123.10474
G1 X84.742 Y176.569 E123.13441
G1 X84.2 Y176.159 E123.16407
G1 X83.864 Y175.85 E123.184
G1 X83.761 Y175.747 E123.19036
G1 X83.31 Y175.239 E123.22001
G1 X82.922 Y174.681 E123.24968
G1 X82.601 Y174.082 E123.27935
G1 X82.353 Y173.45 E123.30899
G1 X82.181 Y172.792 E123.33868
G1 X82.088 Y172.119 E123.36834
G1 X82.07 Y171.663 E123.38826
G1 X82.07 Y41.869 E129.05427
G1 X82.11 Y41.191 E129.08392
G1 X82.229 Y40.522 E129.11359
G1 X82.426 Y39.872 E129.14324
G0 F3600 X82.776 Y39.936
G1 F2400 X83.048 Y39.336 E129.17199
G1 X83.39 Y38.773 E129.20075
G1 X84.009 Y38.033 E129.24287
G1 X84.112 Y37.93 E129.24923
G1 X84.605 Y37.493 E129.27798
G1 X85.147 Y37.12 E129.30671
G1 X85.731 Y36.815 E129.33547
G1 X86.347 Y36.583 E129.3642
G1 X86.987 Y36.427 E129.39296
G1 X87.948 Y36.341 E129.43508
G1 X147.742 Y36.341 E132.04532
G1 X148.399 Y36.381 E132.07405
G1 X149.047 Y36.5 E132.10282
G1 X149.675 Y36.697 E132.13155
G1 X150.275 Y36.969 E132.16031
G1 X150.838 Y37.311 E132.18906
G1 X151.578 Y37.93 E132.23118
G1 X151.681 Y38.033 E132.23754
G1 X152.118 Y38.526 E132.2663
G1 X152.491 Y39.068 E132.29502
G1 X152.796 Y39.652 E132.32378
G1 X153.028 Y40.268 E132.35251
G1 X153.184 Y40.908 E132.38127
G1 X153.27 Y41.869 E132.42339
G1 X153.27 Y171.663 E138.08941
G1 X153.23 Y172.32 E138.11814
G1 X153.111 Y172.968 E138.1469
G1 X152.914 Y173.596 E138.17563
G1 X152.642 Y174.196 E138.20439
G1 X152.3 Y174.759 E138.23315
G1 X151.681 Y175.499 E138.27526
G1 X151.578 Y175.602 E138.28162
G1 X151.085 Y176.039 E138.31038
G1 X150.543 Y176.412 E138.3391
G1 X149.959 Y176.717 E138.36786
G1 X149.343 Y176.949 E138.3966
G1 X148.703 Y177.105 E138.42536
G1 X147.742 Y177.191 E138.46747
G1 X87.948 Y177.191 E141.07772
G1 X87.291 Y177.151 E141.10645
G1 X86.643 Y177.032 E141.13521
G1 X86.015 Y176.835 E141.16394
G1 X85.415 Y176.563 E141.1927
