;FLAVOR:Marlin
;TIME:13765
;Filament used: 18.7422m
;Layer height: 0.2
;Generated with Cura_SteamEngine 3.3.1
M190 S60
M104 S210
M109 S210
M82 ;absolute extrusion mode
G21 ;metric values
G90 ;absolute positioning
M82 ;set extruder to absolute mode
M107 ;start with the fan off
G28 X0 Y0 ;move X/Y to min endstops
G28 Z0 ;move Z to min endstops
G1 Z15.0 F9000 ;move the platform down 15mm
G92 E0 ;zero the extruded length
G1 F200 E3 ;extrude 3mm of feed stock
G92 E0 ;zero the extruded length again
G1 F9000
;Put printing message on LCD screen
M117 Printing...
G92 E0
G1 F1500 E-6.5
;LAYER_COUNT:200
;LAYER:0
M107
G0 F3600 X78.022 Y38.808 Z0.3
;TYPE:SKIRT
G1 F1500 E0
G1 F2400 X78.44 Y38.133 E0.03466
G1 X78.923 Y37.504 E0.06928
G1 X79.35 Y37.043 E0.09671
G1 X79.57 Y36.823 E0.11029
G1 X80.158 Y36.29 E0.14494
G1 X80.797 Y35.82 E0.17956
G1 X81.481 Y35.417 E0.21422
G1 X82.201 Y35.084 E0.24885
G1 X82.951 Y34.826 E0.28347
G1 X83.724 Y34.644 E0.31814
G1 X84.51 Y34.541 E0.35275
G1 X85.139 Y34.516 E0.38023
G1 X90.569 Y34.517 E0.61727
G1 X91.362 Y34.557 E0.65193
G1 X92.146 Y34.677 E0.68655
G1 X92.915 Y34.875 E0.72122
G1 X93.659 Y35.149 E0.75583
G1 X94.372 Y35.497 E0.79046
G1 X95.047 Y35.915 E0.82512
G1 X95.676 Y36.398 E0.85974
G1 X96.253 Y36.943 E0.89439
G1 X96.773 Y37.543 E0.92905
G1 X97.229 Y38.192 E0.96367
G1 X97.618 Y38.883 E0.99829
G1 X97.935 Y39.61 E1.03291
G1 X98.178 Y40.366 E1.06758
G1 X98.252 Y40.716 E1.08319
G1 X131.98 Y40.716 E2.55555
G1 X132.014 Y40.536 E2.56355
G1 X132.239 Y39.775 E2.59819
G1 X132.54 Y39.041 E2.63283
G1 X132.913 Y38.341 E2.66745
G1 X133.355 Y37.682 E2.70209
G1 X133.861 Y37.07 E2.73675
G1 X134.426 Y36.513 E2.77139
G1 X135.044 Y36.016 E2.80601
G1 X135.709 Y35.583 E2.84065
G1 X136.414 Y35.219 E2.87529
G1 X137.153 Y34.928 E2.90996
G1 X137.916 Y34.713 E2.94456
G1 X138.698 Y34.576 E2.97922
G1 X139.667 Y34.516 E3.0216
G1 X145.098 Y34.516 E3.25869
G1 X145.89 Y34.556 E3.2933
G1 X146.675 Y34.675 E3.32796
G1 X147.443 Y34.873 E3.36259
G1 X148.188 Y35.148 E3.39725
G1 X148.901 Y35.495 E3.43187
G1 X149.576 Y35.913 E3.46653
G1 X150.205 Y36.396 E3.50115
G1 X150.666 Y36.823 E3.52858
G1 X150.886 Y37.043 E3.54216
G1 X151.419 Y37.631 E3.57681
G1 X151.889 Y38.27 E3.61143
G1 X152.292 Y38.954 E3.64609
G1 X152.625 Y39.674 E3.68072
G1 X152.883 Y40.424 E3.71534
G1 X153.065 Y41.197 E3.75001
G1 X153.168 Y41.983 E3.78462
G1 X153.193 Y42.611 E3.81205
G1 X153.193 Y67.571 E4.90165
G1 X153.153 Y68.363 E4.93627
G1 X153.034 Y69.148 E4.97093
G1 X152.836 Y69.916 E5.00555
G1 X152.561 Y70.661 E5.04022
G1 X152.214 Y71.374 E5.07484
G1 X151.796 Y72.049 E5.1095
G1 X151.313 Y72.678 E5.14412
G1 X150.886 Y73.139 E5.17155
G1 X150.666 Y73.359 E5.18513
G1 X150.078 Y73.892 E5.21977
G1 X149.439 Y74.362 E5.2544
G1 X148.755 Y74.765 E5.28906
G1 X148.035 Y75.098 E5.32369
G1 X147.285 Y75.356 E5.35831
G1 X146.512 Y75.538 E5.39298
G1 X145.726 Y75.641 E5.42758
G1 X145.098 Y75.666 E5.45502
G1 X142.518 Y75.666 E5.56765
G1 X141.993 Y75.639 E5.5906
G1 X141.993 Y139.537 E8.37999
G1 X142.057 Y139.53 E8.3828
G1 X142.519 Y139.516 E8.40298
G1 X145.098 Y139.516 E8.51557
G1 X145.89 Y139.556 E8.55018
G1 X146.675 Y139.675 E8.58484
G1 X147.443 Y139.873 E8.61947
G1 X148.188 Y140.148 E8.65413
G1 X148.901 Y140.495 E8.68875
G1 X149.576 Y140.913 E8.72341
G1 X150.205 Y141.396 E8.75803
G1 X150.666 Y141.823 E8.78546
G1 X150.886 Y142.043 E8.79904
G1 X151.419 Y142.631 E8.83368
G1 X151.889 Y143.27 E8.86831
G1 X152.292 Y143.954 E8.90297
G1 X152.625 Y144.674 E8.9376
G1 X152.883 Y145.424 E8.97222
G1 X153.065 Y146.197 E9.00689
G1 X153.168 Y146.983 E9.04149
G1 X153.193 Y147.611 E9.06893
G1 X153.193 Y172.571 E10.15853
G1 X153.153 Y173.363 E10.19315
G1 X153.034 Y174.148 E10.22781
G1 X152.836 Y174.916 E10.26243
G1 X152.561 Y175.661 E10.2971
G1 X152.214 Y176.374 E10.33172
G1 X151.796 Y177.049 E10.36637
G1 X151.313 Y177.678 E10.40099
G1 X150.886 Y178.139 E10.42843
G1 X150.666 Y178.359 E10.44201
G1 X150.078 Y178.892 E10.47665
G1 X149.439 Y179.362 E10.51128
G1 X148.755 Y179.765 E10.54594
G1 X148.035 Y180.098 E10.58057
G1 X147.285 Y180.356 E10.61519
G1 X146.512 Y180.538 E10.64986
G1 X145.726 Y180.641 E10.68446
G1 X145.098 Y180.666 E10.7119
G1 X135.138 Y180.666 E11.14669
G1 X134.346 Y180.626 E11.18131
G1 X133.561 Y180.507 E11.21597
G1 X132.793 Y180.309 E11.25059
G1 X132.048 Y180.034 E11.28526
G1 X131.335 Y179.687 E11.31987
G1 X130.66 Y179.269 E11.35453
G1 X130.031 Y178.786 E11.38915
G1 X129.57 Y178.359 E11.41658
G1 X129.35 Y178.139 E11.43017
G1 X128.817 Y177.551 E11.46481
G1 X128.347 Y176.912 E11.49944
G1 X127.944 Y176.228 E11.53409
G1 X127.611 Y175.508 E11.56872
G1 X127.353 Y174.758 E11.60335
G1 X127.171 Y173.985 E11.63802
G1 X127.068 Y173.199 E11.67262
G1 X127.043 Y172.571 E11.70006
G1 X127.043 Y165.94 E11.98953
G1 X127.067 Y165.466 E12.01024
G1 X120.221 Y165.466 E12.3091
G1 X119.429 Y165.426 E12.34372
G1 X118.644 Y165.307 E12.37838
G1 X117.876 Y165.109 E12.413
G1 X117.131 Y164.834 E12.44767
G1 X116.418 Y164.487 E12.48228
G1 X115.743 Y164.069 E12.51694
G1 X115.114 Y163.586 E12.55156
G1 X115.113 Y163.585 E12.55162
G1 X114.995 Y163.692 E12.55858
G1 X114.356 Y164.162 E12.5932
G1 X113.672 Y164.565 E12.62786
G1 X112.952 Y164.898 E12.66249
G1 X112.202 Y165.156 E12.69711
G1 X111.429 Y165.338 E12.73178
G1 X110.643 Y165.441 E12.76639
G1 X110.015 Y165.466 E12.79382
G1 X103.166 Y165.466 E13.09281
G1 X103.193 Y165.939 E13.11349
G1 X103.193 Y172.571 E13.403
G1 X103.153 Y173.363 E13.43762
G1 X103.034 Y174.148 E13.47228
G1 X102.836 Y174.916 E13.5069
G1 X102.561 Y175.661 E13.54157
G1 X102.214 Y176.374 E13.57619
G1 X101.796 Y177.049 E13.61085
G1 X101.313 Y177.678 E13.64546
G1 X100.886 Y178.139 E13.6729
G1 X100.666 Y178.359 E13.68648
G1 X100.078 Y178.892 E13.72112
G1 X99.439 Y179.362 E13.75575
G1 X98.755 Y179.765 E13.79041
G1 X98.035 Y180.098 E13.82504
G1 X97.285 Y180.356 E13.85966
G1 X96.512 Y180.538 E13.89433
G1 X95.726 Y180.641 E13.92893
G1 X95.098 Y180.666 E13.95637
G1 X85.138 Y180.666 E14.39116
G1 X84.346 Y180.626 E14.42578
G1 X83.561 Y180.507 E14.46044
G1 X82.793 Y180.309 E14.49506
G1 X82.048 Y180.034 E14.52973
G1 X81.335 Y179.687 E14.56434
G1 X80.66 Y179.269 E14.599
G1 X80.031 Y178.786 E14.63362
G1 X79.57 Y178.359 E14.66105
G1 X79.35 Y178.139 E14.67464
G1 X78.817 Y177.551 E14.70928
G1 X78.347 Y176.912 E14.74391
G1 X77.944 Y176.228 E14.77857
G1 X77.611 Y175.508 E14.81319
G1 X77.353 Y174.758 E14.84782
G1 X77.171 Y173.985 E14.88249
G1 X77.068 Y173.199 E14.91709
G1 X77.043 Y172.571 E14.94453
G1 X77.043 Y147.611 E16.03413
G1 X77.083 Y146.819 E16.06875
G1 X77.202 Y146.034 E16.10341
G1 X77.4 Y145.266 E16.13803
G1 X77.675 Y144.521 E16.1727
G1 X78.022 Y143.808 E16.20731
G1 X78.44 Y143.133 E16.24197
G1 X78.923 Y142.504 E16.27659
G1 X79.35 Y142.043 E16.30402
G1 X79.57 Y141.823 E16.3176
G1 X80.158 Y141.29 E16.35225
G1 X80.797 Y140.82 E16.38688
G1 X81.481 Y140.417 E16.42153
G1 X82.201 Y140.084 E16.45616
G1 X82.951 Y139.826 E16.49079
G1 X83.724 Y139.644 E16.52545
G1 X84.51 Y139.541 E16.56006
G1 X85.141 Y139.516 E16.58763
G1 X87.721 Y139.517 E16.70025
G1 X88.243 Y139.543 E16.72307
G1 X88.243 Y75.645 E19.51247
G1 X88.179 Y75.652 E19.51528
G1 X87.717 Y75.666 E19.53545
G1 X85.138 Y75.666 E19.64804
G1 X84.346 Y75.626 E19.68266
G1 X83.561 Y75.507 E19.71732
G1 X82.793 Y75.309 E19.75194
G1 X82.048 Y75.034 E19.78661
G1 X81.335 Y74.687 E19.82122
G1 X80.66 Y74.269 E19.85588
G1 X80.031 Y73.786 E19.8905
G1 X79.57 Y73.359 E19.91793
G1 X79.35 Y73.139 E19.93151
G1 X78.817 Y72.551 E19.96616
G1 X78.347 Y71.912 E20.00079
G1 X77.944 Y71.228 E20.03544
G1 X77.611 Y70.508 E20.07007
G1 X77.353 Y69.758 E20.10469
G1 X77.171 Y68.985 E20.13936
G1 X77.068 Y68.199 E20.17397
G1 X77.043 Y67.571 E20.2014
G1 X77.043 Y42.611 E21.29101
G1 X77.083 Y41.819 E21.32562
G1 X77.202 Y41.034 E21.36028
G1 X77.4 Y40.266 E21.39491
G1 X77.675 Y39.521 E21.42957
G1 X78.022 Y38.808 E21.46419
G0 F3600 X78.371 Y38.901
G1 F2400 X78.788 Y38.247 E21.49805
G1 X79.27 Y37.639 E21.53192
G1 X79.597 Y37.29 E21.5528
G1 X79.817 Y37.07 E21.56638
G1 X80.393 Y36.551 E21.60022
G1 X81.019 Y36.093 E21.63408
G1 X81.69 Y35.703 E21.66796
G1 X82.396 Y35.383 E21.7018
G1 X83.132 Y35.138 E21.73567
G1 X83.89 Y34.97 E21.76956
G1 X84.66 Y34.881 E21.80339
G1 X85.139 Y34.866 E21.82432
G1 X90.569 Y34.867 E22.06136
G1 X91.344 Y34.907 E22.09523
G1 X92.11 Y35.027 E22.12908
G1 X92.86 Y35.225 E22.16294
G1 X93.586 Y35.499 E22.19682
G1 X94.279 Y35.846 E22.23065
G1 X94.934 Y36.263 E22.26455
G1 X95.541 Y36.745 E22.29838
G1 X96.096 Y37.287 E22.33225
G1 X96.592 Y37.883 E22.3661
G1 X97.025 Y38.527 E22.39997
G1 X97.388 Y39.212 E22.43381
G1 X97.679 Y39.931 E22.46767
G1 X97.895 Y40.676 E22.50154
G1 X97.965 Y41.066 E22.51883
G1 X132.266 Y41.066 E24.01621
G1 X132.397 Y40.449 E24.04374
G1 X132.635 Y39.711 E24.07759
G1 X132.949 Y39.002 E24.11144
G1 X133.333 Y38.328 E24.1453
G1 X133.785 Y37.698 E24.17915
G1 X134.299 Y37.117 E24.21302
G1 X134.871 Y36.593 E24.24688
G1 X135.493 Y36.13 E24.28073
G1 X136.16 Y35.733 E24.31461
G1 X136.864 Y35.408 E24.34846
G1 X137.597 Y35.156 E24.3823
G1 X138.353 Y34.982 E24.41617
G1 X139.123 Y34.886 E24.45004
G1 X139.667 Y34.866 E24.4738
G1 X145.098 Y34.866 E24.71089
G1 X145.873 Y34.906 E24.74476
G1 X146.639 Y35.025 E24.7786
G1 X147.389 Y35.223 E24.81247
G1 X148.115 Y35.497 E24.84634
G1 X148.808 Y35.844 E24.88017
G1 X149.462 Y36.261 E24.91403
G1 X150.07 Y36.743 E24.9479
G1 X150.419 Y37.07 E24.96878
G1 X150.639 Y37.29 E24.98236
G1 X151.158 Y37.866 E25.01621
G1 X151.616 Y38.492 E25.05007
G1 X152.006 Y39.163 E25.08395
G1 X152.326 Y39.869 E25.11779
G1 X152.571 Y40.605 E25.15165
G1 X152.739 Y41.363 E25.18554
G1 X152.828 Y42.133 E25.21938
G1 X152.843 Y42.611 E25.24026
G1 X152.843 Y67.571 E26.32986
G1 X152.803 Y68.346 E26.36374
G1 X152.684 Y69.112 E26.39758
G1 X152.486 Y69.862 E26.43144
G1 X152.212 Y70.588 E26.46531
G1 X151.865 Y71.281 E26.49915
G1 X151.448 Y71.935 E26.533
G1 X150.966 Y72.543 E26.56688
G1 X150.639 Y72.892 E26.58775
G1 X150.419 Y73.112 E26.60133
G1 X149.843 Y73.631 E26.63518
G1 X149.217 Y74.089 E26.66904
G1 X148.546 Y74.479 E26.70292
G1 X147.84 Y74.799 E26.73676
G1 X147.104 Y75.044 E26.77062
G1 X146.346 Y75.212 E26.80451
G1 X145.576 Y75.301 E26.83835
G1 X145.098 Y75.316 E26.85923
G1 X142.518 Y75.316 E26.97186
G1 X141.743 Y75.276 E27.00573
G1 X141.643 Y75.26 E27.01015
G1 X141.643 Y139.922 E29.8329
G1 X142.519 Y139.866 E29.87122
G1 X145.098 Y139.866 E29.98381
G1 X145.873 Y139.906 E30.01768
G1 X146.639 Y140.025 E30.05152
G1 X147.389 Y140.223 E30.08539
G1 X148.115 Y140.497 E30.11926
G1 X148.808 Y140.844 E30.15309
G1 X149.462 Y141.261 E30.18695
G1 X150.07 Y141.743 E30.22082
G1 X150.419 Y142.07 E30.2417
G1 X150.639 Y142.29 E30.25528
G1 X151.158 Y142.866 E30.28913
G1 X151.616 Y143.492 E30.32299
G1 X152.006 Y144.163 E30.35687
G1 X152.326 Y144.869 E30.39071
G1 X152.571 Y145.605 E30.42457
G1 X152.739 Y146.363 E30.45846
G1 X152.828 Y147.133 E30.4923
G1 X152.843 Y147.611 E30.51318
G1 X152.843 Y172.571 E31.60278
G1 X152.803 Y173.346 E31.63665
G1 X152.684 Y174.112 E31.67049
G1 X152.486 Y174.862 E31.70436
G1 X152.212 Y175.588 E31.73823
G1 X151.865 Y176.281 E31.77206
G1 X151.448 Y176.935 E31.80592
G1 X150.966 Y177.543 E31.83979
G1 X150.639 Y177.892 E31.86067
G1 X150.419 Y178.112 E31.87425
G1 X149.843 Y178.631 E31.9081
G1 X149.217 Y179.089 E31.94196
G1 X148.546 Y179.479 E31.97584
G1 X147.84 Y179.799 E32.00968
G1 X147.104 Y180.044 E32.04354
G1 X146.346 Y180.212 E32.07743
G1 X145.576 Y180.301 E32.11127
G1 X145.098 Y180.316 E32.13215
G1 X135.138 Y180.316 E32.56694
G1 X134.363 Y180.276 E32.60082
G1 X133.597 Y180.157 E32.63466
G1 X132.847 Y179.959 E32.66852
G1 X132.121 Y179.685 E32.70239
G1 X131.428 Y179.338 E32.73623
G1 X130.774 Y178.921 E32.77009
G1 X130.166 Y178.439 E32.80396
G1 X129.817 Y178.112 E32.82483
G1 X129.597 Y177.892 E32.83842
G1 X129.078 Y177.316 E32.87226
G1 X128.62 Y176.69 E32.90612
G1 X128.23 Y176.019 E32.94
G1 X127.91 Y175.313 E32.97384
G1 X127.665 Y174.577 E33.0077
G1 X127.497 Y173.819 E33.0416
G1 X127.408 Y173.049 E33.07543
G1 X127.393 Y172.571 E33.09631
G1 X127.393 Y165.94 E33.38578
G1 X127.433 Y165.165 E33.41966
G1 X127.441 Y165.116 E33.42182
G1 X120.221 Y165.116 E33.737
G1 X119.446 Y165.076 E33.77088
G1 X118.68 Y164.957 E33.80472
G1 X117.93 Y164.759 E33.83858
G1 X117.204 Y164.485 E33.87246
G1 X116.511 Y164.138 E33.90629
G1 X115.857 Y163.721 E33.94015
G1 X115.249 Y163.239 E33.97402
G1 X115.114 Y163.112 E33.98211
G1 X114.76 Y163.431 E34.00291
G1 X114.134 Y163.889 E34.03677
G1 X113.463 Y164.279 E34.07065
G1 X112.757 Y164.599 E34.10449
G1 X112.021 Y164.844 E34.13836
G1 X111.263 Y165.012 E34.17225
G1 X110.493 Y165.101 E34.20609
G1 X110.015 Y165.116 E34.22696
G1 X102.79 Y165.116 E34.54236
G1 X102.817 Y165.317 E34.55121
G1 X102.843 Y165.939 E34.57839
G1 X102.843 Y172.571 E34.8679
G1 X102.803 Y173.346 E34.90178
G1 X102.684 Y174.112 E34.93562
G1 X102.486 Y174.862 E34.96948
G1 X102.212 Y175.588 E35.00336
G1 X101.865 Y176.281 E35.03719
G1 X101.448 Y176.935 E35.07105
G1 X100.966 Y177.543 E35.10492
G1 X100.639 Y177.892 E35.1258
G1 X100.419 Y178.112 E35.13938
G1 X99.843 Y178.631 E35.17323
G1 X99.217 Y179.089 E35.20709
G1 X98.546 Y179.479 E35.24097
G1 X97.84 Y179.799 E35.2748
G1 X97.104 Y180.044 E35.30867
G1 X96.346 Y180.212 E35.34256
G1 X95.576 Y180.301 E35.3764
G1 X95.098 Y180.316 E35.39727
G1 X85.138 Y180.316 E35.83207
G1 X84.363 Y180.276 E35.86594
G1 X83.597 Y180.157 E35.89978
G1 X82.847 Y179.959 E35.93365
G1 X82.121 Y179.685 E35.96752
G1 X81.428 Y179.338 E36.00135
G1 X80.774 Y178.921 E36.03521
G1 X80.166 Y178.439 E36.06908
G1 X79.817 Y178.112 E36.08996
G1 X79.597 Y177.892 E36.10354
G1 X79.078 Y177.316 E36.13739
G1 X78.62 Y176.69 E36.17125
G1 X78.23 Y176.019 E36.20513
G1 X77.91 Y175.313 E36.23897
G1 X77.665 Y174.577 E36.27283
G1 X77.497 Y173.819 E36.30672
G1 X77.408 Y173.049 E36.34056
G1 X77.393 Y172.571 E36.36144
G1 X77.393 Y147.611 E37.45104
G1 X77.433 Y146.836 E37.48492
G1 X77.552 Y146.07 E37.51876
G1 X77.75 Y145.32 E37.55262
G1 X78.024 Y144.594 E37.58649
G1 X78.371 Y143.901 E37.62033
G1 X78.788 Y143.247 E37.65418
G1 X79.27 Y142.639 E37.68805
G1 X79.597 Y142.29 E37.70893
G1 X79.817 Y142.07 E37.72251
G1 X80.393 Y141.551 E37.75636
G1 X81.019 Y141.093 E37.79022
G1 X81.69 Y140.703 E37.8241
G1 X82.396 Y140.383 E37.85794
G1 X83.132 Y140.138 E37.8918
G1 X83.89 Y139.97 E37.92569
G1 X84.66 Y139.881 E37.95953
G1 X85.141 Y139.866 E37.98054
G1 X87.721 Y139.867 E38.09317
G1 X88.495 Y139.907 E38.127
G1 X88.593 Y139.922 E38.13133
G1 X88.593 Y75.26 E40.95408
G1 X87.717 Y75.316 E40.9924
G1 X85.138 Y75.316 E41.10498
G1 X84.363 Y75.276 E41.13886
G1 X83.597 Y75.157 E41.1727
G1 X82.847 Y74.959 E41.20656
G1 X82.121 Y74.685 E41.24043
G1 X81.428 Y74.338 E41.27427
G1 X80.774 Y73.921 E41.30813
G1 X80.166 Y73.439 E41.342
G1 X79.817 Y73.112 E41.36287
G1 X79.597 Y72.892 E41.37646
G1 X79.078 Y72.316 E41.4103
G1 X78.62 Y71.69 E41.44416
G1 X78.23 Y71.019 E41.47804
G1 X77.91 Y70.313 E41.51188
G1 X77.665 Y69.577 E41.54574
G1 X77.497 Y68.819 E41.57964
G1 X77.408 Y68.049 E41.61347
G1 X77.393 Y67.571 E41.63435
G1 X77.393 Y42.611 E42.72395
G1 X77.433 Y41.836 E42.75783
G1 X77.552 Y41.07 E42.79167
G1 X77.75 Y40.32 E42.82553
G1 X78.024 Y39.594 E42.85941
G1 X78.371 Y38.901 E42.89324
G0 F3600 X78.72 Y38.996
G1 F2400 X79.136 Y38.363 E42.9263
G1 X79.845 Y37.538 E42.97379
G1 X80.065 Y37.318 E42.98737
G1 X80.628 Y36.811 E43.02045
G1 X81.241 Y36.367 E43.05349
G1 X81.898 Y35.989 E43.08658
G1 X82.59 Y35.683 E43.11961
G1 X83.312 Y35.452 E43.1527
G1 X84.053 Y35.298 E43.18574
G1 X85.139 Y35.216 E43.23328
G1 X90.569 Y35.217 E43.47032
G1 X91.326 Y35.257 E43.50341
G1 X92.073 Y35.377 E43.53644
G1 X92.805 Y35.574 E43.56953
G1 X93.511 Y35.848 E43.60259
G1 X94.184 Y36.195 E43.63565
G1 X94.817 Y36.611 E43.66871
G1 X95.403 Y37.091 E43.70178
G1 X95.935 Y37.63 E43.73484
G1 X96.407 Y38.222 E43.76789
G1 X96.814 Y38.861 E43.80097
G1 X97.151 Y39.539 E43.83402
G1 X97.415 Y40.249 E43.86709
G1 X97.603 Y40.982 E43.90012
G1 X97.667 Y41.416 E43.91927
G1 X132.568 Y41.416 E45.44284
G1 X132.608 Y41.105 E45.45652
G1 X132.783 Y40.368 E45.48959
G1 X133.035 Y39.654 E45.52264
G1 X133.36 Y38.97 E45.5557
G1 X133.756 Y38.324 E45.58878
