;FLAVOR:Marlin
;TIME:3649
;Filament used: 4.78791m
;Layer height: 0.2
;Generated with Cura_SteamEngine 3.3.1
M190 S60
M104 S210
M109 S210
M82 ;absolute extrusion mode
G21 ;metric values
G90 ;absolute positioning
M82 ;set extruder to absolute mode
M107 ;start with the fan off
G28 X0 Y0 ;move X/Y to min endstops
G28 Z0 ;move Z to min endstops
G1 Z15.0 F9000 ;move the platform down 15mm
G92 E0 ;zero the extruded length
G1 F200 E3 ;extrude 3mm of feed stock
G92 E0 ;zero the extruded length again
G1 F9000
;Put printing message on LCD screen
M117 Printing...
G92 E0
G1 F1500 E-6.5
;LAYER_COUNT:25
;LAYER:0
M107
G0 F3600 X70.153 Y60.584 Z0.3
;TYPE:SKIRT
G1 F1500 E0
G1 F2400 X70.58 Y60.123 E0.02743
G1 X70.683 Y60.02 E0.03379
G1 X71.271 Y59.487 E0.06843
G1 X71.91 Y59.017 E0.10306
G1 X72.594 Y58.614 E0.13772
G1 X73.314 Y58.281 E0.17235
G1 X74.064 Y58.023 E0.20697
G1 X74.837 Y57.841 E0.24164
G1 X75.623 Y57.738 E0.27624
G1 X76.251 Y57.713 E0.30368
G1 X146.045 Y57.713 E3.35046
G1 X146.837 Y57.753 E3.38508
G1 X147.622 Y57.872 E3.41974
G1 X148.39 Y58.07 E3.45436
G1 X149.135 Y58.345 E3.48903
G1 X149.848 Y58.692 E3.52365
G1 X150.523 Y59.11 E3.5583
G1 X151.152 Y59.593 E3.59292
G1 X151.613 Y60.02 E3.62036
G1 X151.716 Y60.123 E3.62671
G1 X152.249 Y60.711 E3.66136
G1 X152.719 Y61.35 E3.69599
G1 X153.122 Y62.034 E3.73064
G1 X153.455 Y62.754 E3.76527
G1 X153.713 Y63.504 E3.7999
G1 X153.895 Y64.277 E3.83456
G1 X153.998 Y65.063 E3.86917
G1 X154.023 Y65.691 E3.89661
G1 X154.023 Y128.485 E6.63781
G1 X153.983 Y129.277 E6.67243
G1 X153.864 Y130.062 E6.70709
G1 X153.666 Y130.83 E6.74171
G1 X153.391 Y131.575 E6.77638
G1 X153.044 Y132.288 E6.81099
G1 X152.626 Y132.963 E6.84565
G1 X152.143 Y133.592 E6.88027
G1 X151.716 Y134.053 E6.9077
G1 X151.613 Y134.156 E6.91406
G1 X151.025 Y134.689 E6.94871
G1 X150.386 Y135.159 E6.98333
G1 X149.702 Y135.562 E7.01799
G1 X148.982 Y135.895 E7.05262
G1 X148.232 Y136.153 E7.08724
G1 X147.459 Y136.335 E7.12191
G1 X146.673 Y136.438 E7.15652
G1 X146.045 Y136.463 E7.18395
G1 X76.251 Y136.463 E10.23073
G1 X75.459 Y136.423 E10.26535
G1 X74.674 Y136.304 E10.30001
G1 X73.906 Y136.106 E10.33463
G1 X73.161 Y135.831 E10.3693
G1 X72.448 Y135.484 E10.40392
G1 X71.773 Y135.066 E10.43858
G1 X71.144 Y134.583 E10.4732
G1 X70.683 Y134.156 E10.50063
G1 X70.58 Y134.053 E10.50699
G1 X70.047 Y133.465 E10.54163
G1 X69.577 Y132.826 E10.57626
G1 X69.174 Y132.142 E10.61091
G1 X68.841 Y131.422 E10.64554
G1 X68.583 Y130.672 E10.68017
G1 X68.401 Y129.899 E10.71484
G1 X68.298 Y129.113 E10.74944
G1 X68.273 Y128.485 E10.77688
G1 X68.273 Y65.691 E13.51808
G1 X68.313 Y64.899 E13.5527
G1 X68.432 Y64.114 E13.58736
G1 X68.63 Y63.346 E13.62198
G1 X68.905 Y62.601 E13.65665
G1 X69.252 Y61.888 E13.69126
G1 X69.67 Y61.213 E13.72592
G1 X70.153 Y60.584 E13.76054
G0 F3600 X70.5 Y60.719
G1 F2400 X70.827 Y60.37 E13.78142
G1 X70.93 Y60.267 E13.78778
G1 X71.506 Y59.748 E13.82163
G1 X72.132 Y59.29 E13.85549
G1 X72.803 Y58.9 E13.88937
G1 X73.509 Y58.58 E13.9232
G1 X74.245 Y58.335 E13.95707
G1 X75.003 Y58.167 E13.99096
G1 X75.773 Y58.078 E14.0248
G1 X76.251 Y58.063 E14.04567
G1 X146.045 Y58.063 E17.09246
G1 X146.82 Y58.103 E17.12633
G1 X147.586 Y58.222 E17.16017
G1 X148.336 Y58.42 E17.19403
G1 X149.062 Y58.694 E17.22791
G1 X149.755 Y59.041 E17.26174
G1 X150.409 Y59.458 E17.2956
G1 X151.017 Y59.94 E17.32947
G1 X151.366 Y60.267 E17.35035
G1 X151.469 Y60.37 E17.35671
G1 X151.988 Y60.946 E17.39055
G1 X152.446 Y61.572 E17.42442
G1 X152.836 Y62.243 E17.4583
G1 X153.156 Y62.949 E17.49213
G1 X153.401 Y63.685 E17.526
G1 X153.569 Y64.443 E17.55989
G1 X153.658 Y65.213 E17.59373
G1 X153.673 Y65.691 E17.6146
G1 X153.673 Y128.485 E20.35581
G1 X153.633 Y129.26 E20.38968
G1 X153.514 Y130.026 E20.42352
G1 X153.316 Y130.776 E20.45739
G1 X153.042 Y131.502 E20.49126
G1 X152.695 Y132.195 E20.52509
G1 X152.278 Y132.849 E20.55895
G1 X151.796 Y133.457 E20.59282
G1 X151.469 Y133.806 E20.6137
G1 X151.366 Y133.909 E20.62006
G1 X150.79 Y134.428 E20.65391
G1 X150.164 Y134.886 E20.68777
G1 X149.493 Y135.276 E20.72165
G1 X148.787 Y135.596 E20.75548
G1 X148.051 Y135.841 E20.78935
G1 X147.293 Y136.009 E20.82324
G1 X146.523 Y136.098 E20.85708
G1 X146.045 Y136.113 E20.87795
G1 X76.251 Y136.113 E23.92474
G1 X75.476 Y136.073 E23.95861
G1 X74.71 Y135.954 E23.99245
G1 X73.96 Y135.756 E24.02631
G1 X73.234 Y135.482 E24.06019
G1 X72.541 Y135.135 E24.09402
G1 X71.887 Y134.718 E24.12788
G1 X71.279 Y134.236 E24.16175
G1 X70.93 Y133.909 E24.18263
G1 X70.827 Y133.806 E24.18899
G1 X70.308 Y133.23 E24.22283
G1 X69.85 Y132.604 E24.25669
G1 X69.46 Y131.933 E24.29058
G1 X69.14 Y131.227 E24.32441
G1 X68.895 Y130.491 E24.35828
G1 X68.727 Y129.733 E24.39217
G1 X68.638 Y128.963 E24.42601
G1 X68.623 Y128.485 E24.44688
G1 X68.623 Y65.691 E27.18809
G1 X68.663 Y64.916 E27.22196
G1 X68.782 Y64.15 E27.2558
G1 X68.98 Y63.4 E27.28967
G1 X69.254 Y62.674 E27.32354
G1 X69.601 Y61.981 E27.35737
G1 X70.018 Y61.327 E27.39123
G1 X70.5 Y60.719 E27.4251
G0 F3600 X70.366 Y61.443
G1 F2400 X71.075 Y60.618 E27.47259
G1 X71.178 Y60.515 E27.47895
G1 X71.741 Y60.008 E27.51202
G1 X72.354 Y59.564 E27.54506
G1 X73.011 Y59.186 E27.57815
G1 X73.703 Y58.88 E27.61118
G1 X74.425 Y58.649 E27.64428
G1 X75.166 Y58.495 E27.67731
G1 X76.251 Y58.413 E27.72481
G1 X146.045 Y58.413 E30.7716
G1 X146.801 Y58.453 E30.80464
G1 X147.549 Y58.572 E30.83771
G1 X148.28 Y58.77 E30.87077
G1 X148.987 Y59.044 E30.90387
G1 X149.66 Y59.39 E30.9369
G1 X150.293 Y59.806 E30.96997
G1 X151.118 Y60.515 E31.01746
G1 X151.221 Y60.618 E31.02382
G1 X151.728 Y61.181 E31.05689
G1 X152.172 Y61.794 E31.08993
G1 X152.55 Y62.451 E31.12302
G1 X152.856 Y63.143 E31.15605
G1 X153.087 Y63.865 E31.18914
G1 X153.241 Y64.606 E31.22218
G1 X153.323 Y65.691 E31.26968
G1 X153.323 Y128.485 E34.01088
G1 X153.283 Y129.241 E34.04393
G1 X153.164 Y129.989 E34.077
G1 X152.966 Y130.72 E34.11006
G1 X152.692 Y131.427 E34.14316
G1 X152.346 Y132.1 E34.17619
G1 X151.93 Y132.733 E34.20926
G1 X151.221 Y133.558 E34.25675
G1 X151.118 Y133.661 E34.2631
G1 X150.555 Y134.168 E34.29618
G1 X149.942 Y134.612 E34.32922
G1 X149.285 Y134.99 E34.36231
G1 X148.593 Y135.296 E34.39534
G1 X147.871 Y135.527 E34.42843
G1 X147.13 Y135.681 E34.46147
G1 X146.045 Y135.763 E34.50897
G1 X76.251 Y135.763 E37.55575
G1 X75.495 Y135.723 E37.5888
G1 X74.747 Y135.604 E37.62186
G1 X74.016 Y135.406 E37.65492
G1 X73.309 Y135.132 E37.68802
G1 X72.636 Y134.786 E37.72106
G1 X72.003 Y134.37 E37.75413
G1 X71.178 Y133.661 E37.80161
G1 X71.075 Y133.558 E37.80797
G1 X70.568 Y132.995 E37.84104
G1 X70.124 Y132.382 E37.87409
G1 X69.746 Y131.725 E37.90718
G1 X69.44 Y131.033 E37.94021
G1 X69.209 Y130.311 E37.9733
G1 X69.055 Y129.57 E38.00634
G1 X68.973 Y128.485 E38.05384
G1 X68.973 Y65.691 E40.79504
G1 X69.013 Y64.935 E40.82809
G1 X69.132 Y64.187 E40.86115
G1 X69.33 Y63.456 E40.89421
G1 X69.604 Y62.749 E40.92731
G1 X69.95 Y62.076 E40.96035
G1 X70.366 Y61.443 E40.99341
G0 F3600 X70.713 Y61.562
G1 F2400 X71.322 Y60.865 E41.03382
G1 X71.425 Y60.762 E41.04018
G1 X71.975 Y60.269 E41.07242
G1 X72.575 Y59.838 E41.10467
G1 X73.218 Y59.474 E41.13693
G1 X73.896 Y59.182 E41.16915
G1 X74.602 Y58.965 E41.20139
G1 X75.328 Y58.826 E41.23366
G1 X76.251 Y58.763 E41.27405
G1 X146.045 Y58.763 E44.32083
G1 X146.783 Y58.803 E44.3531
G1 X147.511 Y58.922 E44.3853
G1 X148.223 Y59.12 E44.41756
G1 X148.909 Y59.393 E44.44979
G1 X149.562 Y59.739 E44.48205
G1 X150.174 Y60.153 E44.5143
G1 X150.871 Y60.762 E44.55471
G1 X150.974 Y60.865 E44.56107
G1 X151.467 Y61.415 E44.59331
G1 X151.898 Y62.015 E44.62556
G1 X152.262 Y62.658 E44.65782
G1 X152.554 Y63.336 E44.69004
G1 X152.771 Y64.042 E44.72228
G1 X152.91 Y64.768 E44.75455
G1 X152.973 Y65.691 E44.79494
G1 X152.973 Y128.485 E47.53614
G1 X152.933 Y129.223 E47.56841
G1 X152.814 Y129.951 E47.60061
G1 X152.616 Y130.663 E47.63287
G1 X152.343 Y131.349 E47.6651
G1 X151.997 Y132.002 E47.69736
G1 X151.583 Y132.614 E47.72962
G1 X150.974 Y133.311 E47.77002
G1 X150.871 Y133.414 E47.77638
G1 X150.321 Y133.907 E47.80862
G1 X149.721 Y134.338 E47.84087
G1 X149.078 Y134.702 E47.87313
G1 X148.4 Y134.994 E47.90535
G1 X147.694 Y135.211 E47.9376
G1 X146.968 Y135.35 E47.96987
G1 X146.045 Y135.413 E48.01025
G1 X76.251 Y135.413 E51.05703
G1 X75.513 Y135.373 E51.0893
G1 X74.785 Y135.254 E51.1215
G1 X74.073 Y135.056 E51.15376
G1 X73.387 Y134.783 E51.18599
G1 X72.734 Y134.437 E51.21825
G1 X72.122 Y134.023 E51.25051
G1 X71.425 Y133.414 E51.29091
G1 X71.322 Y133.311 E51.29727
G1 X70.829 Y132.761 E51.32951
G1 X70.398 Y132.161 E51.36176
G1 X70.034 Y131.518 E51.39402
G1 X69.742 Y130.84 E51.42624
G1 X69.525 Y130.134 E51.45849
G1 X69.386 Y129.408 E51.49075
G1 X69.323 Y128.485 E51.53114
G1 X69.323 Y65.691 E54.27235
G1 X69.363 Y64.953 E54.30461
G1 X69.482 Y64.225 E54.33681
G1 X69.68 Y63.513 E54.36907
G1 X69.953 Y62.827 E54.4013
G1 X70.299 Y62.174 E54.43356
G1 X70.713 Y61.562 E54.46582
G0 F3600 X71.061 Y61.685
G1 F2400 X71.569 Y61.112 E54.49925
G1 X71.672 Y61.009 E54.50561
G1 X72.209 Y60.53 E54.53702
G1 X72.795 Y60.113 E54.56842
G1 X73.424 Y59.763 E54.59984
G1 X74.087 Y59.485 E54.63122
G1 X74.778 Y59.283 E54.66265
G1 X75.486 Y59.158 E54.69404
G1 X76.251 Y59.113 E54.72749
G1 X146.045 Y59.113 E57.77427
G1 X146.763 Y59.153 E57.80566
G1 X147.473 Y59.272 E57.83709
G1 X148.165 Y59.47 E57.86851
G1 X148.83 Y59.743 E57.89989
G1 X149.462 Y60.088 E57.93132
G1 X150.051 Y60.501 E57.96273
G1 X150.624 Y61.009 E57.99615
G1 X150.727 Y61.112 E58.00251
G1 X151.206 Y61.649 E58.03393
G1 X151.623 Y62.235 E58.06532
G1 X151.973 Y62.864 E58.09675
G1 X152.251 Y63.527 E58.12813
G1 X152.453 Y64.218 E58.15956
G1 X152.578 Y64.926 E58.19094
G1 X152.623 Y65.691 E58.2244
G1 X152.623 Y128.485 E60.9656
G1 X152.583 Y129.203 E60.99699
G1 X152.464 Y129.913 E61.02842
G1 X152.266 Y130.605 E61.05984
G1 X151.993 Y131.27 E61.09122
G1 X151.648 Y131.902 E61.12265
G1 X151.235 Y132.491 E61.15406
G1 X150.727 Y133.064 E61.18749
G1 X150.624 Y133.167 E61.19384
G1 X150.087 Y133.646 E61.22526
G1 X149.501 Y134.063 E61.25665
G1 X148.872 Y134.413 E61.28808
G1 X148.209 Y134.691 E61.31946
G1 X147.518 Y134.893 E61.35089
G1 X146.81 Y135.018 E61.38227
G1 X146.045 Y135.063 E61.41573
G1 X76.251 Y135.063 E64.46251
G1 X75.533 Y135.023 E64.4939
G1 X74.823 Y134.904 E64.52533
G1 X74.131 Y134.706 E64.55675
G1 X73.466 Y134.433 E64.58813
G1 X72.834 Y134.088 E64.61956
G1 X72.245 Y133.675 E64.65096
G1 X71.672 Y133.167 E64.68439
G1 X71.569 Y133.064 E64.69075
G1 X71.09 Y132.527 E64.72216
G1 X70.673 Y131.941 E64.75356
G1 X70.323 Y131.312 E64.78498
G1 X70.045 Y130.649 E64.81637
G1 X69.843 Y129.958 E64.8478
G1 X69.718 Y129.25 E64.87918
G1 X69.673 Y128.485 E64.91263
G1 X69.673 Y65.691 E67.65384
G1 X69.713 Y64.973 E67.68523
G1 X69.832 Y64.263 E67.71666
G1 X70.03 Y63.571 E67.74808
G1 X70.303 Y62.906 E67.77946
G1 X70.648 Y62.274 E67.81089
G1 X71.061 Y61.685 E67.84229
G0 F3600 X71.408 Y61.812
G1 F2400 X71.817 Y61.36 E67.8689
G1 X71.92 Y61.257 E67.87526
G1 X72.442 Y60.791 E67.90581
G1 X73.014 Y60.388 E67.93636
G1 X73.628 Y60.053 E67.96689
G1 X74.277 Y59.79 E67.99746
G1 X74.951 Y59.603 E68.02799
G1 X75.642 Y59.493 E68.05854
G1 X76.251 Y59.463 E68.08515
G1 X146.045 Y59.463 E71.13194
G1 X146.744 Y59.503 E71.1625
G1 X147.433 Y59.622 E71.19302
G1 X148.104 Y59.82 E71.22356
G1 X148.749 Y60.092 E71.25412
G1 X149.358 Y60.436 E71.28466
G1 X149.924 Y60.848 E71.31522
G1 X150.376 Y61.257 E71.34183
G1 X150.479 Y61.36 E71.34819
G1 X150.945 Y61.882 E71.37873
G1 X151.348 Y62.454 E71.40928
G1 X151.683 Y63.068 E71.43981
G1 X151.946 Y63.717 E71.47038
G1 X152.133 Y64.391 E71.50091
G1 X152.243 Y65.082 E71.53146
G1 X152.273 Y65.691 E71.55808
G1 X152.273 Y128.485 E74.29928
G1 X152.233 Y129.184 E74.32984
G1 X152.114 Y129.873 E74.36037
G1 X151.916 Y130.544 E74.39091
G1 X151.644 Y131.189 E74.42147
G1 X151.3 Y131.798 E74.452
G1 X150.888 Y132.364 E74.48256
G1 X150.479 Y132.816 E74.50917
G1 X150.376 Y132.919 E74.51553
G1 X149.854 Y133.385 E74.54608
G1 X149.282 Y133.788 E74.57662
G1 X148.668 Y134.123 E74.60715
G1 X148.019 Y134.386 E74.63772
G1 X147.345 Y134.573 E74.66826
G1 X146.654 Y134.683 E74.6988
G1 X146.045 Y134.713 E74.72542
G1 X76.251 Y134.713 E77.7722
G1 X75.552 Y134.673 E77.80277
G1 X74.863 Y134.554 E77.83329
G1 X74.192 Y134.356 E77.86383
G1 X73.547 Y134.084 E77.89439
G1 X72.938 Y133.74 E77.92492
G1 X72.372 Y133.328 E77.95548
G1 X71.92 Y132.919 E77.98209
G1 X71.817 Y132.816 E77.98845
G1 X71.351 Y132.294 E78.019
G1 X70.948 Y131.722 E78.04954
G1 X70.613 Y131.108 E78.08008
G1 X70.35 Y130.459 E78.11065
G1 X70.163 Y129.785 E78.14118
G1 X70.053 Y129.094 E78.17172
G1 X70.023 Y128.485 E78.19834
G1 X70.023 Y65.691 E80.93955
G1 X70.063 Y64.992 E80.97011
G1 X70.182 Y64.303 E81.00063
G1 X70.38 Y63.632 E81.03117
G1 X70.652 Y62.987 E81.06173
G1 X70.996 Y62.378 E81.09227
G1 X71.408 Y61.812 E81.12283
G0 F3600 X71.755 Y61.943
G1 F2400 X72.064 Y61.607 E81.14275
G1 X72.167 Y61.504 E81.14911
G1 X72.675 Y61.053 E81.17877
G1 X73.233 Y60.665 E81.20844
G1 X73.832 Y60.344 E81.2381
G1 X74.464 Y60.096 E81.26774
G1 X75.122 Y59.924 E81.29743
G1 X75.795 Y59.831 E81.32709
G1 X76.251 Y59.813 E81.34701
G1 X146.045 Y59.813 E84.39379
G1 X146.723 Y59.853 E84.42344
G1 X147.392 Y59.972 E84.4531
G1 X148.042 Y60.169 E84.48275
G1 X148.665 Y60.441 E84.51243
G1 X149.251 Y60.785 E84.54209
G1 X149.793 Y61.195 E84.57176
G1 X150.129 Y61.504 E84.59169
G1 X150.232 Y61.607 E84.59804
G1 X150.683 Y62.115 E84.6277
G1 X151.071 Y62.673 E84.65737
G1 X151.392 Y63.272 E84.68704
G1 X151.64 Y63.904 E84.71667
G1 X151.812 Y64.562 E84.74636
G1 X151.905 Y65.235 E84.77602
G1 X151.923 Y65.691 E84.79594
G1 X151.923 Y128.485 E87.53715
G1 X151.883 Y129.163 E87.5668
G1 X151.764 Y129.832 E87.59646
G1 X151.567 Y130.482 E87.62611
G1 X151.295 Y131.105 E87.65578
G1 X150.951 Y131.691 E87.68545
G1 X150.541 Y132.233 E87.71511
G1 X150.232 Y132.569 E87.73504
G1 X150.129 Y132.672 E87.7414
G1 X149.621 Y133.123 E87.77105
G1 X149.063 Y133.511 E87.80072
G1 X148.464 Y133.832 E87.83039
G1 X147.832 Y134.08 E87.86003
G1 X147.174 Y134.252 E87.88972
G1 X146.501 Y134.345 E87.91938
G1 X146.045 Y134.363 E87.9393
G1 X76.251 Y134.363 E90.98608
G1 X75.573 Y134.323 E91.01573
G1 X74.904 Y134.204 E91.04539
G1 X74.254 Y134.007 E91.07504
G1 X73.631 Y133.735 E91.10472
G1 X73.045 Y133.391 E91.13438
G1 X72.503 Y132.981 E91.16405
G1 X72.167 Y132.672 E91.18397
G1 X72.064 Y132.569 E91.19033
G1 X71.613 Y132.061 E91.21999
G1 X71.225 Y131.503 E91.24966
G1 X70.904 Y130.904 E91.27932
G1 X70.656 Y130.272 E91.30896
G1 X70.484 Y129.614 E91.33865
G1 X70.391 Y128.941 E91.36831
G1 X70.373 Y128.485 E91.38823
G1 X70.373 Y65.691 E94.12943
G1 X70.413 Y65.013 E94.15908
G1 X70.532 Y64.344 E94.18875
G1 X70.729 Y63.694 E94.2184
G1 X71.001 Y63.071 E94.24807
G1 X71.345 Y62.485 E94.27773
G1 X71.755 Y61.943 E94.3074
G0 F3600 X72.312 Y61.855
G1 F2400 X72.415 Y61.752 E94.31376
G1 X72.908 Y61.315 E94.34252
G1 X73.45 Y60.942 E94.37124
G1 X74.034 Y60.637 E94.4
G1 X74.65 Y60.405 E94.42874
G1 X75.29 Y60.249 E94.45749
G1 X76.251 Y60.163 E94.49961
G1 X146.045 Y60.163 E97.5464
G1 X146.702 Y60.203 E97.57513
G1 X147.35 Y60.322 E97.60389
G1 X147.978 Y60.519 E97.63262
G1 X148.578 Y60.791 E97.66138
G1 X149.141 Y61.133 E97.69014
G1 X149.881 Y61.752 E97.73225
G1 X149.984 Y61.855 E97.73861
G1 X150.421 Y62.348 E97.76737
G1 X150.794 Y62.89 E97.79609
G1 X151.099 Y63.474 E97.82485
G1 X151.331 Y64.09 E97.85359
G1 X151.487 Y64.73 E97.88235
G1 X151.573 Y65.691 E97.92446
G1 X151.573 Y128.485 E100.66567
G1 X151.533 Y129.142 E100.6944
G1 X151.414 Y129.79 E100.72316
G1 X151.217 Y130.418 E100.7519
G1 X150.945 Y131.018 E100.78065
G1 X150.603 Y131.581 E100.80941
G1 X149.984 Y132.321 E100.85153
G1 X149.881 Y132.424 E100.85788
G1 X149.388 Y132.861 E100.88664
G1 X148.846 Y133.234 E100.91537
G1 X148.262 Y133.539 E100.94413
G1 X147.646 Y133.771 E100.97286
G1 X147.006 Y133.927 E101.00162
G1 X146.045 Y134.013 E101.04374
G1 X76.251 Y134.013 E104.09052
G1 X75.594 Y133.973 E104.11925
G1 X74.946 Y133.854 E104.14801
G1 X74.318 Y133.657 E104.17675
G1 X73.718 Y133.385 E104.2055
G1 X73.155 Y133.043 E104.23426
G1 X72.415 Y132.424 E104.27638
G1 X72.312 Y132.321 E104.28273
G1 X71.875 Y131.828 E104.31149
G1 X71.502 Y131.286 E104.34022
