;FLAVOR:Marlin
;TIME:3947
;Filament used: 5.09295m
;Layer height: 0.2
;Generated with Cura_SteamEngine 3.3.1
M190 S60
M104 S210
M109 S210
M82 ;absolute extrusion mode
G21 ;metric values
G90 ;absolute positioning
M82 ;set extruder to absolute mode
M107 ;start with the fan off
G28 X0 Y0 ;move X/Y to min endstops
G28 Z0 ;move Z to min endstops
G1 Z15.0 F9000 ;move the platform down 15mm
G92 E0 ;zero the extruded length
G1 F200 E3 ;extrude 3mm of feed stock
G92 E0 ;zero the extruded length again
G1 F9000
;Put printing message on LCD screen
M117 Printing...
G92 E0
G1 F1500 E-6.5
;LAYER_COUNT:50
;LAYER:0
M107
G0 F3600 X71.571 Y65.921 Z0.3
;TYPE:SKIRT
G1 F1500 E0
G1 F2400 X71.791 Y65.701 E0.01358
G1 X72.379 Y65.168 E0.04823
G1 X73.018 Y64.698 E0.08285
G1 X73.702 Y64.295 E0.11751
G1 X74.422 Y63.962 E0.15214
G1 X75.172 Y63.704 E0.18676
G1 X75.945 Y63.522 E0.22143
G1 X76.731 Y63.419 E0.25604
G1 X77.359 Y63.394 E0.28347
G1 X78.954 Y63.394 E0.3531
G1 X79.746 Y63.434 E0.38772
G1 X80.531 Y63.553 E0.42238
G1 X81.299 Y63.751 E0.457
G1 X82.044 Y64.026 E0.49167
G1 X82.757 Y64.373 E0.52628
G1 X83.359 Y64.746 E0.5572
G1 X83.785 Y64.495 E0.57878
G1 X84.505 Y64.162 E0.61341
G1 X85.255 Y63.904 E0.64804
G1 X86.028 Y63.722 E0.6827
G1 X86.814 Y63.619 E0.71731
G1 X87.442 Y63.594 E0.74475
G1 X130.236 Y63.594 E2.61287
G1 X131.028 Y63.634 E2.64749
G1 X131.813 Y63.753 E2.68215
G1 X132.581 Y63.951 E2.71677
G1 X133.326 Y64.226 E2.75144
G1 X134.039 Y64.573 E2.78606
G1 X134.321 Y64.747 E2.80052
G1 X134.462 Y64.646 E2.80809
G1 X135.15 Y64.251 E2.84272
G1 X135.875 Y63.927 E2.87739
G1 X136.628 Y63.678 E2.91201
G1 X137.403 Y63.505 E2.94668
G1 X138.19 Y63.412 E2.98127
G1 X138.723 Y63.394 E3.00455
G1 X140.319 Y63.394 E3.07422
G1 X141.111 Y63.434 E3.10884
G1 X141.896 Y63.553 E3.1435
G1 X142.664 Y63.751 E3.17812
G1 X143.409 Y64.026 E3.21279
G1 X144.122 Y64.373 E3.24741
G1 X144.797 Y64.791 E3.28206
G1 X145.426 Y65.274 E3.31668
G1 X145.887 Y65.701 E3.34412
G1 X146.107 Y65.921 E3.3577
G1 X146.64 Y66.509 E3.39234
G1 X147.11 Y67.148 E3.42697
G1 X147.513 Y67.832 E3.46163
G1 X147.846 Y68.552 E3.49626
G1 X148.104 Y69.302 E3.53088
G1 X148.286 Y70.075 E3.56555
G1 X148.389 Y70.861 E3.60015
G1 X148.414 Y71.489 E3.62759
G1 X148.414 Y73.084 E3.69722
G1 X148.374 Y73.876 E3.73183
G1 X148.255 Y74.661 E3.76649
G1 X148.057 Y75.429 E3.80112
G1 X147.782 Y76.174 E3.83578
G1 X147.435 Y76.887 E3.8704
G1 X147.062 Y77.489 E3.90131
G1 X147.313 Y77.915 E3.9229
G1 X147.646 Y78.635 E3.95753
G1 X147.904 Y79.385 E3.99215
G1 X148.086 Y80.158 E4.02682
G1 X148.189 Y80.944 E4.06142
G1 X148.214 Y81.572 E4.08886
G1 X148.214 Y131.366 E6.26256
G1 X148.174 Y132.158 E6.29718
G1 X148.055 Y132.943 E6.33184
G1 X147.857 Y133.711 E6.36647
G1 X147.582 Y134.456 E6.40113
G1 X147.235 Y135.169 E6.43575
G1 X147.061 Y135.451 E6.45021
G1 X147.162 Y135.592 E6.45778
G1 X147.557 Y136.28 E6.49242
G1 X147.881 Y137.005 E6.52708
G1 X148.13 Y137.758 E6.5617
G1 X148.303 Y138.533 E6.59637
G1 X148.396 Y139.32 E6.63096
G1 X148.414 Y139.853 E6.65424
G1 X148.414 Y141.449 E6.72392
G1 X148.374 Y142.241 E6.75853
G1 X148.255 Y143.026 E6.79319
G1 X148.057 Y143.794 E6.82782
G1 X147.782 Y144.539 E6.86248
G1 X147.435 Y145.252 E6.8971
G1 X147.017 Y145.927 E6.93176
G1 X146.534 Y146.556 E6.96638
G1 X146.107 Y147.017 E6.99381
G1 X145.887 Y147.237 E7.00739
G1 X145.299 Y147.77 E7.04203
G1 X144.66 Y148.24 E7.07666
G1 X143.976 Y148.643 E7.11132
G1 X143.256 Y148.976 E7.14595
G1 X142.506 Y149.234 E7.18057
G1 X141.733 Y149.416 E7.21524
G1 X140.947 Y149.519 E7.24984
G1 X140.319 Y149.544 E7.27728
G1 X138.724 Y149.544 E7.34691
G1 X137.932 Y149.504 E7.38153
G1 X137.147 Y149.385 E7.41619
G1 X136.379 Y149.187 E7.45081
G1 X135.634 Y148.912 E7.48548
G1 X134.921 Y148.565 E7.52009
G1 X134.319 Y148.192 E7.55101
G1 X133.893 Y148.443 E7.57259
G1 X133.173 Y148.776 E7.60722
G1 X132.423 Y149.034 E7.64185
G1 X131.65 Y149.216 E7.67651
G1 X130.864 Y149.319 E7.71112
G1 X130.236 Y149.344 E7.73855
G1 X87.442 Y149.344 E9.60668
G1 X86.65 Y149.304 E9.6413
G1 X85.865 Y149.185 E9.67596
G1 X85.097 Y148.987 E9.71058
G1 X84.352 Y148.712 E9.74525
G1 X83.639 Y148.365 E9.77986
G1 X83.357 Y148.191 E9.79433
G1 X83.216 Y148.292 E9.8019
G1 X82.528 Y148.687 E9.83653
G1 X81.803 Y149.011 E9.8712
G1 X81.05 Y149.26 E9.90582
G1 X80.275 Y149.433 E9.94048
G1 X79.488 Y149.526 E9.97508
G1 X78.955 Y149.544 E9.99836
G1 X77.359 Y149.544 E10.06803
G1 X76.567 Y149.504 E10.10265
G1 X75.782 Y149.385 E10.13731
G1 X75.014 Y149.187 E10.17193
G1 X74.269 Y148.912 E10.2066
G1 X73.556 Y148.565 E10.24121
G1 X72.881 Y148.147 E10.27587
G1 X72.252 Y147.664 E10.31049
G1 X71.791 Y147.237 E10.33792
G1 X71.571 Y147.017 E10.35151
G1 X71.038 Y146.429 E10.38615
G1 X70.568 Y145.79 E10.42078
G1 X70.165 Y145.106 E10.45543
G1 X69.832 Y144.386 E10.49006
G1 X69.574 Y143.636 E10.52469
G1 X69.392 Y142.863 E10.55935
G1 X69.289 Y142.077 E10.59396
G1 X69.264 Y141.449 E10.6214
G1 X69.264 Y139.854 E10.69102
G1 X69.304 Y139.062 E10.72564
G1 X69.423 Y138.277 E10.7603
G1 X69.621 Y137.509 E10.79492
G1 X69.896 Y136.764 E10.82959
G1 X70.243 Y136.051 E10.86421
G1 X70.616 Y135.449 E10.89512
G1 X70.365 Y135.023 E10.91671
G1 X70.032 Y134.303 E10.95134
G1 X69.774 Y133.553 E10.98596
G1 X69.592 Y132.78 E11.02063
G1 X69.489 Y131.994 E11.05523
G1 X69.464 Y131.366 E11.08267
G1 X69.464 Y81.572 E13.25637
G1 X69.504 Y80.78 E13.29099
G1 X69.623 Y79.995 E13.32565
G1 X69.821 Y79.227 E13.36027
G1 X70.096 Y78.482 E13.39494
G1 X70.443 Y77.769 E13.42956
G1 X70.617 Y77.487 E13.44402
G1 X70.516 Y77.346 E13.45159
G1 X70.121 Y76.658 E13.48622
G1 X69.797 Y75.933 E13.52089
G1 X69.548 Y75.18 E13.55551
G1 X69.375 Y74.405 E13.59018
G1 X69.282 Y73.618 E13.62477
G1 X69.264 Y73.085 E13.64805
G1 X69.264 Y71.489 E13.71772
G1 X69.304 Y70.697 E13.75234
G1 X69.423 Y69.912 E13.787
G1 X69.621 Y69.144 E13.82162
G1 X69.896 Y68.399 E13.85629
G1 X70.243 Y67.686 E13.89091
G1 X70.661 Y67.011 E13.92557
G1 X71.144 Y66.382 E13.96019
G1 X71.571 Y65.921 E13.98762
G0 F3600 X71.818 Y66.168
G1 F2400 X72.038 Y65.948 E14.0012
G1 X72.614 Y65.429 E14.03504
G1 X73.24 Y64.971 E14.0689
G1 X73.911 Y64.581 E14.10278
G1 X74.617 Y64.261 E14.13662
G1 X75.353 Y64.016 E14.17049
G1 X76.111 Y63.848 E14.20438
G1 X76.881 Y63.759 E14.23822
G1 X77.359 Y63.744 E14.25909
G1 X78.954 Y63.744 E14.32872
G1 X79.729 Y63.784 E14.3626
G1 X80.495 Y63.903 E14.39644
G1 X81.245 Y64.101 E14.4303
G1 X81.971 Y64.375 E14.46417
G1 X82.664 Y64.722 E14.49801
G1 X83.318 Y65.139 E14.53187
G1 X83.343 Y65.159 E14.53326
G1 X83.994 Y64.781 E14.56613
G1 X84.7 Y64.461 E14.59996
G1 X85.436 Y64.216 E14.63383
G1 X86.194 Y64.048 E14.66772
G1 X86.964 Y63.959 E14.70156
G1 X87.442 Y63.944 E14.72243
G1 X130.236 Y63.944 E16.59056
G1 X131.011 Y63.984 E16.62444
G1 X131.777 Y64.103 E16.65828
G1 X132.527 Y64.301 E16.69214
G1 X133.253 Y64.575 E16.72601
G1 X133.946 Y64.922 E16.75985
G1 X134.332 Y65.168 E16.77983
G1 X134.799 Y64.848 E16.80454
G1 X135.481 Y64.478 E16.83841
G1 X136.197 Y64.18 E16.87227
G1 X136.941 Y63.958 E16.90616
G1 X137.703 Y63.814 E16.94001
G1 X138.723 Y63.744 E16.98465
G1 X140.319 Y63.744 E17.05432
G1 X141.094 Y63.784 E17.08819
G1 X141.86 Y63.903 E17.12203
G1 X142.61 Y64.101 E17.1559
G1 X143.336 Y64.375 E17.18977
G1 X144.029 Y64.722 E17.2236
G1 X144.683 Y65.139 E17.25746
G1 X145.291 Y65.621 E17.29133
G1 X145.64 Y65.948 E17.31221
G1 X145.86 Y66.168 E17.32579
G1 X146.379 Y66.744 E17.35964
G1 X146.837 Y67.37 E17.3935
G1 X147.227 Y68.041 E17.42738
G1 X147.547 Y68.747 E17.46122
G1 X147.792 Y69.483 E17.49508
G1 X147.96 Y70.241 E17.52897
G1 X148.049 Y71.011 E17.56281
G1 X148.064 Y71.489 E17.58369
G1 X148.064 Y73.084 E17.65331
G1 X148.024 Y73.859 E17.68719
G1 X147.905 Y74.625 E17.72103
G1 X147.707 Y75.375 E17.75489
G1 X147.433 Y76.101 E17.78877
G1 X147.086 Y76.794 E17.8226
G1 X146.669 Y77.448 E17.85646
G1 X146.649 Y77.473 E17.85786
G1 X147.027 Y78.124 E17.89072
G1 X147.347 Y78.83 E17.92456
G1 X147.592 Y79.566 E17.95842
G1 X147.76 Y80.324 E17.99231
G1 X147.849 Y81.094 E18.02615
G1 X147.864 Y81.572 E18.04703
G1 X147.864 Y131.366 E20.22073
G1 X147.824 Y132.141 E20.25461
G1 X147.705 Y132.907 E20.28845
G1 X147.507 Y133.657 E20.32231
G1 X147.233 Y134.383 E20.35618
G1 X146.886 Y135.076 E20.39002
G1 X146.64 Y135.462 E20.41
G1 X146.96 Y135.929 E20.43471
G1 X147.33 Y136.611 E20.46858
G1 X147.628 Y137.327 E20.50244
G1 X147.85 Y138.071 E20.53633
G1 X147.994 Y138.833 E20.57019
G1 X148.064 Y139.853 E20.61482
G1 X148.064 Y141.449 E20.68449
G1 X148.024 Y142.224 E20.71837
G1 X147.905 Y142.99 E20.75221
G1 X147.707 Y143.74 E20.78607
G1 X147.433 Y144.466 E20.81994
G1 X147.086 Y145.159 E20.85378
G1 X146.669 Y145.813 E20.88763
G1 X146.187 Y146.421 E20.9215
G1 X145.86 Y146.77 E20.94238
G1 X145.64 Y146.99 E20.95596
G1 X145.064 Y147.509 E20.98981
G1 X144.438 Y147.967 E21.02367
G1 X143.767 Y148.357 E21.05755
G1 X143.061 Y148.677 E21.09139
G1 X142.325 Y148.922 E21.12525
G1 X141.567 Y149.09 E21.15914
G1 X140.797 Y149.179 E21.19298
G1 X140.319 Y149.194 E21.21386
G1 X138.724 Y149.194 E21.28349
G1 X137.949 Y149.154 E21.31736
G1 X137.183 Y149.035 E21.3512
G1 X136.433 Y148.837 E21.38507
G1 X135.707 Y148.563 E21.41894
G1 X135.014 Y148.216 E21.45277
G1 X134.36 Y147.799 E21.48663
G1 X134.335 Y147.779 E21.48803
G1 X133.684 Y148.157 E21.52089
G1 X132.978 Y148.477 E21.55473
G1 X132.242 Y148.722 E21.58859
G1 X131.484 Y148.89 E21.62248
G1 X130.714 Y148.979 E21.65632
G1 X130.236 Y148.994 E21.6772
G1 X87.442 Y148.994 E23.54533
G1 X86.667 Y148.954 E23.5792
G1 X85.901 Y148.835 E23.61304
G1 X85.151 Y148.637 E23.6469
G1 X84.425 Y148.363 E23.68078
G1 X83.732 Y148.016 E23.71461
G1 X83.346 Y147.77 E23.73459
G1 X82.879 Y148.09 E23.75931
G1 X82.197 Y148.46 E23.79318
G1 X81.481 Y148.758 E23.82703
G1 X80.737 Y148.98 E23.86093
G1 X79.975 Y149.124 E23.89478
G1 X78.955 Y149.194 E23.93941
G1 X77.359 Y149.194 E24.00908
G1 X76.584 Y149.154 E24.04296
G1 X75.818 Y149.035 E24.0768
G1 X75.068 Y148.837 E24.11066
G1 X74.342 Y148.563 E24.14454
G1 X73.649 Y148.216 E24.17837
G1 X72.995 Y147.799 E24.21223
G1 X72.387 Y147.317 E24.2461
G1 X72.038 Y146.99 E24.26698
G1 X71.818 Y146.77 E24.28056
G1 X71.299 Y146.194 E24.3144
G1 X70.841 Y145.568 E24.34827
G1 X70.451 Y144.897 E24.38215
G1 X70.131 Y144.191 E24.41598
G1 X69.886 Y143.455 E24.44985
G1 X69.718 Y142.697 E24.48374
G1 X69.629 Y141.927 E24.51758
G1 X69.614 Y141.449 E24.53845
G1 X69.614 Y139.854 E24.60808
G1 X69.654 Y139.079 E24.64196
G1 X69.773 Y138.313 E24.6758
G1 X69.971 Y137.563 E24.70966
G1 X70.245 Y136.837 E24.74353
G1 X70.592 Y136.144 E24.77737
G1 X71.009 Y135.49 E24.81123
G1 X71.029 Y135.465 E24.81262
G1 X70.651 Y134.814 E24.84549
G1 X70.331 Y134.108 E24.87932
G1 X70.086 Y133.372 E24.91319
G1 X69.918 Y132.614 E24.94708
G1 X69.829 Y131.844 E24.98092
G1 X69.814 Y131.366 E25.00179
G1 X69.814 Y81.572 E27.1755
G1 X69.854 Y80.797 E27.20937
G1 X69.973 Y80.031 E27.24321
G1 X70.171 Y79.281 E27.27708
G1 X70.445 Y78.555 E27.31095
G1 X70.792 Y77.862 E27.34478
G1 X71.038 Y77.476 E27.36476
G1 X70.718 Y77.009 E27.38948
G1 X70.348 Y76.327 E27.42335
G1 X70.05 Y75.611 E27.4572
G1 X69.828 Y74.867 E27.4911
G1 X69.684 Y74.105 E27.52495
G1 X69.614 Y73.085 E27.56958
G1 X69.614 Y71.489 E27.63925
G1 X69.654 Y70.714 E27.67313
G1 X69.773 Y69.948 E27.70697
G1 X69.971 Y69.198 E27.74083
G1 X70.245 Y68.472 E27.77471
G1 X70.592 Y67.779 E27.80854
G1 X71.009 Y67.125 E27.8424
G1 X71.491 Y66.517 E27.87627
G1 X71.818 Y66.168 E27.89715
G0 F3600 X72.066 Y66.416
G1 F2400 X72.286 Y66.196 E27.91073
G1 X72.849 Y65.689 E27.9438
G1 X73.462 Y65.245 E27.97685
G1 X74.119 Y64.867 E28.00993
G1 X74.811 Y64.561 E28.04297
G1 X75.533 Y64.33 E28.07606
G1 X76.274 Y64.176 E28.1091
G1 X77.359 Y64.094 E28.1566
G1 X78.954 Y64.094 E28.22622
G1 X79.71 Y64.134 E28.25927
G1 X80.458 Y64.253 E28.29234
G1 X81.189 Y64.451 E28.3254
G1 X81.896 Y64.725 E28.3585
G1 X82.569 Y65.071 E28.39153
G1 X83.202 Y65.487 E28.4246
G1 X83.336 Y65.597 E28.43217
G1 X83.545 Y65.445 E28.44345
G1 X84.202 Y65.067 E28.47654
G1 X84.894 Y64.761 E28.50957
G1 X85.616 Y64.53 E28.54266
G1 X86.357 Y64.376 E28.5757
G1 X87.442 Y64.294 E28.6232
G1 X130.236 Y64.294 E30.49132
G1 X130.992 Y64.334 E30.52437
G1 X131.74 Y64.453 E30.55743
G1 X132.471 Y64.651 E30.5905
G1 X133.178 Y64.925 E30.6236
G1 X133.851 Y65.271 E30.65663
G1 X134.344 Y65.595 E30.68238
G1 X134.5 Y65.468 E30.69116
G1 X135.135 Y65.055 E30.72423
G1 X135.81 Y64.712 E30.75728
G1 X136.518 Y64.441 E30.79038
G1 X137.25 Y64.247 E30.82344
G1 X137.998 Y64.131 E30.85648
G1 X138.723 Y64.094 E30.88817
G1 X140.319 Y64.094 E30.95784
G1 X141.075 Y64.134 E30.99089
G1 X141.823 Y64.253 E31.02395
G1 X142.554 Y64.451 E31.05701
G1 X143.261 Y64.725 E31.09011
G1 X143.934 Y65.071 E31.12315
G1 X144.567 Y65.487 E31.15622
G1 X145.392 Y66.196 E31.2037
G1 X145.612 Y66.416 E31.21728
G1 X146.119 Y66.979 E31.25036
G1 X146.563 Y67.592 E31.2834
G1 X146.941 Y68.249 E31.31649
G1 X147.247 Y68.941 E31.34952
G1 X147.478 Y69.663 E31.38261
G1 X147.632 Y70.404 E31.41565
G1 X147.714 Y71.489 E31.46315
G1 X147.714 Y73.084 E31.53278
G1 X147.674 Y73.84 E31.56583
G1 X147.555 Y74.588 E31.59889
G1 X147.357 Y75.319 E31.63195
G1 X147.083 Y76.026 E31.66505
G1 X146.737 Y76.699 E31.69808
G1 X146.321 Y77.332 E31.73115
G1 X146.211 Y77.466 E31.73872
G1 X146.363 Y77.675 E31.75
G1 X146.741 Y78.332 E31.78309
G1 X147.047 Y79.024 E31.81612
G1 X147.278 Y79.746 E31.84921
G1 X147.432 Y80.487 E31.88225
G1 X147.514 Y81.572 E31.92975
G1 X147.514 Y131.366 E34.10345
G1 X147.474 Y132.122 E34.1365
G1 X147.355 Y132.87 E34.16957
G1 X147.157 Y133.601 E34.20263
G1 X146.883 Y134.308 E34.23573
G1 X146.537 Y134.981 E34.26876
G1 X146.213 Y135.474 E34.29451
G1 X146.34 Y135.63 E34.3033
G1 X146.753 Y136.265 E34.33636
G1 X147.096 Y136.94 E34.36942
G1 X147.367 Y137.648 E34.40251
G1 X147.561 Y138.38 E34.43557
G1 X147.677 Y139.128 E34.46861
G1 X147.714 Y139.853 E34.5003
G1 X147.714 Y141.449 E34.56997
G1 X147.674 Y142.205 E34.60302
G1 X147.555 Y142.953 E34.63608
G1 X147.357 Y143.684 E34.66915
G1 X147.083 Y144.391 E34.70225
G1 X146.737 Y145.064 E34.73528
G1 X146.321 Y145.697 E34.76835
G1 X145.612 Y146.522 E34.81583
G1 X145.392 Y146.742 E34.82941
G1 X144.829 Y147.249 E34.86249
G1 X144.216 Y147.693 E34.89553
G1 X143.559 Y148.071 E34.92862
G1 X142.867 Y148.377 E34.96165
G1 X142.145 Y148.608 E34.99474
G1 X141.404 Y148.762 E35.02778
G1 X140.319 Y148.844 E35.07528
G1 X138.724 Y148.844 E35.14491
G1 X137.968 Y148.804 E35.17796
G1 X137.22 Y148.685 E35.21102
G1 X136.489 Y148.487 E35.24408
G1 X135.782 Y148.213 E35.27718
G1 X135.109 Y147.867 E35.31022
G1 X134.476 Y147.451 E35.34328
G1 X134.342 Y147.341 E35.35085
G1 X134.133 Y147.493 E35.36213
G1 X133.476 Y147.871 E35.39522
G1 X132.784 Y148.177 E35.42825
G1 X132.062 Y148.408 E35.46134
G1 X131.321 Y148.562 E35.49438
G1 X130.236 Y148.644 E35.54188
G1 X87.442 Y148.644 E37.41001
G1 X86.686 Y148.604 E37.44305
G1 X85.938 Y148.485 E37.47612
G1 X85.207 Y148.287 E37.50918
G1 X84.5 Y148.013 E37.54228
G1 X83.827 Y147.667 E37.57531
G1 X83.334 Y147.343 E37.60107
G1 X83.178 Y147.47 E37.60985
G1 X82.543 Y147.883 E37.64292
G1 X81.868 Y148.226 E37.67597
G1 X81.16 Y148.497 E37.70906
G1 X80.428 Y148.691 E37.74212
G1 X79.68 Y148.807 E37.77516
G1 X78.955 Y148.844 E37.80685
G1 X77.359 Y148.844 E37.87653
G1 X76.603 Y148.804 E37.90957
G1 X75.855 Y148.685 E37.94264
G1 X75.124 Y148.487 E37.9757
G1 X74.417 Y148.213 E38.0088
G1 X73.744 Y147.867 E38.04183
G1 X73.111 Y147.451 E38.0749
G1 X72.286 Y146.742 E38.12239
G1 X72.066 Y146.522 E38.13597
G1 X71.559 Y145.959 E38.16904
G1 X71.115 Y145.346 E38.20208
G1 X70.737 Y144.689 E38.23517
G1 X70.431 Y143.997 E38.2682
G1 X70.2 Y143.275 E38.30129
G1 X70.046 Y142.534 E38.33433
G1 X69.964 Y141.449 E38.38183
G1 X69.964 Y139.854 E38.45146
G1 X70.004 Y139.098 E38.48451
G1 X70.123 Y138.35 E38.51757
G1 X70.321 Y137.619 E38.55063
G1 X70.595 Y136.912 E38.58373
G1 X70.941 Y136.239 E38.61677
G1 X71.357 Y135.606 E38.64983
G1 X71.467 Y135.472 E38.6574
G1 X71.315 Y135.263 E38.66868
G1 X70.937 Y134.606 E38.70177
G1 X70.631 Y133.914 E38.7348
G1 X70.4 Y133.192 E38.7679
G1 X70.246 Y132.451 E38.80093
G1 X70.164 Y131.366 E38.84843
G1 X70.164 Y81.572 E41.02214
G1 X70.204 Y80.816 E41.05519
G1 X70.323 Y80.068 E41.08825
