;FLAVOR:Marlin
;TIME:3479
;Filament used: 4.56988m
;Layer height: 0.2
;Generated with Cura_SteamEngine 3.3.1
M190 S60
M104 S210
M109 S210
M82 ;absolute extrusion mode
G21 ;metric values
G90 ;absolute positioning
M82 ;set extruder to absolute mode
M107 ;start with the fan off
G28 X0 Y0 ;move X/Y to min endstops
G28 Z0 ;move Z to min endstops
G1 Z15.0 F9000 ;move the platform down 15mm
G92 E0 ;zero the extruded length
G1 F200 E3 ;extrude 3mm of feed stock
G92 E0 ;zero the extruded length again
G1 F9000
;Put printing message on LCD screen
M117 Printing...
G92 E0
G1 F1500 E-6.5
;LAYER_COUNT:25
;LAYER:0
M107
G0 F3600 X68.356 Y66.109 Z0.3
;TYPE:SKIRT
G1 F1500 E0
G1 F2400 X68.459 Y66.006 E0.00636
G1 X69.047 Y65.473 E0.041
G1 X69.686 Y65.003 E0.07563
G1 X70.37 Y64.6 E0.11029
G1 X71.09 Y64.267 E0.14492
G1 X71.84 Y64.009 E0.17954
G1 X72.613 Y63.827 E0.21421
G1 X73.399 Y63.724 E0.24881
G1 X74.027 Y63.699 E0.27625
G1 X143.821 Y63.699 E3.32303
G1 X144.613 Y63.739 E3.35765
G1 X145.398 Y63.858 E3.39231
G1 X146.166 Y64.056 E3.42693
G1 X146.911 Y64.331 E3.4616
G1 X147.624 Y64.678 E3.49622
G1 X148.299 Y65.096 E3.53087
G1 X148.928 Y65.579 E3.56549
G1 X149.389 Y66.006 E3.59292
G1 X149.492 Y66.109 E3.59928
G1 X150.025 Y66.697 E3.63393
G1 X150.495 Y67.336 E3.66856
G1 X150.898 Y68.02 E3.70321
G1 X151.231 Y68.74 E3.73784
G1 X151.489 Y69.49 E3.77247
G1 X151.671 Y70.263 E3.80713
G1 X151.774 Y71.049 E3.84174
G1 X151.799 Y71.677 E3.86917
G1 X151.799 Y131.471 E6.47942
G1 X151.759 Y132.263 E6.51404
G1 X151.64 Y133.048 E6.5487
G1 X151.442 Y133.816 E6.58332
G1 X151.167 Y134.561 E6.61798
G1 X150.82 Y135.274 E6.6526
G1 X150.402 Y135.949 E6.68726
G1 X149.919 Y136.578 E6.72188
G1 X149.492 Y137.039 E6.74931
G1 X149.389 Y137.142 E6.75567
G1 X148.801 Y137.675 E6.79031
G1 X148.162 Y138.145 E6.82494
G1 X147.478 Y138.548 E6.8596
G1 X146.758 Y138.881 E6.89423
G1 X146.008 Y139.139 E6.92885
G1 X145.235 Y139.321 E6.96352
G1 X144.449 Y139.424 E6.99812
G1 X143.821 Y139.449 E7.02556
G1 X74.027 Y139.449 E10.07234
G1 X73.235 Y139.409 E10.10696
G1 X72.45 Y139.29 E10.14162
G1 X71.682 Y139.092 E10.17624
G1 X70.937 Y138.817 E10.21091
G1 X70.224 Y138.47 E10.24552
G1 X69.549 Y138.052 E10.28018
G1 X68.92 Y137.569 E10.3148
G1 X68.459 Y137.142 E10.34223
G1 X68.356 Y137.039 E10.34859
G1 X67.823 Y136.451 E10.38324
G1 X67.353 Y135.812 E10.41787
G1 X66.95 Y135.128 E10.45252
G1 X66.617 Y134.408 E10.48715
G1 X66.359 Y133.658 E10.52178
G1 X66.177 Y132.885 E10.55644
G1 X66.074 Y132.099 E10.59105
G1 X66.049 Y131.471 E10.61848
G1 X66.049 Y71.677 E13.22873
G1 X66.089 Y70.885 E13.26335
G1 X66.208 Y70.1 E13.298
G1 X66.406 Y69.332 E13.33263
G1 X66.681 Y68.587 E13.36729
G1 X67.028 Y67.874 E13.40191
G1 X67.446 Y67.199 E13.43657
G1 X67.929 Y66.57 E13.47119
G1 X68.356 Y66.109 E13.49862
G0 F3600 X68.603 Y66.356
G1 F2400 X68.706 Y66.253 E13.50498
G1 X69.282 Y65.734 E13.53882
G1 X69.908 Y65.276 E13.57268
G1 X70.579 Y64.886 E13.60657
G1 X71.285 Y64.566 E13.6404
G1 X72.021 Y64.321 E13.67427
G1 X72.779 Y64.153 E13.70816
G1 X73.549 Y64.064 E13.742
G1 X74.027 Y64.049 E13.76287
G1 X143.821 Y64.049 E16.80965
G1 X144.596 Y64.089 E16.84353
G1 X145.362 Y64.208 E16.87737
G1 X146.112 Y64.406 E16.91123
G1 X146.838 Y64.68 E16.94511
G1 X147.531 Y65.027 E16.97894
G1 X148.185 Y65.444 E17.0128
G1 X148.793 Y65.926 E17.04667
G1 X149.142 Y66.253 E17.06755
G1 X149.245 Y66.356 E17.07391
G1 X149.764 Y66.932 E17.10775
G1 X150.222 Y67.558 E17.14161
G1 X150.612 Y68.229 E17.17549
G1 X150.932 Y68.935 E17.20933
G1 X151.177 Y69.671 E17.24319
G1 X151.345 Y70.429 E17.27709
G1 X151.434 Y71.199 E17.31092
G1 X151.449 Y71.677 E17.3318
G1 X151.449 Y131.471 E19.94204
G1 X151.409 Y132.246 E19.97592
G1 X151.29 Y133.012 E20.00976
G1 X151.092 Y133.762 E20.04362
G1 X150.818 Y134.488 E20.0775
G1 X150.471 Y135.181 E20.11133
G1 X150.054 Y135.835 E20.14519
G1 X149.572 Y136.443 E20.17906
G1 X149.245 Y136.792 E20.19994
G1 X149.142 Y136.895 E20.2063
G1 X148.566 Y137.414 E20.24014
G1 X147.94 Y137.872 E20.274
G1 X147.269 Y138.262 E20.30788
G1 X146.563 Y138.582 E20.34172
G1 X145.827 Y138.827 E20.37558
G1 X145.069 Y138.995 E20.40948
G1 X144.299 Y139.084 E20.44331
G1 X143.821 Y139.099 E20.46419
G1 X74.027 Y139.099 E23.51097
G1 X73.252 Y139.059 E23.54485
G1 X72.486 Y138.94 E23.57869
G1 X71.736 Y138.742 E23.61255
G1 X71.01 Y138.468 E23.64643
G1 X70.317 Y138.121 E23.68026
G1 X69.663 Y137.704 E23.71412
G1 X69.055 Y137.222 E23.74799
G1 X68.706 Y136.895 E23.76887
G1 X68.603 Y136.792 E23.77523
G1 X68.084 Y136.216 E23.80907
G1 X67.626 Y135.59 E23.84293
G1 X67.236 Y134.919 E23.87681
G1 X66.916 Y134.213 E23.91065
G1 X66.671 Y133.477 E23.94451
G1 X66.503 Y132.719 E23.9784
G1 X66.414 Y131.949 E24.01224
G1 X66.399 Y131.471 E24.03312
G1 X66.399 Y71.677 E26.64336
G1 X66.439 Y70.902 E26.67724
G1 X66.558 Y70.136 E26.71108
G1 X66.756 Y69.386 E26.74494
G1 X67.03 Y68.66 E26.77882
G1 X67.377 Y67.967 E26.81265
G1 X67.794 Y67.313 E26.84651
G1 X68.276 Y66.705 E26.88038
G1 X68.603 Y66.356 E26.90126
G0 F3600 X68.851 Y66.604
G1 F2400 X68.954 Y66.501 E26.90761
G1 X69.517 Y65.994 E26.94069
G1 X70.13 Y65.55 E26.97373
G1 X70.787 Y65.172 E27.00682
G1 X71.479 Y64.866 E27.03985
G1 X72.201 Y64.635 E27.07294
G1 X72.942 Y64.481 E27.10598
G1 X74.027 Y64.399 E27.15348
G1 X143.821 Y64.399 E30.20026
G1 X144.577 Y64.439 E30.23331
G1 X145.325 Y64.558 E30.26637
G1 X146.056 Y64.756 E30.29944
G1 X146.763 Y65.03 E30.33254
G1 X147.436 Y65.376 E30.36557
G1 X148.069 Y65.792 E30.39864
G1 X148.894 Y66.501 E30.44612
G1 X148.997 Y66.604 E30.45248
G1 X149.504 Y67.167 E30.48556
G1 X149.948 Y67.78 E30.5186
G1 X150.326 Y68.437 E30.55169
G1 X150.632 Y69.129 E30.58472
G1 X150.863 Y69.851 E30.61781
G1 X151.017 Y70.592 E30.65085
G1 X151.099 Y71.677 E30.69835
G1 X151.099 Y131.471 E33.30859
G1 X151.059 Y132.227 E33.34164
G1 X150.94 Y132.975 E33.3747
G1 X150.742 Y133.706 E33.40776
G1 X150.468 Y134.413 E33.44086
G1 X150.122 Y135.086 E33.4739
G1 X149.706 Y135.719 E33.50696
G1 X148.997 Y136.544 E33.55445
G1 X148.894 Y136.647 E33.56081
G1 X148.331 Y137.154 E33.59388
G1 X147.718 Y137.598 E33.62692
G1 X147.061 Y137.976 E33.66001
G1 X146.369 Y138.282 E33.69304
G1 X145.647 Y138.513 E33.72614
G1 X144.906 Y138.667 E33.75917
G1 X143.821 Y138.749 E33.80667
G1 X74.027 Y138.749 E36.85346
G1 X73.271 Y138.709 E36.8865
G1 X72.523 Y138.59 E36.91957
G1 X71.792 Y138.392 E36.95263
G1 X71.085 Y138.118 E36.98573
G1 X70.412 Y137.772 E37.01876
G1 X69.779 Y137.356 E37.05183
G1 X68.954 Y136.647 E37.09932
G1 X68.851 Y136.544 E37.10568
G1 X68.344 Y135.981 E37.13875
G1 X67.9 Y135.368 E37.17179
G1 X67.522 Y134.711 E37.20488
G1 X67.216 Y134.019 E37.23791
G1 X66.985 Y133.297 E37.271
G1 X66.831 Y132.556 E37.30404
G1 X66.749 Y131.471 E37.35154
G1 X66.749 Y71.677 E39.96178
G1 X66.789 Y70.921 E39.99483
G1 X66.908 Y70.173 E40.0279
G1 X67.106 Y69.442 E40.06096
G1 X67.38 Y68.735 E40.09406
G1 X67.726 Y68.062 E40.12709
G1 X68.142 Y67.429 E40.16016
G1 X68.851 Y66.604 E40.20764
G0 F3600 X69.098 Y66.851
G1 F2400 X69.201 Y66.748 E40.214
G1 X69.751 Y66.255 E40.24625
G1 X70.351 Y65.824 E40.2785
G1 X70.994 Y65.46 E40.31075
G1 X71.672 Y65.168 E40.34298
G1 X72.378 Y64.951 E40.37522
G1 X73.104 Y64.812 E40.40749
G1 X74.027 Y64.749 E40.44787
G1 X143.821 Y64.749 E43.49466
G1 X144.559 Y64.789 E43.52692
G1 X145.287 Y64.908 E43.55912
G1 X145.999 Y65.106 E43.59138
G1 X146.685 Y65.379 E43.62361
G1 X147.338 Y65.725 E43.65587
G1 X147.95 Y66.139 E43.68813
G1 X148.647 Y66.748 E43.72853
G1 X148.75 Y66.851 E43.73489
G1 X149.243 Y67.401 E43.76714
G1 X149.674 Y68.001 E43.79939
G1 X150.038 Y68.644 E43.83164
G1 X150.33 Y69.322 E43.86387
G1 X150.547 Y70.028 E43.89611
G1 X150.686 Y70.754 E43.92838
G1 X150.749 Y71.677 E43.96876
G1 X150.749 Y131.471 E46.57901
G1 X150.709 Y132.209 E46.61127
G1 X150.59 Y132.937 E46.64347
G1 X150.392 Y133.649 E46.67573
G1 X150.119 Y134.335 E46.70796
G1 X149.773 Y134.988 E46.74022
G1 X149.359 Y135.6 E46.77248
G1 X148.75 Y136.297 E46.81288
G1 X148.647 Y136.4 E46.81924
G1 X148.097 Y136.893 E46.85149
G1 X147.497 Y137.324 E46.88374
G1 X146.854 Y137.688 E46.91599
G1 X146.176 Y137.98 E46.94822
G1 X145.47 Y138.197 E46.98046
G1 X144.744 Y138.336 E47.01273
G1 X143.821 Y138.399 E47.05311
G1 X74.027 Y138.399 E50.0999
G1 X73.289 Y138.359 E50.13216
G1 X72.561 Y138.24 E50.16436
G1 X71.849 Y138.042 E50.19662
G1 X71.163 Y137.769 E50.22885
G1 X70.51 Y137.423 E50.26111
G1 X69.898 Y137.009 E50.29337
G1 X69.201 Y136.4 E50.33377
G1 X69.098 Y136.297 E50.34013
G1 X68.605 Y135.747 E50.37238
G1 X68.174 Y135.147 E50.40463
G1 X67.81 Y134.504 E50.43688
G1 X67.518 Y133.826 E50.46911
G1 X67.301 Y133.12 E50.50135
G1 X67.162 Y132.394 E50.53362
G1 X67.099 Y131.471 E50.574
G1 X67.099 Y71.677 E53.18425
G1 X67.139 Y70.939 E53.21651
G1 X67.258 Y70.211 E53.24871
G1 X67.456 Y69.499 E53.28097
G1 X67.729 Y68.813 E53.3132
G1 X68.075 Y68.16 E53.34546
G1 X68.489 Y67.548 E53.37772
G1 X69.098 Y66.851 E53.41812
G0 F3600 X69.345 Y67.098
G1 F2400 X69.448 Y66.995 E53.42448
G1 X69.985 Y66.516 E53.4559
G1 X70.571 Y66.099 E53.48729
G1 X71.2 Y65.749 E53.51872
G1 X71.863 Y65.471 E53.5501
G1 X72.554 Y65.269 E53.58153
G1 X73.262 Y65.144 E53.61291
G1 X74.027 Y65.099 E53.64637
G1 X143.821 Y65.099 E56.69315
G1 X144.539 Y65.139 E56.72454
G1 X145.249 Y65.258 E56.75597
G1 X145.941 Y65.456 E56.78739
G1 X146.606 Y65.729 E56.81877
G1 X147.238 Y66.074 E56.8502
G1 X147.827 Y66.487 E56.8816
G1 X148.4 Y66.995 E56.91503
G1 X148.503 Y67.098 E56.92139
G1 X148.982 Y67.635 E56.9528
G1 X149.399 Y68.221 E56.9842
G1 X149.749 Y68.85 E57.01562
G1 X150.027 Y69.513 E57.04701
G1 X150.229 Y70.204 E57.07844
G1 X150.354 Y70.912 E57.10982
G1 X150.399 Y71.677 E57.14327
G1 X150.399 Y131.471 E59.75352
G1 X150.359 Y132.189 E59.78491
G1 X150.24 Y132.899 E59.81633
G1 X150.042 Y133.591 E59.84776
G1 X149.769 Y134.256 E59.87914
G1 X149.424 Y134.888 E59.91057
G1 X149.011 Y135.477 E59.94197
G1 X148.503 Y136.05 E59.9754
G1 X148.4 Y136.153 E59.98176
G1 X147.863 Y136.632 E60.01317
G1 X147.277 Y137.049 E60.04457
G1 X146.648 Y137.399 E60.07599
G1 X145.985 Y137.677 E60.10738
G1 X145.294 Y137.879 E60.1388
G1 X144.586 Y138.004 E60.17019
G1 X143.821 Y138.049 E60.20364
G1 X74.027 Y138.049 E63.25042
G1 X73.309 Y138.009 E63.28182
G1 X72.599 Y137.89 E63.31324
G1 X71.907 Y137.692 E63.34466
G1 X71.242 Y137.419 E63.37604
G1 X70.61 Y137.074 E63.40748
G1 X70.021 Y136.661 E63.43888
G1 X69.448 Y136.153 E63.47231
G1 X69.345 Y136.05 E63.47867
G1 X68.866 Y135.513 E63.51008
G1 X68.449 Y134.927 E63.54148
G1 X68.099 Y134.298 E63.5729
G1 X67.821 Y133.635 E63.60428
G1 X67.619 Y132.944 E63.63571
G1 X67.494 Y132.236 E63.6671
G1 X67.449 Y131.471 E63.70055
G1 X67.449 Y71.677 E66.31079
G1 X67.489 Y70.959 E66.34218
G1 X67.608 Y70.249 E66.37361
G1 X67.806 Y69.557 E66.40503
G1 X68.079 Y68.892 E66.43641
G1 X68.424 Y68.26 E66.46784
G1 X68.837 Y67.671 E66.49925
G1 X69.345 Y67.098 E66.53268
G0 F3600 X69.593 Y67.346
G1 F2400 X69.696 Y67.243 E66.53904
G1 X70.218 Y66.777 E66.56958
G1 X70.79 Y66.374 E66.60013
G1 X71.404 Y66.039 E66.63066
G1 X72.053 Y65.776 E66.66123
G1 X72.727 Y65.589 E66.69176
G1 X73.418 Y65.479 E66.72231
G1 X74.027 Y65.449 E66.74893
G1 X143.821 Y65.449 E69.79571
G1 X144.52 Y65.489 E69.82627
G1 X145.209 Y65.608 E69.8568
G1 X145.88 Y65.806 E69.88734
G1 X146.525 Y66.078 E69.91789
G1 X147.134 Y66.422 E69.94843
G1 X147.7 Y66.834 E69.97899
G1 X148.152 Y67.243 E70.0056
G1 X148.255 Y67.346 E70.01196
G1 X148.721 Y67.868 E70.0425
G1 X149.124 Y68.44 E70.07305
G1 X149.459 Y69.054 E70.10358
G1 X149.722 Y69.703 E70.13415
G1 X149.909 Y70.377 E70.16469
G1 X150.019 Y71.068 E70.19523
G1 X150.049 Y71.677 E70.22185
G1 X150.049 Y131.471 E72.83209
G1 X150.009 Y132.17 E72.86265
G1 X149.89 Y132.859 E72.89318
G1 X149.692 Y133.53 E72.92372
G1 X149.42 Y134.175 E72.95428
G1 X149.076 Y134.784 E72.98481
G1 X148.664 Y135.35 E73.01537
G1 X148.255 Y135.802 E73.04198
G1 X148.152 Y135.905 E73.04834
G1 X147.63 Y136.371 E73.07889
G1 X147.058 Y136.774 E73.10943
G1 X146.444 Y137.109 E73.13996
G1 X145.795 Y137.372 E73.17053
G1 X145.121 Y137.559 E73.20107
G1 X144.43 Y137.669 E73.23161
G1 X143.821 Y137.699 E73.25823
G1 X74.027 Y137.699 E76.30501
G1 X73.328 Y137.659 E76.33558
G1 X72.639 Y137.54 E76.3661
G1 X71.968 Y137.342 E76.39664
G1 X71.323 Y137.07 E76.4272
G1 X70.714 Y136.726 E76.45773
G1 X70.148 Y136.314 E76.48829
G1 X69.696 Y135.905 E76.5149
G1 X69.593 Y135.802 E76.52126
G1 X69.127 Y135.28 E76.55181
G1 X68.724 Y134.708 E76.58235
G1 X68.389 Y134.094 E76.61289
G1 X68.126 Y133.445 E76.64346
G1 X67.939 Y132.771 E76.67399
G1 X67.829 Y132.08 E76.70453
G1 X67.799 Y131.471 E76.73115
G1 X67.799 Y71.677 E79.34139
G1 X67.839 Y70.978 E79.37196
G1 X67.958 Y70.289 E79.40248
G1 X68.156 Y69.618 E79.43302
G1 X68.428 Y68.973 E79.46358
G1 X68.772 Y68.364 E79.49411
G1 X69.184 Y67.798 E79.52467
G1 X69.593 Y67.346 E79.55128
G0 F3600 X69.84 Y67.593
G1 F2400 X69.943 Y67.49 E79.55764
G1 X70.451 Y67.039 E79.5873
G1 X71.009 Y66.651 E79.61697
G1 X71.608 Y66.33 E79.64663
G1 X72.24 Y66.082 E79.67627
G1 X72.898 Y65.91 E79.70596
G1 X73.571 Y65.817 E79.73562
G1 X74.027 Y65.799 E79.75554
G1 X143.821 Y65.799 E82.80232
G1 X144.499 Y65.839 E82.83197
G1 X145.168 Y65.958 E82.86163
G1 X145.818 Y66.155 E82.89128
G1 X146.441 Y66.427 E82.92096
G1 X147.027 Y66.771 E82.95062
G1 X147.569 Y67.181 E82.98029
G1 X147.905 Y67.49 E83.00022
G1 X148.008 Y67.593 E83.00658
G1 X148.459 Y68.101 E83.03623
G1 X148.847 Y68.659 E83.0659
G1 X149.168 Y69.258 E83.09557
G1 X149.416 Y69.89 E83.1252
G1 X149.588 Y70.548 E83.15489
G1 X149.681 Y71.221 E83.18455
G1 X149.699 Y71.677 E83.20447
G1 X149.699 Y131.471 E85.81472
G1 X149.659 Y132.149 E85.84437
G1 X149.54 Y132.818 E85.87403
G1 X149.343 Y133.468 E85.90368
G1 X149.071 Y134.091 E85.93335
G1 X148.727 Y134.677 E85.96302
G1 X148.317 Y135.219 E85.99268
G1 X148.008 Y135.555 E86.01261
G1 X147.905 Y135.658 E86.01897
G1 X147.397 Y136.109 E86.04862
G1 X146.839 Y136.497 E86.07829
G1 X146.24 Y136.818 E86.10796
G1 X145.608 Y137.066 E86.1376
G1 X144.95 Y137.238 E86.16729
G1 X144.277 Y137.331 E86.19695
G1 X143.821 Y137.349 E86.21687
G1 X74.027 Y137.349 E89.26365
G1 X73.349 Y137.309 E89.2933
G1 X72.68 Y137.19 E89.32296
G1 X72.03 Y136.993 E89.35261
G1 X71.407 Y136.721 E89.38229
G1 X70.821 Y136.377 E89.41195
G1 X70.279 Y135.967 E89.44162
G1 X69.943 Y135.658 E89.46154
G1 X69.84 Y135.555 E89.4679
G1 X69.389 Y135.047 E89.49756
G1 X69.001 Y134.489 E89.52723
G1 X68.68 Y133.89 E89.55689
G1 X68.432 Y133.258 E89.58653
G1 X68.26 Y132.6 E89.61622
G1 X68.167 Y131.927 E89.64588
G1 X68.149 Y131.471 E89.6658
G1 X68.149 Y71.677 E92.27604
G1 X68.189 Y70.999 E92.30569
G1 X68.308 Y70.33 E92.33535
G1 X68.505 Y69.68 E92.365
G1 X68.777 Y69.057 E92.39468
G1 X69.121 Y68.471 E92.42434
G1 X69.531 Y67.929 E92.45401
G1 X69.84 Y67.593 E92.47394
G0 F3600 X70.088 Y67.841
G1 F2400 X70.191 Y67.738 E92.4803
G1 X70.684 Y67.301 E92.50906
G1 X71.226 Y66.928 E92.53778
G1 X71.81 Y66.623 E92.56654
G1 X72.426 Y66.391 E92.59527
G1 X73.066 Y66.235 E92.62403
G1 X74.027 Y66.149 E92.66615
G1 X143.821 Y66.149 E95.71293
G1 X144.478 Y66.189 E95.74166
G1 X145.126 Y66.308 E95.77043
G1 X145.754 Y66.505 E95.79916
G1 X146.354 Y66.777 E95.82792
G1 X146.917 Y67.119 E95.85667
G1 X147.657 Y67.738 E95.89879
G1 X147.76 Y67.841 E95.90515
G1 X148.197 Y68.334 E95.93391
G1 X148.57 Y68.876 E95.96263
G1 X148.875 Y69.46 E95.99139
G1 X149.107 Y70.076 E96.02012
G1 X149.263 Y70.716 E96.04888
G1 X149.349 Y71.677 E96.091
G1 X149.349 Y131.471 E98.70124
G1 X149.309 Y132.128 E98.72998
G1 X149.19 Y132.776 E98.75874
G1 X148.993 Y133.404 E98.78747
G1 X148.721 Y134.004 E98.81623
G1 X148.379 Y134.567 E98.84498
G1 X147.76 Y135.307 E98.8871
G1 X147.657 Y135.41 E98.89346
G1 X147.164 Y135.847 E98.92222
G1 X146.622 Y136.22 E98.95094
G1 X146.038 Y136.525 E98.9797
G1 X145.422 Y136.757 E99.00843
G1 X144.782 Y136.913 E99.03719
G1 X143.821 Y136.999 E99.07931
G1 X74.027 Y136.999 E102.12609
G1 X73.37 Y136.959 E102.15483
G1 X72.722 Y136.84 E102.18359
G1 X72.094 Y136.643 E102.21232
G1 X71.494 Y136.371 E102.24108
G1 X70.931 Y136.029 E102.26983
G1 X70.191 Y135.41 E102.31195
G1 X70.088 Y135.307 E102.31831
G1 X69.651 Y134.814 E102.34707
G1 X69.278 Y134.272 E102.37579
G1 X68.973 Y133.688 E102.40455
