;FLAVOR:Marlin
;TIME:329
;Filament used: 0.345707m
;Layer height: 0.2
;Generated with Cura_SteamEngine 3.3.1
M190 S60
M104 S210
M109 S210
M82 ;absolute extrusion mode
G21 ;metric values
G90 ;absolute positioning
M82 ;set extruder to absolute mode
M107 ;start with the fan off
G28 X0 Y0 ;move X/Y to min endstops
G28 Z0 ;move Z to min endstops
G1 Z15.0 F9000 ;move the platform down 15mm
G92 E0 ;zero the extruded length
G1 F200 E3 ;extrude 3mm of feed stock
G92 E0 ;zero the extruded length again
G1 F9000
;Put printing message on LCD screen
M117 Printing...
G92 E0
G1 F1500 E-6.5
;LAYER_COUNT:25
;LAYER:0
M107
G0 F3600 X88.432 Y83.035 Z0.3
;TYPE:SKIRT
G1 F1500 E0
G1 F2400 X88.535 Y82.932 E0.00636
G1 X89.123 Y82.399 E0.041
G1 X89.762 Y81.929 E0.07563
G1 X90.446 Y81.526 E0.11029
G1 X91.166 Y81.193 E0.14492
G1 X91.916 Y80.935 E0.17954
G1 X92.689 Y80.753 E0.21421
G1 X93.475 Y80.65 E0.24881
G1 X94.103 Y80.625 E0.27625
G1 X105.897 Y80.625 E0.7911
G1 X106.689 Y80.665 E0.82572
G1 X107.474 Y80.784 E0.86038
G1 X108.242 Y80.982 E0.895
G1 X108.987 Y81.257 E0.92967
G1 X109.7 Y81.604 E0.96429
G1 X110.375 Y82.022 E0.99895
G1 X111.004 Y82.505 E1.03357
G1 X111.465 Y82.932 E1.061
G1 X111.568 Y83.035 E1.06736
G1 X112.101 Y83.623 E1.102
G1 X112.571 Y84.262 E1.13663
G1 X112.974 Y84.946 E1.17128
G1 X113.307 Y85.666 E1.20591
G1 X113.565 Y86.416 E1.24054
G1 X113.747 Y87.189 E1.2752
G1 X113.85 Y87.975 E1.30981
G1 X113.875 Y88.603 E1.33725
G1 X113.875 Y111.397 E2.33229
G1 X113.835 Y112.189 E2.36691
G1 X113.716 Y112.974 E2.40157
G1 X113.518 Y113.742 E2.43619
G1 X113.243 Y114.487 E2.47086
G1 X112.896 Y115.2 E2.50548
G1 X112.478 Y115.875 E2.54014
G1 X111.995 Y116.504 E2.57476
G1 X111.568 Y116.965 E2.60219
G1 X111.465 Y117.068 E2.60855
G1 X110.877 Y117.601 E2.64319
G1 X110.238 Y118.071 E2.67782
G1 X109.554 Y118.474 E2.71247
G1 X108.834 Y118.807 E2.7471
G1 X108.084 Y119.065 E2.78173
G1 X107.311 Y119.247 E2.81639
G1 X106.525 Y119.35 E2.851
G1 X105.897 Y119.375 E2.87844
G1 X94.103 Y119.375 E3.39329
G1 X93.311 Y119.335 E3.42791
G1 X92.526 Y119.216 E3.46257
G1 X91.758 Y119.018 E3.49719
G1 X91.013 Y118.743 E3.53186
G1 X90.3 Y118.396 E3.56647
G1 X89.625 Y117.978 E3.60113
G1 X88.996 Y117.495 E3.63575
G1 X88.535 Y117.068 E3.66318
G1 X88.432 Y116.965 E3.66954
G1 X87.899 Y116.377 E3.70419
G1 X87.429 Y115.738 E3.73881
G1 X87.026 Y115.054 E3.77347
G1 X86.693 Y114.334 E3.8081
G1 X86.435 Y113.584 E3.84272
G1 X86.253 Y112.811 E3.87739
G1 X86.15 Y112.025 E3.912
G1 X86.125 Y111.397 E3.93943
G1 X86.125 Y88.603 E4.93448
G1 X86.165 Y87.811 E4.9691
G1 X86.284 Y87.026 E5.00376
G1 X86.482 Y86.258 E5.03838
G1 X86.757 Y85.513 E5.07305
G1 X87.104 Y84.8 E5.10766
G1 X87.522 Y84.125 E5.14232
G1 X88.005 Y83.496 E5.17694
G1 X88.432 Y83.035 E5.20437
G0 F3600 X88.679 Y83.282
G1 F2400 X88.782 Y83.179 E5.21073
G1 X89.358 Y82.66 E5.24458
G1 X89.984 Y82.202 E5.27844
G1 X90.655 Y81.812 E5.31232
G1 X91.361 Y81.492 E5.34616
G1 X92.097 Y81.247 E5.38002
G1 X92.855 Y81.079 E5.41391
G1 X93.625 Y80.99 E5.44775
G1 X94.103 Y80.975 E5.46863
G1 X105.897 Y80.975 E5.98348
G1 X106.672 Y81.015 E6.01736
G1 X107.438 Y81.134 E6.0512
G1 X108.188 Y81.332 E6.08506
G1 X108.914 Y81.606 E6.11893
G1 X109.607 Y81.953 E6.15277
G1 X110.261 Y82.37 E6.18663
G1 X110.869 Y82.852 E6.2205
G1 X111.218 Y83.179 E6.24137
G1 X111.321 Y83.282 E6.24773
G1 X111.84 Y83.858 E6.28158
G1 X112.298 Y84.484 E6.31544
G1 X112.688 Y85.155 E6.34932
G1 X113.008 Y85.861 E6.38316
G1 X113.253 Y86.597 E6.41702
G1 X113.421 Y87.355 E6.45091
G1 X113.51 Y88.125 E6.48475
G1 X113.525 Y88.603 E6.50563
G1 X113.525 Y111.397 E7.50067
G1 X113.485 Y112.172 E7.53455
G1 X113.366 Y112.938 E7.56839
G1 X113.168 Y113.688 E7.60225
G1 X112.894 Y114.414 E7.63613
G1 X112.547 Y115.107 E7.66996
G1 X112.13 Y115.761 E7.70382
G1 X111.648 Y116.369 E7.73769
G1 X111.321 Y116.718 E7.75857
G1 X111.218 Y116.821 E7.76493
G1 X110.642 Y117.34 E7.79877
G1 X110.016 Y117.798 E7.83263
G1 X109.345 Y118.188 E7.86651
G1 X108.639 Y118.508 E7.90035
G1 X107.903 Y118.753 E7.93421
G1 X107.145 Y118.921 E7.96811
G1 X106.375 Y119.01 E8.00194
G1 X105.897 Y119.025 E8.02282
G1 X94.103 Y119.025 E8.53768
G1 X93.328 Y118.985 E8.57155
G1 X92.562 Y118.866 E8.60539
G1 X91.812 Y118.668 E8.63925
G1 X91.086 Y118.394 E8.67313
G1 X90.393 Y118.047 E8.70696
G1 X89.739 Y117.63 E8.74082
G1 X89.131 Y117.148 E8.77469
G1 X88.782 Y116.821 E8.79557
G1 X88.679 Y116.718 E8.80193
G1 X88.16 Y116.142 E8.83577
G1 X87.702 Y115.516 E8.86963
G1 X87.312 Y114.845 E8.90351
G1 X86.992 Y114.139 E8.93735
G1 X86.747 Y113.403 E8.97122
G1 X86.579 Y112.645 E9.00511
G1 X86.49 Y111.875 E9.03895
G1 X86.475 Y111.397 E9.05982
G1 X86.475 Y88.603 E10.05487
G1 X86.515 Y87.828 E10.08875
G1 X86.634 Y87.062 E10.12259
G1 X86.832 Y86.312 E10.15645
G1 X87.106 Y85.586 E10.19032
G1 X87.453 Y84.893 E10.22416
G1 X87.87 Y84.239 E10.25802
G1 X88.352 Y83.631 E10.29189
G1 X88.679 Y83.282 E10.31276
G0 F3600 X88.927 Y83.53
G1 F2400 X89.03 Y83.427 E10.31912
G1 X89.593 Y82.92 E10.3522
G1 X90.206 Y82.476 E10.38524
G1 X90.863 Y82.098 E10.41833
G1 X91.555 Y81.792 E10.45136
G1 X92.277 Y81.561 E10.48445
G1 X93.018 Y81.407 E10.51749
G1 X94.103 Y81.325 E10.56499
G1 X105.897 Y81.325 E11.07984
G1 X106.653 Y81.365 E11.11289
G1 X107.401 Y81.484 E11.14595
G1 X108.132 Y81.682 E11.17902
G1 X108.839 Y81.956 E11.21212
G1 X109.512 Y82.302 E11.24515
G1 X110.145 Y82.718 E11.27822
G1 X110.97 Y83.427 E11.3257
G1 X111.073 Y83.53 E11.33206
G1 X111.58 Y84.093 E11.36514
G1 X112.024 Y84.706 E11.39818
G1 X112.402 Y85.363 E11.43127
G1 X112.708 Y86.055 E11.4643
G1 X112.939 Y86.777 E11.49739
G1 X113.093 Y87.518 E11.53043
G1 X113.175 Y88.603 E11.57793
G1 X113.175 Y111.397 E12.57297
G1 X113.135 Y112.153 E12.60602
G1 X113.016 Y112.901 E12.63909
G1 X112.818 Y113.632 E12.67215
G1 X112.544 Y114.339 E12.70525
G1 X112.198 Y115.012 E12.73828
G1 X111.782 Y115.645 E12.77135
G1 X111.073 Y116.47 E12.81883
G1 X110.97 Y116.573 E12.82519
G1 X110.407 Y117.08 E12.85827
G1 X109.794 Y117.524 E12.89131
G1 X109.137 Y117.902 E12.9244
G1 X108.445 Y118.208 E12.95743
G1 X107.723 Y118.439 E12.99052
G1 X106.982 Y118.593 E13.02356
G1 X105.897 Y118.675 E13.07106
G1 X94.103 Y118.675 E13.58591
G1 X93.347 Y118.635 E13.61896
G1 X92.599 Y118.516 E13.65203
G1 X91.868 Y118.318 E13.68509
G1 X91.161 Y118.044 E13.71819
G1 X90.488 Y117.698 E13.75122
G1 X89.855 Y117.282 E13.78429
G1 X89.03 Y116.573 E13.83177
G1 X88.927 Y116.47 E13.83813
G1 X88.42 Y115.907 E13.87121
G1 X87.976 Y115.294 E13.90425
G1 X87.598 Y114.637 E13.93734
G1 X87.292 Y113.945 E13.97037
G1 X87.061 Y113.223 E14.00346
G1 X86.907 Y112.482 E14.0365
G1 X86.825 Y111.397 E14.084
G1 X86.825 Y88.603 E15.07904
G1 X86.865 Y87.847 E15.11209
G1 X86.984 Y87.099 E15.14516
G1 X87.182 Y86.368 E15.17822
G1 X87.456 Y85.661 E15.21132
G1 X87.802 Y84.988 E15.24435
G1 X88.218 Y84.355 E15.27742
G1 X88.927 Y83.53 E15.32491
G0 F3600 X89.174 Y83.777
G1 F2400 X89.277 Y83.674 E15.33126
G1 X89.827 Y83.181 E15.36351
G1 X90.427 Y82.75 E15.39576
G1 X91.07 Y82.386 E15.42801
G1 X91.748 Y82.094 E15.46024
G1 X92.454 Y81.877 E15.49248
G1 X93.18 Y81.738 E15.52475
G1 X94.103 Y81.675 E15.56513
G1 X105.897 Y81.675 E16.07999
G1 X106.635 Y81.715 E16.11225
G1 X107.363 Y81.834 E16.14446
G1 X108.075 Y82.032 E16.17672
G1 X108.761 Y82.305 E16.20895
G1 X109.414 Y82.651 E16.24121
G1 X110.026 Y83.065 E16.27346
G1 X110.723 Y83.674 E16.31387
G1 X110.826 Y83.777 E16.32023
G1 X111.319 Y84.327 E16.35247
G1 X111.75 Y84.927 E16.38472
G1 X112.114 Y85.57 E16.41697
G1 X112.406 Y86.248 E16.4492
G1 X112.623 Y86.954 E16.48144
G1 X112.762 Y87.68 E16.51371
G1 X112.825 Y88.603 E16.5541
G1 X112.825 Y111.397 E17.54914
G1 X112.785 Y112.135 E17.58141
G1 X112.666 Y112.863 E17.61361
G1 X112.468 Y113.575 E17.64587
G1 X112.195 Y114.261 E17.6781
G1 X111.849 Y114.914 E17.71036
G1 X111.435 Y115.526 E17.74262
G1 X110.826 Y116.223 E17.78302
G1 X110.723 Y116.326 E17.78938
G1 X110.173 Y116.819 E17.82162
G1 X109.573 Y117.25 E17.85387
G1 X108.93 Y117.614 E17.88613
G1 X108.252 Y117.906 E17.91835
G1 X107.546 Y118.123 E17.9506
G1 X106.82 Y118.262 E17.98287
G1 X105.897 Y118.325 E18.02325
G1 X94.103 Y118.325 E18.53811
G1 X93.365 Y118.285 E18.57037
G1 X92.637 Y118.166 E18.60257
G1 X91.925 Y117.968 E18.63483
G1 X91.239 Y117.695 E18.66706
G1 X90.586 Y117.349 E18.69932
G1 X89.974 Y116.935 E18.73158
G1 X89.277 Y116.326 E18.77198
G1 X89.174 Y116.223 E18.77834
G1 X88.681 Y115.673 E18.81059
G1 X88.25 Y115.073 E18.84284
G1 X87.886 Y114.43 E18.87509
G1 X87.594 Y113.752 E18.90732
G1 X87.377 Y113.046 E18.93956
G1 X87.238 Y112.32 E18.97183
G1 X87.175 Y111.397 E19.01221
G1 X87.175 Y88.603 E20.00726
G1 X87.215 Y87.865 E20.03953
G1 X87.334 Y87.137 E20.07173
G1 X87.532 Y86.425 E20.10399
G1 X87.805 Y85.739 E20.13622
G1 X88.151 Y85.086 E20.16848
G1 X88.565 Y84.474 E20.20073
G1 X89.174 Y83.777 E20.24114
G0 F3600 X89.421 Y84.024
G1 F2400 X89.524 Y83.921 E20.2475
G1 X90.061 Y83.442 E20.27891
G1 X90.647 Y83.025 E20.31031
G1 X91.276 Y82.675 E20.34173
G1 X91.939 Y82.397 E20.37312
G1 X92.63 Y82.195 E20.40454
G1 X93.338 Y82.07 E20.43593
G1 X94.103 Y82.025 E20.46938
G1 X105.897 Y82.025 E20.98424
G1 X106.615 Y82.065 E21.01563
G1 X107.325 Y82.184 E21.04705
G1 X108.017 Y82.382 E21.07847
G1 X108.682 Y82.655 E21.10986
G1 X109.314 Y83 E21.14129
G1 X109.903 Y83.413 E21.17269
G1 X110.476 Y83.921 E21.20612
G1 X110.579 Y84.024 E21.21248
G1 X111.058 Y84.561 E21.24389
G1 X111.475 Y85.147 E21.27529
G1 X111.825 Y85.776 E21.30671
G1 X112.103 Y86.439 E21.3381
G1 X112.305 Y87.13 E21.36952
G1 X112.43 Y87.838 E21.40091
G1 X112.475 Y88.603 E21.43436
G1 X112.475 Y111.397 E22.42941
G1 X112.435 Y112.115 E22.4608
G1 X112.316 Y112.825 E22.49223
G1 X112.118 Y113.517 E22.52365
G1 X111.845 Y114.182 E22.55503
G1 X111.5 Y114.814 E22.58646
G1 X111.087 Y115.403 E22.61786
G1 X110.579 Y115.976 E22.65129
G1 X110.476 Y116.079 E22.65765
G1 X109.939 Y116.558 E22.68906
G1 X109.353 Y116.975 E22.72046
G1 X108.724 Y117.325 E22.75188
G1 X108.061 Y117.603 E22.78327
G1 X107.37 Y117.805 E22.8147
G1 X106.662 Y117.93 E22.84608
G1 X105.897 Y117.975 E22.87953
G1 X94.103 Y117.975 E23.39439
G1 X93.385 Y117.935 E23.42578
G1 X92.675 Y117.816 E23.45721
G1 X91.983 Y117.618 E23.48863
G1 X91.318 Y117.345 E23.52001
G1 X90.686 Y117 E23.55144
G1 X90.097 Y116.587 E23.58284
G1 X89.524 Y116.079 E23.61627
G1 X89.421 Y115.976 E23.62263
G1 X88.942 Y115.439 E23.65404
G1 X88.525 Y114.853 E23.68544
G1 X88.175 Y114.224 E23.71686
G1 X87.897 Y113.561 E23.74825
G1 X87.695 Y112.87 E23.77968
G1 X87.57 Y112.162 E23.81106
G1 X87.525 Y111.397 E23.84451
G1 X87.525 Y88.603 E24.83956
G1 X87.565 Y87.885 E24.87095
G1 X87.684 Y87.175 E24.90238
G1 X87.882 Y86.483 E24.9338
G1 X88.155 Y85.818 E24.96518
G1 X88.5 Y85.186 E24.99661
G1 X88.913 Y84.597 E25.02802
G1 X89.421 Y84.024 E25.06145
G0 F3600 X89.669 Y84.272
G1 F2400 X89.772 Y84.169 E25.0678
G1 X90.294 Y83.703 E25.09835
G1 X90.866 Y83.3 E25.1289
G1 X91.48 Y82.965 E25.15943
G1 X92.129 Y82.702 E25.19
G1 X92.803 Y82.515 E25.22053
G1 X93.494 Y82.405 E25.25108
G1 X94.103 Y82.375 E25.2777
G1 X105.897 Y82.375 E25.79255
G1 X106.596 Y82.415 E25.82311
G1 X107.285 Y82.534 E25.85364
G1 X107.956 Y82.732 E25.88418
G1 X108.601 Y83.004 E25.91473
G1 X109.21 Y83.348 E25.94527
G1 X109.776 Y83.76 E25.97583
G1 X110.228 Y84.169 E26.00244
G1 X110.331 Y84.272 E26.0088
G1 X110.797 Y84.794 E26.03934
G1 X111.2 Y85.366 E26.06989
G1 X111.535 Y85.98 E26.10042
G1 X111.798 Y86.629 E26.13099
G1 X111.985 Y87.303 E26.16153
G1 X112.095 Y87.994 E26.19207
G1 X112.125 Y88.603 E26.21869
G1 X112.125 Y111.397 E27.21374
G1 X112.085 Y112.096 E27.2443
G1 X111.966 Y112.785 E27.27482
G1 X111.768 Y113.456 E27.30536
G1 X111.496 Y114.101 E27.33592
G1 X111.152 Y114.71 E27.36646
G1 X110.74 Y115.276 E27.39702
G1 X110.331 Y115.728 E27.42363
G1 X110.228 Y115.831 E27.42999
G1 X109.706 Y116.297 E27.46053
G1 X109.134 Y116.7 E27.49108
G1 X108.52 Y117.035 E27.52161
G1 X107.871 Y117.298 E27.55218
G1 X107.197 Y117.485 E27.58271
G1 X106.506 Y117.595 E27.61326
G1 X105.897 Y117.625 E27.63988
G1 X94.103 Y117.625 E28.15473
G1 X93.404 Y117.585 E28.18529
G1 X92.715 Y117.466 E28.21582
G1 X92.044 Y117.268 E28.24636
G1 X91.399 Y116.996 E28.27692
G1 X90.79 Y116.652 E28.30745
G1 X90.224 Y116.24 E28.33801
G1 X89.772 Y115.831 E28.36462
G1 X89.669 Y115.728 E28.37098
G1 X89.203 Y115.206 E28.40153
G1 X88.8 Y114.634 E28.43207
G1 X88.465 Y114.02 E28.4626
G1 X88.202 Y113.371 E28.49317
G1 X88.015 Y112.697 E28.52371
G1 X87.905 Y112.006 E28.55425
G1 X87.875 Y111.397 E28.58087
G1 X87.875 Y88.603 E29.57592
G1 X87.915 Y87.904 E29.60648
G1 X88.034 Y87.215 E29.637
G1 X88.232 Y86.544 E29.66754
G1 X88.504 Y85.899 E29.6981
G1 X88.848 Y85.29 E29.72864
G1 X89.26 Y84.724 E29.7592
G1 X89.669 Y84.272 E29.78581
G0 F3600 X89.916 Y84.519
G1 F2400 X90.019 Y84.416 E29.79217
G1 X90.527 Y83.965 E29.82182
G1 X91.085 Y83.577 E29.85149
G1 X91.684 Y83.256 E29.88116
G1 X92.316 Y83.008 E29.91079
G1 X92.974 Y82.836 E29.94048
G1 X93.647 Y82.743 E29.97014
G1 X94.103 Y82.725 E29.99006
G1 X105.897 Y82.725 E30.50492
G1 X106.575 Y82.765 E30.53457
G1 X107.244 Y82.884 E30.56423
G1 X107.894 Y83.081 E30.59388
G1 X108.517 Y83.353 E30.62355
G1 X109.103 Y83.697 E30.65322
G1 X109.645 Y84.107 E30.68289
G1 X109.981 Y84.416 E30.70281
G1 X110.084 Y84.519 E30.70917
G1 X110.535 Y85.027 E30.73883
G1 X110.923 Y85.585 E30.76849
G1 X111.244 Y86.184 E30.79816
G1 X111.492 Y86.816 E30.8278
G1 X111.664 Y87.474 E30.85749
G1 X111.757 Y88.147 E30.88715
G1 X111.775 Y88.603 E30.90707
G1 X111.775 Y111.397 E31.90212
G1 X111.735 Y112.075 E31.93176
G1 X111.616 Y112.744 E31.96143
G1 X111.419 Y113.394 E31.99108
G1 X111.147 Y114.017 E32.02075
G1 X110.803 Y114.603 E32.05042
G1 X110.393 Y115.145 E32.08008
G1 X110.084 Y115.481 E32.10001
G1 X109.981 Y115.584 E32.10637
G1 X109.473 Y116.035 E32.13602
G1 X108.915 Y116.423 E32.16569
G1 X108.316 Y116.744 E32.19536
G1 X107.684 Y116.992 E32.225
G1 X107.026 Y117.164 E32.25469
G1 X106.353 Y117.257 E32.28435
G1 X105.897 Y117.275 E32.30427
G1 X94.103 Y117.275 E32.81912
G1 X93.425 Y117.235 E32.84877
G1 X92.756 Y117.116 E32.87843
G1 X92.106 Y116.919 E32.90808
G1 X91.483 Y116.647 E32.93776
G1 X90.897 Y116.303 E32.96742
G1 X90.355 Y115.893 E32.99709
G1 X90.019 Y115.584 E33.01702
G1 X89.916 Y115.481 E33.02337
G1 X89.465 Y114.973 E33.05303
G1 X89.077 Y114.415 E33.0827
G1 X88.756 Y113.816 E33.11237
G1 X88.508 Y113.184 E33.142
G1 X88.336 Y112.526 E33.17169
G1 X88.243 Y111.853 E33.20135
G1 X88.225 Y111.397 E33.22127
G1 X88.225 Y88.603 E34.21632
G1 X88.265 Y87.925 E34.24597
G1 X88.384 Y87.256 E34.27563
G1 X88.581 Y86.606 E34.30528
G1 X88.853 Y85.983 E34.33496
G1 X89.197 Y85.397 E34.36462
G1 X89.607 Y84.855 E34.39429
G1 X89.916 Y84.519 E34.41421
G0 F3600 X90.164 Y84.767
G1 F2400 X90.267 Y84.664 E34.42057
G1 X90.76 Y84.227 E34.44933
G1 X91.302 Y83.854 E34.47805
G1 X91.886 Y83.549 E34.50682
G1 X92.502 Y83.317 E34.53555
G1 X93.142 Y83.161 E34.56431
G1 X94.103 Y83.075 E34.60643
G1 X105.897 Y83.075 E35.12128
G1 X106.554 Y83.115 E35.15001
G1 X107.202 Y83.234 E35.17877
G1 X107.83 Y83.431 E35.20751
G1 X108.43 Y83.703 E35.23626
G1 X108.993 Y84.045 E35.26502
G1 X109.733 Y84.664 E35.30714
G1 X109.836 Y84.767 E35.3135
G1 X110.273 Y85.26 E35.34225
G1 X110.646 Y85.802 E35.37098
G1 X110.951 Y86.386 E35.39974
G1 X111.183 Y87.002 E35.42847
G1 X111.339 Y87.642 E35.45723
G1 X111.425 Y88.603 E35.49935
G1 X111.425 Y111.397 E36.4944
G1 X111.385 Y112.054 E36.52313
G1 X111.266 Y112.702 E36.55189
G1 X111.069 Y113.33 E36.58062
G1 X110.797 Y113.93 E36.60938
G1 X110.455 Y114.493 E36.63814
G1 X109.836 Y115.233 E36.68025
G1 X109.733 Y115.336 E36.68661
G1 X109.24 Y115.773 E36.71537
G1 X108.698 Y116.146 E36.74409
G1 X108.114 Y116.451 E36.77285
G1 X107.498 Y116.683 E36.80159
G1 X106.858 Y116.839 E36.83034
G1 X105.897 Y116.925 E36.87246
G1 X94.103 Y116.925 E37.38732
G1 X93.446 Y116.885 E37.41605
G1 X92.798 Y116.766 E37.44481
G1 X92.17 Y116.569 E37.47354
G1 X91.57 Y116.297 E37.5023
G1 X91.007 Y115.955 E37.53106
G1 X90.267 Y115.336 E37.57317
G1 X90.164 Y115.233 E37.57953
G1 X89.727 Y114.74 E37.60829
G1 X89.354 Y114.198 E37.63701
G1 X89.049 Y113.614 E37.66578
G1 X88.817 Y112.998 E37.69451
G1 X88.661 Y112.358 E37.72327
G1 X88.575 Y111.397 E37.76539
