;FLAVOR:Marlin
;TIME:281
;Filament used: 0.279406m
;Layer height: 0.2
;Generated with Cura_SteamEngine 3.3.1
M190 S60
M104 S210
M109 S210
M82 ;absolute extrusion mode
G21 ;metric values
G90 ;absolute positioning
M82 ;set extruder to absolute mode
M107 ;start with the fan off
G28 X0 Y0 ;move X/Y to min endstops
G28 Z0 ;move Z to min endstops
G1 Z15.0 F9000 ;move the platform down 15mm
G92 E0 ;zero the extruded length
G1 F200 E3 ;extrude 3mm of feed stock
G92 E0 ;zero the extruded length again
G1 F9000
;Put printing message on LCD screen
M117 Printing...
G92 E0
G1 F1500 E-6.5
;LAYER_COUNT:25
;LAYER:0
M107
G0 F3600 X85.535 Y88.432 Z0.3
;TYPE:SKIRT
G1 F1500 E0
G1 F2400 X86.123 Y87.899 E0.03464
G1 X86.762 Y87.429 E0.06927
G1 X87.446 Y87.026 E0.10393
G1 X88.166 Y86.693 E0.13856
G1 X88.916 Y86.435 E0.17318
G1 X89.689 Y86.253 E0.20785
G1 X90.475 Y86.15 E0.24245
G1 X91.103 Y86.125 E0.26989
G1 X108.897 Y86.125 E1.04667
G1 X109.689 Y86.165 E1.08129
G1 X110.474 Y86.284 E1.11595
G1 X111.242 Y86.482 E1.15057
G1 X111.987 Y86.757 E1.18524
G1 X112.7 Y87.104 E1.21985
G1 X113.375 Y87.522 E1.25451
G1 X114.004 Y88.005 E1.28913
G1 X114.465 Y88.432 E1.31656
G1 X114.568 Y88.535 E1.32292
G1 X115.101 Y89.123 E1.35756
G1 X115.571 Y89.762 E1.39219
G1 X115.974 Y90.446 E1.42685
G1 X116.307 Y91.166 E1.46148
G1 X116.565 Y91.916 E1.4961
G1 X116.747 Y92.689 E1.53077
G1 X116.85 Y93.475 E1.56537
G1 X116.875 Y94.103 E1.59281
G1 X116.875 Y105.897 E2.10767
G1 X116.835 Y106.689 E2.14228
G1 X116.716 Y107.474 E2.17694
G1 X116.518 Y108.242 E2.21157
G1 X116.243 Y108.987 E2.24623
G1 X115.896 Y109.7 E2.28085
G1 X115.478 Y110.375 E2.31551
G1 X114.995 Y111.004 E2.35013
G1 X114.568 Y111.465 E2.37756
G1 X114.465 Y111.568 E2.38392
G1 X113.877 Y112.101 E2.41856
G1 X113.238 Y112.571 E2.45319
G1 X112.554 Y112.974 E2.48785
G1 X111.834 Y113.307 E2.52248
G1 X111.084 Y113.565 E2.5571
G1 X110.311 Y113.747 E2.59177
G1 X109.525 Y113.85 E2.62637
G1 X108.897 Y113.875 E2.65381
G1 X91.103 Y113.875 E3.43059
G1 X90.311 Y113.835 E3.4652
G1 X89.526 Y113.716 E3.49986
G1 X88.758 Y113.518 E3.53449
G1 X88.013 Y113.243 E3.56915
G1 X87.3 Y112.896 E3.60377
G1 X86.625 Y112.478 E3.63843
G1 X85.996 Y111.995 E3.67305
G1 X85.535 Y111.568 E3.70048
G1 X85.432 Y111.465 E3.70684
G1 X84.899 Y110.877 E3.74148
G1 X84.429 Y110.238 E3.77611
G1 X84.026 Y109.554 E3.81077
G1 X83.693 Y108.834 E3.8454
G1 X83.435 Y108.084 E3.88002
G1 X83.253 Y107.311 E3.91469
G1 X83.15 Y106.525 E3.94929
G1 X83.125 Y105.897 E3.97673
G1 X83.125 Y94.103 E4.49158
G1 X83.165 Y93.311 E4.5262
G1 X83.284 Y92.526 E4.56086
G1 X83.482 Y91.758 E4.59548
G1 X83.757 Y91.013 E4.63015
G1 X84.104 Y90.3 E4.66477
G1 X84.522 Y89.625 E4.69942
G1 X85.005 Y88.996 E4.73404
G1 X85.432 Y88.535 E4.76148
G1 X85.535 Y88.432 E4.76783
G0 F3600 X85.782 Y88.679
G1 F2400 X86.358 Y88.16 E4.80168
G1 X86.984 Y87.702 E4.83554
G1 X87.655 Y87.312 E4.86942
G1 X88.361 Y86.992 E4.90326
G1 X89.097 Y86.747 E4.93712
G1 X89.855 Y86.579 E4.97101
G1 X90.625 Y86.49 E5.00485
G1 X91.103 Y86.475 E5.02573
G1 X108.897 Y86.475 E5.80251
G1 X109.672 Y86.515 E5.83638
G1 X110.438 Y86.634 E5.87022
G1 X111.188 Y86.832 E5.90408
G1 X111.914 Y87.106 E5.93796
G1 X112.607 Y87.453 E5.97179
G1 X113.261 Y87.87 E6.00565
G1 X113.869 Y88.352 E6.03952
G1 X114.218 Y88.679 E6.0604
G1 X114.321 Y88.782 E6.06676
G1 X114.84 Y89.358 E6.1006
G1 X115.298 Y89.984 E6.13447
G1 X115.688 Y90.655 E6.16835
G1 X116.008 Y91.361 E6.20218
G1 X116.253 Y92.097 E6.23605
G1 X116.421 Y92.855 E6.26994
G1 X116.51 Y93.625 E6.30378
G1 X116.525 Y94.103 E6.32465
G1 X116.525 Y105.897 E6.83951
G1 X116.485 Y106.672 E6.87338
G1 X116.366 Y107.438 E6.90722
G1 X116.168 Y108.188 E6.94109
G1 X115.894 Y108.914 E6.97496
G1 X115.547 Y109.607 E7.00879
G1 X115.13 Y110.261 E7.04265
G1 X114.648 Y110.869 E7.07652
G1 X114.321 Y111.218 E7.0974
G1 X114.218 Y111.321 E7.10376
G1 X113.642 Y111.84 E7.13761
G1 X113.016 Y112.298 E7.17147
G1 X112.345 Y112.688 E7.20535
G1 X111.639 Y113.008 E7.23918
G1 X110.903 Y113.253 E7.27305
G1 X110.145 Y113.421 E7.30694
G1 X109.375 Y113.51 E7.34078
G1 X108.897 Y113.525 E7.36165
G1 X91.103 Y113.525 E8.13843
G1 X90.328 Y113.485 E8.17231
G1 X89.562 Y113.366 E8.20615
G1 X88.812 Y113.168 E8.24001
G1 X88.086 Y112.894 E8.27389
G1 X87.393 Y112.547 E8.30772
G1 X86.739 Y112.13 E8.34158
G1 X86.131 Y111.648 E8.37545
G1 X85.782 Y111.321 E8.39633
G1 X85.679 Y111.218 E8.40268
G1 X85.16 Y110.642 E8.43653
G1 X84.702 Y110.016 E8.47039
G1 X84.312 Y109.345 E8.50427
G1 X83.992 Y108.639 E8.53811
G1 X83.747 Y107.903 E8.57197
G1 X83.579 Y107.145 E8.60586
G1 X83.49 Y106.375 E8.6397
G1 X83.475 Y105.897 E8.66058
G1 X83.475 Y94.103 E9.17543
G1 X83.515 Y93.328 E9.20931
G1 X83.634 Y92.562 E9.24315
G1 X83.832 Y91.812 E9.27701
G1 X84.106 Y91.086 E9.31089
G1 X84.453 Y90.393 E9.34472
G1 X84.87 Y89.739 E9.37858
G1 X85.352 Y89.131 E9.41245
G1 X85.679 Y88.782 E9.43333
G1 X85.782 Y88.679 E9.43969
G0 F3600 X86.03 Y88.927
G1 F2400 X86.593 Y88.42 E9.47276
G1 X87.206 Y87.976 E9.5058
G1 X87.863 Y87.598 E9.53889
G1 X88.555 Y87.292 E9.57192
G1 X89.277 Y87.061 E9.60501
G1 X90.018 Y86.907 E9.63805
G1 X91.103 Y86.825 E9.68555
G1 X108.897 Y86.825 E10.46233
G1 X109.653 Y86.865 E10.49538
G1 X110.401 Y86.984 E10.52844
G1 X111.132 Y87.182 E10.5615
G1 X111.839 Y87.456 E10.5946
G1 X112.512 Y87.802 E10.62764
G1 X113.145 Y88.218 E10.6607
G1 X113.97 Y88.927 E10.70819
G1 X114.073 Y89.03 E10.71455
G1 X114.58 Y89.593 E10.74762
G1 X115.024 Y90.206 E10.78066
G1 X115.402 Y90.863 E10.81375
G1 X115.708 Y91.555 E10.84678
G1 X115.939 Y92.277 E10.87987
G1 X116.093 Y93.018 E10.91291
G1 X116.175 Y94.103 E10.96041
G1 X116.175 Y105.897 E11.47527
G1 X116.135 Y106.653 E11.50832
G1 X116.016 Y107.401 E11.54138
G1 X115.818 Y108.132 E11.57444
G1 X115.544 Y108.839 E11.60754
G1 X115.198 Y109.512 E11.64057
G1 X114.782 Y110.145 E11.67364
G1 X114.073 Y110.97 E11.72113
G1 X113.97 Y111.073 E11.72749
G1 X113.407 Y111.58 E11.76056
G1 X112.794 Y112.024 E11.7936
G1 X112.137 Y112.402 E11.82669
G1 X111.445 Y112.708 E11.85972
G1 X110.723 Y112.939 E11.89281
G1 X109.982 Y113.093 E11.92585
G1 X108.897 Y113.175 E11.97335
G1 X91.103 Y113.175 E12.75013
G1 X90.347 Y113.135 E12.78318
G1 X89.599 Y113.016 E12.81624
G1 X88.868 Y112.818 E12.8493
G1 X88.161 Y112.544 E12.8824
G1 X87.488 Y112.198 E12.91544
G1 X86.855 Y111.782 E12.9485
G1 X86.03 Y111.073 E12.99599
G1 X85.927 Y110.97 E13.00235
G1 X85.42 Y110.407 E13.03542
G1 X84.976 Y109.794 E13.06846
G1 X84.598 Y109.137 E13.10155
G1 X84.292 Y108.445 E13.13458
G1 X84.061 Y107.723 E13.16768
G1 X83.907 Y106.982 E13.20071
G1 X83.825 Y105.897 E13.24821
G1 X83.825 Y94.103 E13.76307
G1 X83.865 Y93.347 E13.79612
G1 X83.984 Y92.599 E13.82918
G1 X84.182 Y91.868 E13.86224
G1 X84.456 Y91.161 E13.89534
G1 X84.802 Y90.488 E13.92838
G1 X85.218 Y89.855 E13.96144
G1 X85.927 Y89.03 E14.00893
G1 X86.03 Y88.927 E14.01529
G0 F3600 X86.277 Y89.174
G1 F2400 X86.827 Y88.681 E14.04753
G1 X87.427 Y88.25 E14.07978
G1 X88.07 Y87.886 E14.11204
G1 X88.748 Y87.594 E14.14426
G1 X89.454 Y87.377 E14.1765
G1 X90.18 Y87.238 E14.20877
G1 X91.103 Y87.175 E14.24916
G1 X108.897 Y87.175 E15.02594
G1 X109.635 Y87.215 E15.0582
G1 X110.363 Y87.334 E15.0904
G1 X111.075 Y87.532 E15.12266
G1 X111.761 Y87.805 E15.15489
G1 X112.414 Y88.151 E15.18715
G1 X113.026 Y88.565 E15.21941
G1 X113.723 Y89.174 E15.25981
G1 X113.826 Y89.277 E15.26617
G1 X114.319 Y89.827 E15.29842
G1 X114.75 Y90.427 E15.33067
G1 X115.114 Y91.07 E15.36292
G1 X115.406 Y91.748 E15.39515
G1 X115.623 Y92.454 E15.42739
G1 X115.762 Y93.18 E15.45966
G1 X115.825 Y94.103 E15.50004
G1 X115.825 Y105.897 E16.0149
G1 X115.785 Y106.635 E16.04716
G1 X115.666 Y107.363 E16.07936
G1 X115.468 Y108.075 E16.11163
G1 X115.195 Y108.761 E16.14386
G1 X114.849 Y109.414 E16.17612
G1 X114.435 Y110.026 E16.20837
G1 X113.826 Y110.723 E16.24878
G1 X113.723 Y110.826 E16.25514
G1 X113.173 Y111.319 E16.28738
G1 X112.573 Y111.75 E16.31963
G1 X111.93 Y112.114 E16.35188
G1 X111.252 Y112.406 E16.38411
G1 X110.546 Y112.623 E16.41635
G1 X109.82 Y112.762 E16.44862
G1 X108.897 Y112.825 E16.48901
G1 X91.103 Y112.825 E17.26578
G1 X90.365 Y112.785 E17.29805
G1 X89.637 Y112.666 E17.33025
G1 X88.925 Y112.468 E17.36251
G1 X88.239 Y112.195 E17.39474
G1 X87.586 Y111.849 E17.427
G1 X86.974 Y111.435 E17.45926
G1 X86.277 Y110.826 E17.49966
G1 X86.174 Y110.723 E17.50602
G1 X85.681 Y110.173 E17.53826
G1 X85.25 Y109.573 E17.57051
G1 X84.886 Y108.93 E17.60277
G1 X84.594 Y108.252 E17.63499
G1 X84.377 Y107.546 E17.66724
G1 X84.238 Y106.82 E17.69951
G1 X84.175 Y105.897 E17.73989
G1 X84.175 Y94.103 E18.25475
G1 X84.215 Y93.365 E18.28701
G1 X84.334 Y92.637 E18.31921
G1 X84.532 Y91.925 E18.35147
G1 X84.805 Y91.239 E18.3837
G1 X85.151 Y90.586 E18.41596
G1 X85.565 Y89.974 E18.44822
G1 X86.174 Y89.277 E18.48862
G1 X86.277 Y89.174 E18.49498
G0 F3600 X86.524 Y89.421
G1 F2400 X87.061 Y88.942 E18.5264
G1 X87.647 Y88.525 E18.55779
G1 X88.276 Y88.175 E18.58922
G1 X88.939 Y87.897 E18.6206
G1 X89.63 Y87.695 E18.65203
G1 X90.338 Y87.57 E18.68341
G1 X91.103 Y87.525 E18.71686
G1 X108.897 Y87.525 E19.49364
G1 X109.615 Y87.565 E19.52503
G1 X110.325 Y87.684 E19.55646
G1 X111.017 Y87.882 E19.58788
G1 X111.682 Y88.155 E19.61926
G1 X112.314 Y88.5 E19.6507
G1 X112.903 Y88.913 E19.6821
G1 X113.476 Y89.421 E19.71553
G1 X113.579 Y89.524 E19.72189
G1 X114.058 Y90.061 E19.7533
G1 X114.475 Y90.647 E19.7847
G1 X114.825 Y91.276 E19.81612
G1 X115.103 Y91.939 E19.8475
G1 X115.305 Y92.63 E19.87893
G1 X115.43 Y93.338 E19.91032
G1 X115.475 Y94.103 E19.94377
G1 X115.475 Y105.897 E20.45862
G1 X115.435 Y106.615 E20.49001
G1 X115.316 Y107.325 E20.52144
G1 X115.118 Y108.017 E20.55286
G1 X114.845 Y108.682 E20.58424
G1 X114.5 Y109.314 E20.61568
G1 X114.087 Y109.903 E20.64708
G1 X113.579 Y110.476 E20.68051
G1 X113.476 Y110.579 E20.68687
G1 X112.939 Y111.058 E20.71828
G1 X112.353 Y111.475 E20.74968
G1 X111.724 Y111.825 E20.7811
G1 X111.061 Y112.103 E20.81248
G1 X110.37 Y112.305 E20.84391
G1 X109.662 Y112.43 E20.8753
G1 X108.897 Y112.475 E20.90875
G1 X91.103 Y112.475 E21.68553
G1 X90.385 Y112.435 E21.71692
G1 X89.675 Y112.316 E21.74834
G1 X88.983 Y112.118 E21.77977
G1 X88.318 Y111.845 E21.81115
G1 X87.686 Y111.5 E21.84258
G1 X87.097 Y111.087 E21.87398
G1 X86.524 Y110.579 E21.90741
G1 X86.421 Y110.476 E21.91377
G1 X85.942 Y109.939 E21.94518
G1 X85.525 Y109.353 E21.97658
G1 X85.175 Y108.724 E22.008
G1 X84.897 Y108.061 E22.03939
G1 X84.695 Y107.37 E22.07081
G1 X84.57 Y106.662 E22.1022
G1 X84.525 Y105.897 E22.13565
G1 X84.525 Y94.103 E22.65051
G1 X84.565 Y93.385 E22.6819
G1 X84.684 Y92.675 E22.71332
G1 X84.882 Y91.983 E22.74475
G1 X85.155 Y91.318 E22.77613
G1 X85.5 Y90.686 E22.80756
G1 X85.913 Y90.097 E22.83896
G1 X86.421 Y89.524 E22.87239
G1 X86.524 Y89.421 E22.87875
G0 F3600 X86.772 Y89.669
G1 F2400 X87.294 Y89.203 E22.9093
G1 X87.866 Y88.8 E22.93984
G1 X88.48 Y88.465 E22.97037
G1 X89.129 Y88.202 E23.00094
G1 X89.803 Y88.015 E23.03148
G1 X90.494 Y87.905 E23.06202
G1 X91.103 Y87.875 E23.08864
G1 X108.897 Y87.875 E23.86542
G1 X109.596 Y87.915 E23.89598
G1 X110.285 Y88.034 E23.9265
G1 X110.956 Y88.232 E23.95705
G1 X111.601 Y88.504 E23.9876
G1 X112.21 Y88.848 E24.01814
G1 X112.776 Y89.26 E24.0487
G1 X113.228 Y89.669 E24.07531
G1 X113.331 Y89.772 E24.08167
G1 X113.797 Y90.294 E24.11221
G1 X114.2 Y90.866 E24.14276
G1 X114.535 Y91.48 E24.17329
G1 X114.798 Y92.129 E24.20386
G1 X114.985 Y92.803 E24.2344
G1 X115.095 Y93.494 E24.26494
G1 X115.125 Y94.103 E24.29156
G1 X115.125 Y105.897 E24.80641
G1 X115.085 Y106.596 E24.83698
G1 X114.966 Y107.285 E24.8675
G1 X114.768 Y107.956 E24.89804
G1 X114.496 Y108.601 E24.9286
G1 X114.152 Y109.21 E24.95913
G1 X113.74 Y109.776 E24.98969
G1 X113.331 Y110.228 E25.0163
G1 X113.228 Y110.331 E25.02266
G1 X112.706 Y110.797 E25.05321
G1 X112.134 Y111.2 E25.08375
G1 X111.52 Y111.535 E25.11429
G1 X110.871 Y111.798 E25.14485
G1 X110.197 Y111.985 E25.17539
G1 X109.506 Y112.095 E25.20593
G1 X108.897 Y112.125 E25.23255
G1 X91.103 Y112.125 E26.00933
G1 X90.404 Y112.085 E26.03989
G1 X89.715 Y111.966 E26.07042
G1 X89.044 Y111.768 E26.10096
G1 X88.399 Y111.496 E26.13151
G1 X87.79 Y111.152 E26.16205
G1 X87.224 Y110.74 E26.19261
G1 X86.772 Y110.331 E26.21922
G1 X86.669 Y110.228 E26.22558
G1 X86.203 Y109.706 E26.25612
G1 X85.8 Y109.134 E26.28667
G1 X85.465 Y108.52 E26.3172
G1 X85.202 Y107.871 E26.34777
G1 X85.015 Y107.197 E26.37831
G1 X84.905 Y106.506 E26.40885
G1 X84.875 Y105.897 E26.43547
G1 X84.875 Y94.103 E26.95032
G1 X84.915 Y93.404 E26.98089
G1 X85.034 Y92.715 E27.01141
G1 X85.232 Y92.044 E27.04195
G1 X85.504 Y91.399 E27.07251
G1 X85.848 Y90.79 E27.10304
G1 X86.26 Y90.224 E27.1336
G1 X86.669 Y89.772 E27.16021
G1 X86.772 Y89.669 E27.16657
G0 F3600 X87.019 Y89.916
G1 F2400 X87.527 Y89.465 E27.19623
G1 X88.085 Y89.077 E27.2259
G1 X88.684 Y88.756 E27.25556
G1 X89.316 Y88.508 E27.2852
G1 X89.974 Y88.336 E27.31489
G1 X90.647 Y88.243 E27.34455
G1 X91.103 Y88.225 E27.36447
G1 X108.897 Y88.225 E28.14125
G1 X109.575 Y88.265 E28.1709
G1 X110.244 Y88.384 E28.20056
G1 X110.894 Y88.581 E28.23021
G1 X111.517 Y88.853 E28.25988
G1 X112.103 Y89.197 E28.28955
G1 X112.645 Y89.607 E28.31921
G1 X112.981 Y89.916 E28.33914
G1 X113.084 Y90.019 E28.3455
G1 X113.535 Y90.527 E28.37516
G1 X113.923 Y91.085 E28.40482
G1 X114.244 Y91.684 E28.43449
G1 X114.492 Y92.316 E28.46413
G1 X114.664 Y92.974 E28.49382
G1 X114.757 Y93.647 E28.52348
G1 X114.775 Y94.103 E28.5434
G1 X114.775 Y105.897 E29.05825
G1 X114.735 Y106.575 E29.0879
G1 X114.616 Y107.244 E29.11756
G1 X114.419 Y107.894 E29.14721
G1 X114.147 Y108.517 E29.17689
G1 X113.803 Y109.103 E29.20655
G1 X113.393 Y109.645 E29.23622
G1 X113.084 Y109.981 E29.25615
G1 X112.981 Y110.084 E29.26251
G1 X112.473 Y110.535 E29.29216
G1 X111.915 Y110.923 E29.32183
G1 X111.316 Y111.244 E29.3515
G1 X110.684 Y111.492 E29.38113
G1 X110.026 Y111.664 E29.41082
G1 X109.353 Y111.757 E29.44048
G1 X108.897 Y111.775 E29.4604
G1 X91.103 Y111.775 E30.23718
G1 X90.425 Y111.735 E30.26683
G1 X89.756 Y111.616 E30.29649
G1 X89.106 Y111.419 E30.32614
G1 X88.483 Y111.147 E30.35582
G1 X87.897 Y110.803 E30.38548
G1 X87.355 Y110.393 E30.41515
G1 X87.019 Y110.084 E30.43508
G1 X86.916 Y109.981 E30.44143
G1 X86.465 Y109.473 E30.47109
G1 X86.077 Y108.915 E30.50076
G1 X85.756 Y108.316 E30.53042
G1 X85.508 Y107.684 E30.56006
G1 X85.336 Y107.026 E30.58975
G1 X85.243 Y106.353 E30.61941
G1 X85.225 Y105.897 E30.63933
G1 X85.225 Y94.103 E31.15419
G1 X85.265 Y93.425 E31.18383
G1 X85.384 Y92.756 E31.2135
G1 X85.581 Y92.106 E31.24315
G1 X85.853 Y91.483 E31.27282
G1 X86.197 Y90.897 E31.30249
G1 X86.607 Y90.355 E31.33215
G1 X86.916 Y90.019 E31.35208
G1 X87.019 Y89.916 E31.35844
G0 F3600 X87.267 Y90.164
G1 F2400 X87.76 Y89.727 E31.3872
G1 X88.302 Y89.354 E31.41592
G1 X88.886 Y89.049 E31.44468
G1 X89.502 Y88.817 E31.47342
G1 X90.142 Y88.661 E31.50217
G1 X91.103 Y88.575 E31.54429
G1 X108.897 Y88.575 E32.32107
G1 X109.554 Y88.615 E32.3498
G1 X110.202 Y88.734 E32.37856
G1 X110.83 Y88.931 E32.4073
G1 X111.43 Y89.203 E32.43605
G1 X111.993 Y89.545 E32.46481
G1 X112.733 Y90.164 E32.50693
G1 X112.836 Y90.267 E32.51329
G1 X113.273 Y90.76 E32.54204
G1 X113.646 Y91.302 E32.57077
G1 X113.951 Y91.886 E32.59953
G1 X114.183 Y92.502 E32.62826
G1 X114.339 Y93.142 E32.65702
G1 X114.425 Y94.103 E32.69914
G1 X114.425 Y105.897 E33.21399
G1 X114.385 Y106.554 E33.24273
G1 X114.266 Y107.202 E33.27149
G1 X114.069 Y107.83 E33.30022
G1 X113.797 Y108.43 E33.32898
G1 X113.455 Y108.993 E33.35773
G1 X112.836 Y109.733 E33.39985
G1 X112.733 Y109.836 E33.40621
G1 X112.24 Y110.273 E33.43497
G1 X111.698 Y110.646 E33.46369
G1 X111.114 Y110.951 E33.49245
G1 X110.498 Y111.183 E33.52119
G1 X109.858 Y111.339 E33.54994
G1 X108.897 Y111.425 E33.59206
G1 X91.103 Y111.425 E34.36884
G1 X90.446 Y111.385 E34.39757
G1 X89.798 Y111.266 E34.42633
G1 X89.17 Y111.069 E34.45507
G1 X88.57 Y110.797 E34.48382
G1 X88.007 Y110.455 E34.51258
G1 X87.267 Y109.836 E34.5547
G1 X87.164 Y109.733 E34.56105
G1 X86.727 Y109.24 E34.58981
G1 X86.354 Y108.698 E34.61854
G1 X86.049 Y108.114 E34.6473
G1 X85.817 Y107.498 E34.67603
G1 X85.661 Y106.858 E34.70479
G1 X85.575 Y105.897 E34.74691
G1 X85.575 Y94.103 E35.26176
