;FLAVOR:Marlin
;TIME:7723
;Filament used: 10.0206m
;Layer height: 0.2
;Generated with Cura_SteamEngine 3.3.1
M190 S60
M104 S210
M109 S210
M82 ;absolute extrusion mode
G21 ;metric values
G90 ;absolute positioning
M82 ;set extruder to absolute mode
M107 ;start with the fan off
G28 X0 Y0 ;move X/Y to min endstops
G28 Z0 ;move Z to min endstops
G1 Z15.0 F9000 ;move the platform down 15mm
G92 E0 ;zero the extruded length
G1 F200 E3 ;extrude 3mm of feed stock
G92 E0 ;zero the extruded length again
G1 F9000
;Put printing message on LCD screen
M117 Printing...
G92 E0
G1 F1500 E-6.5
;LAYER_COUNT:125
;LAYER:0
M107
G0 F3600 X84.736 Y36.066 Z0.3
;TYPE:SKIRT
G1 F1500 E0
G1 F2400 X85.083 Y35.353 E0.03462
G1 X85.501 Y34.678 E0.06927
G1 X85.984 Y34.049 E0.10389
G1 X86.411 Y33.588 E0.13133
G1 X86.631 Y33.368 E0.14491
G1 X87.219 Y32.835 E0.17955
G1 X87.858 Y32.365 E0.21418
G1 X88.542 Y31.962 E0.24884
G1 X89.262 Y31.629 E0.28347
G1 X90.012 Y31.371 E0.31809
G1 X90.785 Y31.189 E0.35276
G1 X91.571 Y31.086 E0.38736
G1 X92.199 Y31.061 E0.4148
G1 X93.794 Y31.061 E0.48443
G1 X94.586 Y31.101 E0.51904
G1 X95.371 Y31.22 E0.5537
G1 X96.139 Y31.418 E0.58833
G1 X96.884 Y31.693 E0.62299
G1 X97.597 Y32.04 E0.65761
G1 X98.199 Y32.413 E0.68852
G1 X98.625 Y32.162 E0.71011
G1 X99.345 Y31.829 E0.74474
G1 X100.095 Y31.571 E0.77936
G1 X100.868 Y31.389 E0.81403
G1 X101.654 Y31.286 E0.84863
G1 X102.282 Y31.261 E0.87607
G1 X142.076 Y31.261 E2.61324
G1 X142.868 Y31.301 E2.64785
G1 X143.653 Y31.42 E2.68251
G1 X144.421 Y31.618 E2.71714
G1 X145.166 Y31.893 E2.7518
G1 X145.879 Y32.24 E2.78642
G1 X146.161 Y32.414 E2.80088
G1 X146.302 Y32.313 E2.80845
G1 X146.99 Y31.918 E2.84309
G1 X147.715 Y31.594 E2.87775
G1 X148.468 Y31.345 E2.91237
G1 X149.243 Y31.172 E2.94704
G1 X150.03 Y31.079 E2.98163
G1 X150.563 Y31.061 E3.00491
G1 X152.159 Y31.061 E3.07459
G1 X152.951 Y31.101 E3.1092
G1 X153.736 Y31.22 E3.14386
G1 X154.504 Y31.418 E3.17849
G1 X155.249 Y31.693 E3.21315
G1 X155.962 Y32.04 E3.24777
G1 X156.637 Y32.458 E3.28243
G1 X157.266 Y32.941 E3.31705
G1 X157.727 Y33.368 E3.34448
G1 X157.947 Y33.588 E3.35806
G1 X158.48 Y34.176 E3.39271
G1 X158.95 Y34.815 E3.42733
G1 X159.353 Y35.499 E3.46199
G1 X159.686 Y36.219 E3.49662
G1 X159.944 Y36.969 E3.53124
G1 X160.126 Y37.742 E3.56591
G1 X160.229 Y38.528 E3.60052
G1 X160.254 Y39.156 E3.62795
G1 X160.254 Y40.751 E3.69758
G1 X160.214 Y41.543 E3.7322
G1 X160.095 Y42.328 E3.76686
G1 X159.897 Y43.096 E3.80148
G1 X159.622 Y43.841 E3.83615
G1 X159.275 Y44.554 E3.87076
G1 X158.902 Y45.156 E3.90168
G1 X159.153 Y45.582 E3.92326
G1 X159.486 Y46.302 E3.95789
G1 X159.744 Y47.052 E3.99252
G1 X159.926 Y47.825 E4.02718
G1 X160.029 Y48.611 E4.06179
G1 X160.054 Y49.239 E4.08922
G1 X160.054 Y159.033 E8.88216
G1 X160.014 Y159.825 E8.91678
G1 X159.895 Y160.61 E8.95144
G1 X159.697 Y161.378 E8.98606
G1 X159.422 Y162.123 E9.02073
G1 X159.075 Y162.836 E9.05535
G1 X158.901 Y163.118 E9.06981
G1 X159.002 Y163.259 E9.07738
G1 X159.397 Y163.947 E9.11202
G1 X159.721 Y164.672 E9.14668
G1 X159.97 Y165.425 E9.1813
G1 X160.143 Y166.2 E9.21597
G1 X160.236 Y166.987 E9.25056
G1 X160.254 Y167.52 E9.27384
G1 X160.254 Y169.116 E9.34351
G1 X160.214 Y169.908 E9.37813
G1 X160.095 Y170.693 E9.41279
G1 X159.897 Y171.461 E9.44741
G1 X159.622 Y172.206 E9.48208
G1 X159.275 Y172.919 E9.5167
G1 X158.857 Y173.594 E9.55136
G1 X158.374 Y174.223 E9.58598
G1 X157.947 Y174.684 E9.61341
G1 X157.727 Y174.904 E9.62699
G1 X157.139 Y175.437 E9.66163
G1 X156.5 Y175.907 E9.69626
G1 X155.816 Y176.31 E9.73092
G1 X155.096 Y176.643 E9.76555
G1 X154.346 Y176.901 E9.80017
G1 X153.573 Y177.083 E9.83484
G1 X152.787 Y177.186 E9.86944
G1 X152.159 Y177.211 E9.89688
G1 X150.564 Y177.211 E9.96651
G1 X149.772 Y177.171 E10.00113
G1 X148.987 Y177.052 E10.03579
G1 X148.219 Y176.854 E10.07041
G1 X147.474 Y176.579 E10.10508
G1 X146.761 Y176.232 E10.13969
G1 X146.159 Y175.859 E10.17061
G1 X145.733 Y176.11 E10.19219
G1 X145.013 Y176.443 E10.22682
G1 X144.263 Y176.701 E10.26144
G1 X143.49 Y176.883 E10.29611
G1 X142.704 Y176.986 E10.33072
G1 X142.076 Y177.011 E10.35815
G1 X102.282 Y177.011 E12.09532
G1 X101.49 Y176.971 E12.12994
G1 X100.705 Y176.852 E12.1646
G1 X99.937 Y176.654 E12.19922
G1 X99.192 Y176.379 E12.23388
G1 X98.479 Y176.032 E12.2685
G1 X98.197 Y175.858 E12.28297
G1 X98.056 Y175.959 E12.29054
G1 X97.368 Y176.354 E12.32517
G1 X96.643 Y176.678 E12.35983
G1 X95.89 Y176.927 E12.39446
G1 X95.115 Y177.1 E12.42912
G1 X94.328 Y177.193 E12.46372
G1 X93.795 Y177.211 E12.487
G1 X92.199 Y177.211 E12.55667
G1 X91.407 Y177.171 E12.59129
G1 X90.622 Y177.052 E12.62595
G1 X89.854 Y176.854 E12.66057
G1 X89.109 Y176.579 E12.69524
G1 X88.396 Y176.232 E12.72985
G1 X87.721 Y175.814 E12.76451
G1 X87.092 Y175.331 E12.79913
G1 X86.631 Y174.904 E12.82656
G1 X86.411 Y174.684 E12.84014
G1 X85.878 Y174.096 E12.87479
G1 X85.408 Y173.457 E12.90942
G1 X85.005 Y172.773 E12.94407
G1 X84.672 Y172.053 E12.9787
G1 X84.414 Y171.303 E13.01332
G1 X84.232 Y170.53 E13.04799
G1 X84.129 Y169.744 E13.0826
G1 X84.104 Y169.116 E13.11003
G1 X84.104 Y167.521 E13.17966
G1 X84.144 Y166.729 E13.21428
G1 X84.263 Y165.944 E13.24894
G1 X84.461 Y165.176 E13.28356
G1 X84.736 Y164.431 E13.31823
G1 X85.083 Y163.718 E13.35284
G1 X85.456 Y163.116 E13.38376
G1 X85.205 Y162.69 E13.40534
G1 X84.872 Y161.97 E13.43997
G1 X84.614 Y161.22 E13.4746
G1 X84.432 Y160.447 E13.50926
G1 X84.329 Y159.661 E13.54387
G1 X84.304 Y159.033 E13.57131
G1 X84.304 Y49.239 E18.36425
G1 X84.344 Y48.447 E18.39886
G1 X84.463 Y47.662 E18.43352
G1 X84.661 Y46.894 E18.46815
G1 X84.936 Y46.149 E18.50281
G1 X85.283 Y45.436 E18.53743
G1 X85.457 Y45.154 E18.55189
G1 X85.356 Y45.013 E18.55947
G1 X84.961 Y44.325 E18.5941
G1 X84.637 Y43.6 E18.62876
G1 X84.388 Y42.847 E18.66339
G1 X84.215 Y42.072 E18.69805
G1 X84.122 Y41.285 E18.73264
G1 X84.104 Y40.752 E18.75593
G1 X84.104 Y39.156 E18.8256
G1 X84.144 Y38.364 E18.86021
G1 X84.263 Y37.579 E18.89487
G1 X84.461 Y36.811 E18.9295
G1 X84.736 Y36.066 E18.96416
G0 F3600 X85.085 Y36.139
G1 F2400 X85.432 Y35.446 E18.998
G1 X85.849 Y34.792 E19.03186
G1 X86.331 Y34.184 E19.06573
G1 X86.658 Y33.835 E19.0866
G1 X86.878 Y33.615 E19.10019
G1 X87.454 Y33.096 E19.13403
G1 X88.08 Y32.638 E19.16789
G1 X88.751 Y32.248 E19.20177
G1 X89.457 Y31.928 E19.23561
G1 X90.193 Y31.683 E19.26947
G1 X90.951 Y31.515 E19.30337
G1 X91.721 Y31.426 E19.3372
G1 X92.199 Y31.411 E19.35808
G1 X93.794 Y31.411 E19.42771
G1 X94.569 Y31.451 E19.46158
G1 X95.335 Y31.57 E19.49542
G1 X96.085 Y31.768 E19.52929
G1 X96.811 Y32.042 E19.56316
G1 X97.504 Y32.389 E19.59699
G1 X98.158 Y32.806 E19.63085
G1 X98.183 Y32.826 E19.63225
G1 X98.834 Y32.448 E19.66511
G1 X99.54 Y32.128 E19.69895
G1 X100.276 Y31.883 E19.73281
G1 X101.034 Y31.715 E19.76671
G1 X101.804 Y31.626 E19.80054
G1 X102.282 Y31.611 E19.82142
G1 X142.076 Y31.611 E21.55859
G1 X142.851 Y31.651 E21.59246
G1 X143.617 Y31.77 E21.6263
G1 X144.367 Y31.968 E21.66016
G1 X145.093 Y32.242 E21.69404
G1 X145.786 Y32.589 E21.72787
G1 X146.172 Y32.835 E21.74785
G1 X146.639 Y32.515 E21.77257
G1 X147.321 Y32.145 E21.80644
G1 X148.037 Y31.847 E21.84029
G1 X148.781 Y31.625 E21.87419
G1 X149.543 Y31.481 E21.90804
G1 X150.563 Y31.411 E21.95267
G1 X152.159 Y31.411 E22.02234
G1 X152.934 Y31.451 E22.05622
G1 X153.7 Y31.57 E22.09006
G1 X154.45 Y31.768 E22.12392
G1 X155.176 Y32.042 E22.1578
G1 X155.869 Y32.389 E22.19163
G1 X156.523 Y32.806 E22.22549
G1 X157.131 Y33.288 E22.25936
G1 X157.48 Y33.615 E22.28024
G1 X157.7 Y33.835 E22.29382
G1 X158.219 Y34.411 E22.32766
G1 X158.677 Y35.037 E22.36153
G1 X159.067 Y35.708 E22.39541
G1 X159.387 Y36.414 E22.42924
G1 X159.632 Y37.15 E22.46311
G1 X159.8 Y37.908 E22.497
G1 X159.889 Y38.678 E22.53084
G1 X159.904 Y39.156 E22.55171
G1 X159.904 Y40.751 E22.62134
G1 X159.864 Y41.526 E22.65522
G1 X159.745 Y42.292 E22.68906
G1 X159.547 Y43.042 E22.72292
G1 X159.273 Y43.768 E22.75679
G1 X158.926 Y44.461 E22.79063
G1 X158.509 Y45.115 E22.82449
G1 X158.489 Y45.14 E22.82588
G1 X158.867 Y45.791 E22.85875
G1 X159.187 Y46.497 E22.89258
G1 X159.432 Y47.233 E22.92645
G1 X159.6 Y47.991 E22.96034
G1 X159.689 Y48.761 E22.99418
G1 X159.704 Y49.239 E23.01505
G1 X159.704 Y159.033 E27.80799
G1 X159.664 Y159.808 E27.84187
G1 X159.545 Y160.574 E27.87571
G1 X159.347 Y161.324 E27.90957
G1 X159.073 Y162.05 E27.94345
G1 X158.726 Y162.743 E27.97728
G1 X158.48 Y163.129 E27.99726
G1 X158.8 Y163.596 E28.02197
G1 X159.17 Y164.278 E28.05584
G1 X159.468 Y164.994 E28.0897
G1 X159.69 Y165.738 E28.12359
G1 X159.834 Y166.5 E28.15745
G1 X159.904 Y167.52 E28.20208
G1 X159.904 Y169.116 E28.27175
G1 X159.864 Y169.891 E28.30563
G1 X159.745 Y170.657 E28.33947
G1 X159.547 Y171.407 E28.37333
G1 X159.273 Y172.133 E28.4072
G1 X158.926 Y172.826 E28.44104
G1 X158.509 Y173.48 E28.4749
G1 X158.027 Y174.088 E28.50877
G1 X157.7 Y174.437 E28.52964
G1 X157.48 Y174.657 E28.54323
G1 X156.904 Y175.176 E28.57707
G1 X156.278 Y175.634 E28.61093
G1 X155.607 Y176.024 E28.64481
G1 X154.901 Y176.344 E28.67865
G1 X154.165 Y176.589 E28.71251
G1 X153.407 Y176.757 E28.74641
G1 X152.637 Y176.846 E28.78024
G1 X152.159 Y176.861 E28.80112
G1 X150.564 Y176.861 E28.87075
G1 X149.789 Y176.821 E28.90462
G1 X149.023 Y176.702 E28.93846
G1 X148.273 Y176.504 E28.97233
G1 X147.547 Y176.23 E29.0062
G1 X146.854 Y175.883 E29.04003
G1 X146.2 Y175.466 E29.07389
G1 X146.175 Y175.446 E29.07529
G1 X145.524 Y175.824 E29.10815
G1 X144.818 Y176.144 E29.14199
G1 X144.082 Y176.389 E29.17585
G1 X143.324 Y176.557 E29.20975
G1 X142.554 Y176.646 E29.24358
G1 X142.076 Y176.661 E29.26446
G1 X102.282 Y176.661 E31.00162
G1 X101.507 Y176.621 E31.0355
G1 X100.741 Y176.502 E31.06934
G1 X99.991 Y176.304 E31.1032
G1 X99.265 Y176.03 E31.13708
G1 X98.572 Y175.683 E31.17091
G1 X98.186 Y175.437 E31.19089
G1 X97.719 Y175.757 E31.21561
G1 X97.037 Y176.127 E31.24948
G1 X96.321 Y176.425 E31.28333
G1 X95.577 Y176.647 E31.31723
G1 X94.815 Y176.791 E31.35108
G1 X93.795 Y176.861 E31.39571
G1 X92.199 Y176.861 E31.46538
G1 X91.424 Y176.821 E31.49926
G1 X90.658 Y176.702 E31.5331
G1 X89.908 Y176.504 E31.56696
G1 X89.182 Y176.23 E31.60084
G1 X88.489 Y175.883 E31.63467
G1 X87.835 Y175.466 E31.66853
G1 X87.227 Y174.984 E31.7024
G1 X86.878 Y174.657 E31.72328
G1 X86.658 Y174.437 E31.73686
G1 X86.139 Y173.861 E31.7707
G1 X85.681 Y173.235 E31.80457
G1 X85.291 Y172.564 E31.83845
G1 X84.971 Y171.858 E31.87228
G1 X84.726 Y171.122 E31.90615
G1 X84.558 Y170.364 E31.94004
G1 X84.469 Y169.594 E31.97388
G1 X84.454 Y169.116 E31.99475
G1 X84.454 Y167.521 E32.06438
G1 X84.494 Y166.746 E32.09826
G1 X84.613 Y165.98 E32.1321
G1 X84.811 Y165.23 E32.16596
G1 X85.085 Y164.504 E32.19983
G1 X85.432 Y163.811 E32.23367
G1 X85.849 Y163.157 E32.26753
G1 X85.869 Y163.132 E32.26892
G1 X85.491 Y162.481 E32.30179
G1 X85.171 Y161.775 E32.33562
G1 X84.926 Y161.039 E32.36949
G1 X84.758 Y160.281 E32.40338
G1 X84.669 Y159.511 E32.43722
G1 X84.654 Y159.033 E32.45809
G1 X84.654 Y49.239 E37.25103
G1 X84.694 Y48.464 E37.28491
G1 X84.813 Y47.698 E37.31875
G1 X85.011 Y46.948 E37.35261
G1 X85.285 Y46.222 E37.38649
G1 X85.632 Y45.529 E37.42032
G1 X85.878 Y45.143 E37.4403
G1 X85.558 Y44.676 E37.46501
G1 X85.188 Y43.994 E37.49888
G1 X84.89 Y43.278 E37.53274
G1 X84.668 Y42.534 E37.56663
G1 X84.524 Y41.772 E37.60049
G1 X84.454 Y40.752 E37.64512
G1 X84.454 Y39.156 E37.71479
G1 X84.494 Y38.381 E37.74867
G1 X84.613 Y37.615 E37.78251
G1 X84.811 Y36.865 E37.81637
G1 X85.085 Y36.139 E37.85024
G0 F3600 X85.435 Y36.214
G1 F2400 X85.781 Y35.541 E37.88328
G1 X86.197 Y34.908 E37.91634
G1 X86.906 Y34.083 E37.96383
G1 X87.126 Y33.863 E37.97741
G1 X87.689 Y33.356 E38.01049
G1 X88.302 Y32.912 E38.04353
G1 X88.959 Y32.534 E38.07662
G1 X89.651 Y32.228 E38.10965
G1 X90.373 Y31.997 E38.14274
G1 X91.114 Y31.843 E38.17578
G1 X92.199 Y31.761 E38.22328
G1 X93.794 Y31.761 E38.29291
G1 X94.55 Y31.801 E38.32595
G1 X95.298 Y31.92 E38.35902
G1 X96.029 Y32.118 E38.39208
G1 X96.736 Y32.392 E38.42518
G1 X97.409 Y32.738 E38.45821
G1 X98.042 Y33.154 E38.49128
G1 X98.176 Y33.264 E38.49885
G1 X98.385 Y33.112 E38.51013
G1 X99.042 Y32.734 E38.54322
G1 X99.734 Y32.428 E38.57625
G1 X100.456 Y32.197 E38.60934
G1 X101.197 Y32.043 E38.64238
G1 X102.282 Y31.961 E38.68988
G1 X142.076 Y31.961 E40.42704
G1 X142.832 Y32.001 E40.46009
G1 X143.58 Y32.12 E40.49316
G1 X144.311 Y32.318 E40.52622
G1 X145.018 Y32.592 E40.55932
G1 X145.691 Y32.938 E40.59235
G1 X146.184 Y33.262 E40.6181
G1 X146.34 Y33.135 E40.62689
G1 X146.975 Y32.722 E40.65995
G1 X147.65 Y32.379 E40.69301
G1 X148.358 Y32.108 E40.7261
G1 X149.09 Y31.914 E40.75916
G1 X149.838 Y31.798 E40.7922
G1 X150.563 Y31.761 E40.82389
G1 X152.159 Y31.761 E40.89356
G1 X152.915 Y31.801 E40.92661
G1 X153.663 Y31.92 E40.95967
G1 X154.394 Y32.118 E40.99274
G1 X155.101 Y32.392 E41.02584
G1 X155.774 Y32.738 E41.05887
G1 X156.407 Y33.154 E41.09194
G1 X157.232 Y33.863 E41.13942
G1 X157.452 Y34.083 E41.153
G1 X157.959 Y34.646 E41.18608
G1 X158.403 Y35.259 E41.21912
G1 X158.781 Y35.916 E41.25221
G1 X159.087 Y36.608 E41.28524
G1 X159.318 Y37.33 E41.31833
G1 X159.472 Y38.071 E41.35137
G1 X159.554 Y39.156 E41.39887
G1 X159.554 Y40.751 E41.4685
G1 X159.514 Y41.507 E41.50155
G1 X159.395 Y42.255 E41.53461
G1 X159.197 Y42.986 E41.56767
G1 X158.923 Y43.693 E41.60077
G1 X158.577 Y44.366 E41.63381
G1 X158.161 Y44.999 E41.66687
G1 X158.051 Y45.133 E41.67444
G1 X158.203 Y45.342 E41.68572
G1 X158.581 Y45.999 E41.71881
G1 X158.887 Y46.691 E41.75184
G1 X159.118 Y47.413 E41.78493
G1 X159.272 Y48.154 E41.81797
G1 X159.354 Y49.239 E41.86547
G1 X159.354 Y159.033 E46.65841
G1 X159.314 Y159.789 E46.69146
G1 X159.195 Y160.537 E46.72452
G1 X158.997 Y161.268 E46.75758
G1 X158.723 Y161.975 E46.79068
G1 X158.377 Y162.648 E46.82372
G1 X158.053 Y163.141 E46.84947
G1 X158.18 Y163.297 E46.85825
G1 X158.593 Y163.932 E46.89132
G1 X158.936 Y164.607 E46.92437
G1 X159.207 Y165.315 E46.95747
G1 X159.401 Y166.047 E46.99052
G1 X159.517 Y166.795 E47.02357
G1 X159.554 Y167.52 E47.05526
G1 X159.554 Y169.116 E47.12493
G1 X159.514 Y169.872 E47.15798
G1 X159.395 Y170.62 E47.19104
G1 X159.197 Y171.351 E47.2241
G1 X158.923 Y172.058 E47.2572
G1 X158.577 Y172.731 E47.29024
G1 X158.161 Y173.364 E47.3233
G1 X157.452 Y174.189 E47.37079
G1 X157.232 Y174.409 E47.38437
G1 X156.669 Y174.916 E47.41744
G1 X156.056 Y175.36 E47.45049
G1 X155.399 Y175.738 E47.48358
G1 X154.707 Y176.044 E47.51661
G1 X153.985 Y176.275 E47.5497
G1 X153.244 Y176.429 E47.58274
G1 X152.159 Y176.511 E47.63024
G1 X150.564 Y176.511 E47.69986
G1 X149.808 Y176.471 E47.73291
G1 X149.06 Y176.352 E47.76598
G1 X148.329 Y176.154 E47.79904
G1 X147.622 Y175.88 E47.83214
G1 X146.949 Y175.534 E47.86517
G1 X146.316 Y175.118 E47.89824
G1 X146.182 Y175.008 E47.90581
G1 X145.973 Y175.16 E47.91709
G1 X145.316 Y175.538 E47.95018
G1 X144.624 Y175.844 E47.98321
G1 X143.902 Y176.075 E48.0163
G1 X143.161 Y176.229 E48.04934
G1 X142.076 Y176.311 E48.09684
G1 X102.282 Y176.311 E49.834
G1 X101.526 Y176.271 E49.86705
G1 X100.778 Y176.152 E49.90011
G1 X100.047 Y175.954 E49.93317
G1 X99.34 Y175.68 E49.96627
G1 X98.667 Y175.334 E49.99931
G1 X98.174 Y175.01 E50.02506
G1 X98.018 Y175.137 E50.03384
G1 X97.383 Y175.55 E50.06691
G1 X96.708 Y175.893 E50.09996
G1 X96 Y176.164 E50.13306
G1 X95.268 Y176.358 E50.16611
G1 X94.52 Y176.474 E50.19916
G1 X93.795 Y176.511 E50.23085
G1 X92.199 Y176.511 E50.30052
G1 X91.443 Y176.471 E50.33357
G1 X90.695 Y176.352 E50.36663
G1 X89.964 Y176.154 E50.39969
G1 X89.257 Y175.88 E50.43279
G1 X88.584 Y175.534 E50.46583
G1 X87.951 Y175.118 E50.49889
G1 X87.126 Y174.409 E50.54638
G1 X86.906 Y174.189 E50.55996
G1 X86.399 Y173.626 E50.59304
G1 X85.955 Y173.013 E50.62608
G1 X85.577 Y172.356 E50.65917
G1 X85.271 Y171.664 E50.6922
G1 X85.04 Y170.942 E50.72529
G1 X84.886 Y170.201 E50.75833
G1 X84.804 Y169.116 E50.80583
G1 X84.804 Y167.521 E50.87546
G1 X84.844 Y166.765 E50.9085
G1 X84.963 Y166.017 E50.94157
G1 X85.161 Y165.286 E50.97463
G1 X85.435 Y164.579 E51.00773
G1 X85.781 Y163.906 E51.04076
G1 X86.197 Y163.273 E51.07383
G1 X86.307 Y163.139 E51.0814
G1 X86.155 Y162.93 E51.09268
G1 X85.777 Y162.273 E51.12577
G1 X85.471 Y161.581 E51.1588
G1 X85.24 Y160.859 E51.19189
G1 X85.086 Y160.118 E51.22493
