;FLAVOR:Marlin
;TIME:3492
;Filament used: 4.53994m
;Layer height: 0.2
;Generated with Cura_SteamEngine 3.3.1
M190 S60
M104 S210
M109 S210
M82 ;absolute extrusion mode
G21 ;metric values
G90 ;absolute positioning
M82 ;set extruder to absolute mode
M107 ;start with the fan off
G28 X0 Y0 ;move X/Y to min endstops
G28 Z0 ;move Z to min endstops
G1 Z15.0 F9000 ;move the platform down 15mm
G92 E0 ;zero the extruded length
G1 F200 E3 ;extrude 3mm of feed stock
G92 E0 ;zero the extruded length again
G1 F9000
;Put printing message on LCD screen
M117 Printing...
G92 E0
G1 F1500 E-6.5
;LAYER_COUNT:25
;LAYER:0
M107
G0 F3600 X73.37 Y55.995 Z0.3
;TYPE:SKIRT
G1 F1500 E0
G1 F2400 X73.797 Y55.534 E0.02743
G1 X73.9 Y55.431 E0.03379
G1 X74.488 Y54.898 E0.06843
G1 X75.127 Y54.428 E0.10306
G1 X75.811 Y54.025 E0.13772
G1 X76.531 Y53.692 E0.17235
G1 X77.281 Y53.434 E0.20697
G1 X78.054 Y53.252 E0.24164
G1 X78.84 Y53.149 E0.27624
G1 X79.468 Y53.124 E0.30368
G1 X134.262 Y53.124 E2.69565
G1 X135.054 Y53.164 E2.73027
G1 X135.839 Y53.283 E2.76493
G1 X136.607 Y53.481 E2.79955
G1 X137.352 Y53.756 E2.83422
G1 X138.065 Y54.103 E2.86884
G1 X138.74 Y54.521 E2.9035
G1 X139.369 Y55.004 E2.93812
G1 X139.83 Y55.431 E2.96555
G1 X139.933 Y55.534 E2.97191
G1 X140.466 Y56.122 E3.00655
G1 X140.936 Y56.761 E3.04118
G1 X141.339 Y57.445 E3.07583
G1 X141.672 Y58.165 E3.11046
G1 X141.93 Y58.915 E3.14509
G1 X142.112 Y59.688 E3.17975
G1 X142.215 Y60.474 E3.21436
G1 X142.24 Y61.102 E3.2418
G1 X142.24 Y95.896 E4.76069
G1 X142.2 Y96.688 E4.79531
G1 X142.081 Y97.473 E4.82997
G1 X141.883 Y98.241 E4.86459
G1 X141.608 Y98.986 E4.89926
G1 X141.261 Y99.699 E4.93387
G1 X140.843 Y100.374 E4.96853
G1 X140.36 Y101.003 E5.00315
G1 X139.933 Y101.464 E5.03058
G1 X139.83 Y101.567 E5.03694
G1 X139.242 Y102.1 E5.07159
G1 X138.603 Y102.57 E5.10621
G1 X137.919 Y102.973 E5.14087
G1 X137.199 Y103.306 E5.1755
G1 X136.449 Y103.564 E5.21012
G1 X135.676 Y103.746 E5.24479
G1 X134.89 Y103.849 E5.2794
G1 X134.262 Y103.874 E5.30683
G1 X79.468 Y103.874 E7.69881
G1 X78.676 Y103.834 E7.73342
G1 X77.891 Y103.715 E7.76808
G1 X77.123 Y103.517 E7.80271
G1 X76.378 Y103.242 E7.83737
G1 X75.665 Y102.895 E7.87199
G1 X74.99 Y102.477 E7.90665
G1 X74.361 Y101.994 E7.94127
G1 X73.9 Y101.567 E7.9687
G1 X73.797 Y101.464 E7.97506
G1 X73.264 Y100.876 E8.0097
G1 X72.794 Y100.237 E8.04433
G1 X72.391 Y99.553 E8.07899
G1 X72.058 Y98.833 E8.11362
G1 X71.8 Y98.083 E8.14824
G1 X71.618 Y97.31 E8.18291
G1 X71.515 Y96.524 E8.21751
G1 X71.49 Y95.896 E8.24495
G1 X71.49 Y61.102 E9.76384
G1 X71.53 Y60.31 E9.79846
G1 X71.649 Y59.525 E9.83312
G1 X71.847 Y58.757 E9.86774
G1 X72.122 Y58.012 E9.90241
G1 X72.469 Y57.299 E9.93703
G1 X72.887 Y56.624 E9.97169
G1 X73.37 Y55.995 E10.00631
G0 F3600 X73.717 Y56.13
G1 F2400 X74.044 Y55.781 E10.02718
G1 X74.147 Y55.678 E10.03354
G1 X74.723 Y55.159 E10.06739
G1 X75.349 Y54.701 E10.10125
G1 X76.02 Y54.311 E10.13513
G1 X76.726 Y53.991 E10.16897
G1 X77.462 Y53.746 E10.20283
G1 X78.22 Y53.578 E10.23672
G1 X78.99 Y53.489 E10.27056
G1 X79.468 Y53.474 E10.29144
G1 X134.262 Y53.474 E12.68341
G1 X135.037 Y53.514 E12.71729
G1 X135.803 Y53.633 E12.75113
G1 X136.553 Y53.831 E12.78499
G1 X137.279 Y54.105 E12.81886
G1 X137.972 Y54.452 E12.8527
G1 X138.626 Y54.869 E12.88656
G1 X139.234 Y55.351 E12.92043
G1 X139.583 Y55.678 E12.9413
G1 X139.686 Y55.781 E12.94766
G1 X140.205 Y56.357 E12.98151
G1 X140.663 Y56.983 E13.01537
G1 X141.053 Y57.654 E13.04925
G1 X141.373 Y58.36 E13.08309
G1 X141.618 Y59.096 E13.11695
G1 X141.786 Y59.854 E13.15084
G1 X141.875 Y60.624 E13.18468
G1 X141.89 Y61.102 E13.20556
G1 X141.89 Y95.896 E14.72445
G1 X141.85 Y96.671 E14.75833
G1 X141.731 Y97.437 E14.79217
G1 X141.533 Y98.187 E14.82603
G1 X141.259 Y98.913 E14.8599
G1 X140.912 Y99.606 E14.89374
G1 X140.495 Y100.26 E14.9276
G1 X140.013 Y100.868 E14.96147
G1 X139.686 Y101.217 E14.98234
G1 X139.583 Y101.32 E14.9887
G1 X139.007 Y101.839 E15.02255
G1 X138.381 Y102.297 E15.05641
G1 X137.71 Y102.687 E15.09029
G1 X137.004 Y103.007 E15.12413
G1 X136.268 Y103.252 E15.15799
G1 X135.51 Y103.42 E15.19188
G1 X134.74 Y103.509 E15.22572
G1 X134.262 Y103.524 E15.2466
G1 X79.468 Y103.524 E17.63857
G1 X78.693 Y103.484 E17.67245
G1 X77.927 Y103.365 E17.70629
G1 X77.177 Y103.167 E17.74015
G1 X76.451 Y102.893 E17.77402
G1 X75.758 Y102.546 E17.80786
G1 X75.104 Y102.129 E17.84172
G1 X74.496 Y101.647 E17.87559
G1 X74.147 Y101.32 E17.89646
G1 X74.044 Y101.217 E17.90282
G1 X73.525 Y100.641 E17.93667
G1 X73.067 Y100.015 E17.97053
G1 X72.677 Y99.344 E18.00441
G1 X72.357 Y98.638 E18.03825
G1 X72.112 Y97.902 E18.07211
G1 X71.944 Y97.144 E18.106
G1 X71.855 Y96.374 E18.13984
G1 X71.84 Y95.896 E18.16072
G1 X71.84 Y61.102 E19.67961
G1 X71.88 Y60.327 E19.71349
G1 X71.999 Y59.561 E19.74733
G1 X72.197 Y58.811 E19.78119
G1 X72.471 Y58.085 E19.81507
G1 X72.818 Y57.392 E19.8489
G1 X73.235 Y56.738 E19.88276
G1 X73.717 Y56.13 E19.91663
G0 F3600 X73.583 Y56.854
G1 F2400 X74.292 Y56.029 E19.96411
G1 X74.395 Y55.926 E19.97047
G1 X74.958 Y55.419 E20.00355
G1 X75.571 Y54.975 E20.03659
G1 X76.228 Y54.597 E20.06968
G1 X76.92 Y54.291 E20.10271
G1 X77.642 Y54.06 E20.1358
G1 X78.383 Y53.906 E20.16884
G1 X79.468 Y53.824 E20.21634
G1 X134.262 Y53.824 E22.60831
G1 X135.018 Y53.864 E22.64136
G1 X135.766 Y53.983 E22.67442
G1 X136.497 Y54.181 E22.70748
G1 X137.204 Y54.455 E22.74058
G1 X137.877 Y54.801 E22.77362
G1 X138.51 Y55.217 E22.80669
G1 X139.335 Y55.926 E22.85417
G1 X139.438 Y56.029 E22.86053
G1 X139.945 Y56.592 E22.8936
G1 X140.389 Y57.205 E22.92665
G1 X140.767 Y57.862 E22.95974
G1 X141.073 Y58.554 E22.99277
G1 X141.304 Y59.276 E23.02586
G1 X141.458 Y60.017 E23.0589
G1 X141.54 Y61.102 E23.1064
G1 X141.54 Y95.896 E24.62529
G1 X141.5 Y96.652 E24.65834
G1 X141.381 Y97.4 E24.6914
G1 X141.183 Y98.131 E24.72446
G1 X140.909 Y98.838 E24.75756
G1 X140.563 Y99.511 E24.7906
G1 X140.147 Y100.144 E24.82366
G1 X139.438 Y100.969 E24.87115
G1 X139.335 Y101.072 E24.87751
G1 X138.772 Y101.579 E24.91058
G1 X138.159 Y102.023 E24.94363
G1 X137.502 Y102.401 E24.97671
G1 X136.81 Y102.707 E25.00974
G1 X136.088 Y102.938 E25.04284
G1 X135.347 Y103.092 E25.07588
G1 X134.262 Y103.174 E25.12337
G1 X79.468 Y103.174 E27.51535
G1 X78.712 Y103.134 E27.5484
G1 X77.964 Y103.015 E27.58146
G1 X77.233 Y102.817 E27.61452
G1 X76.526 Y102.543 E27.64762
G1 X75.853 Y102.197 E27.68066
G1 X75.22 Y101.781 E27.71372
G1 X74.395 Y101.072 E27.76121
G1 X74.292 Y100.969 E27.76757
G1 X73.785 Y100.406 E27.80064
G1 X73.341 Y99.793 E27.83368
G1 X72.963 Y99.136 E27.86677
G1 X72.657 Y98.444 E27.8998
G1 X72.426 Y97.722 E27.93289
G1 X72.272 Y96.981 E27.96593
G1 X72.19 Y95.896 E28.01343
G1 X72.19 Y61.102 E29.53233
G1 X72.23 Y60.346 E29.56538
G1 X72.349 Y59.598 E29.59844
G1 X72.547 Y58.867 E29.6315
G1 X72.821 Y58.16 E29.6646
G1 X73.167 Y57.487 E29.69764
G1 X73.583 Y56.854 E29.7307
G0 F3600 X73.93 Y56.973
G1 F2400 X74.539 Y56.276 E29.77111
G1 X74.642 Y56.173 E29.77746
G1 X75.192 Y55.68 E29.80971
G1 X75.792 Y55.249 E29.84196
G1 X76.435 Y54.885 E29.87421
G1 X77.113 Y54.593 E29.90644
G1 X77.819 Y54.376 E29.93868
G1 X78.545 Y54.237 E29.97095
G1 X79.468 Y54.174 E30.01134
G1 X134.262 Y54.174 E32.40331
G1 X135 Y54.214 E32.43557
G1 X135.728 Y54.333 E32.46777
G1 X136.44 Y54.531 E32.50004
G1 X137.126 Y54.804 E32.53227
G1 X137.779 Y55.15 E32.56453
G1 X138.391 Y55.564 E32.59678
G1 X139.088 Y56.173 E32.63719
G1 X139.191 Y56.276 E32.64355
G1 X139.684 Y56.826 E32.67579
G1 X140.115 Y57.426 E32.70804
G1 X140.479 Y58.069 E32.74029
G1 X140.771 Y58.747 E32.77252
G1 X140.988 Y59.453 E32.80476
G1 X141.127 Y60.179 E32.83703
G1 X141.19 Y61.102 E32.87742
G1 X141.19 Y95.896 E34.39631
G1 X141.15 Y96.634 E34.42858
G1 X141.031 Y97.362 E34.46078
G1 X140.833 Y98.074 E34.49304
G1 X140.56 Y98.76 E34.52527
G1 X140.214 Y99.413 E34.55753
G1 X139.8 Y100.025 E34.58978
G1 X139.191 Y100.722 E34.63019
G1 X139.088 Y100.825 E34.63655
G1 X138.538 Y101.318 E34.66879
G1 X137.938 Y101.749 E34.70104
G1 X137.295 Y102.113 E34.7333
G1 X136.617 Y102.405 E34.76552
G1 X135.911 Y102.622 E34.79776
G1 X135.185 Y102.761 E34.83003
G1 X134.262 Y102.824 E34.87042
G1 X79.468 Y102.824 E37.26239
G1 X78.73 Y102.784 E37.29466
G1 X78.002 Y102.665 E37.32686
G1 X77.29 Y102.467 E37.35912
G1 X76.604 Y102.194 E37.39135
G1 X75.951 Y101.848 E37.42361
G1 X75.339 Y101.434 E37.45587
G1 X74.642 Y100.825 E37.49627
G1 X74.539 Y100.722 E37.50263
G1 X74.046 Y100.172 E37.53487
G1 X73.615 Y99.572 E37.56712
G1 X73.251 Y98.929 E37.59938
G1 X72.959 Y98.251 E37.6316
G1 X72.742 Y97.545 E37.66385
G1 X72.603 Y96.819 E37.69611
G1 X72.54 Y95.896 E37.7365
G1 X72.54 Y61.102 E39.25539
G1 X72.58 Y60.364 E39.28766
G1 X72.699 Y59.636 E39.31986
G1 X72.897 Y58.924 E39.35212
G1 X73.17 Y58.238 E39.38435
G1 X73.516 Y57.585 E39.41661
G1 X73.93 Y56.973 E39.44887
G0 F3600 X74.278 Y57.096
G1 F2400 X74.786 Y56.523 E39.4823
G1 X74.889 Y56.42 E39.48866
G1 X75.426 Y55.941 E39.52007
G1 X76.012 Y55.524 E39.55147
G1 X76.641 Y55.174 E39.58289
G1 X77.304 Y54.896 E39.61427
G1 X77.995 Y54.694 E39.6457
G1 X78.703 Y54.569 E39.67708
G1 X79.468 Y54.524 E39.71054
G1 X134.262 Y54.524 E42.10251
G1 X134.98 Y54.564 E42.1339
G1 X135.69 Y54.683 E42.16533
G1 X136.382 Y54.881 E42.19675
G1 X137.047 Y55.154 E42.22813
G1 X137.679 Y55.499 E42.25956
G1 X138.268 Y55.912 E42.29097
G1 X138.841 Y56.42 E42.3244
G1 X138.944 Y56.523 E42.33075
G1 X139.423 Y57.06 E42.36217
G1 X139.84 Y57.646 E42.39356
G1 X140.19 Y58.275 E42.42499
G1 X140.468 Y58.938 E42.45637
G1 X140.67 Y59.629 E42.4878
G1 X140.795 Y60.337 E42.51918
G1 X140.84 Y61.102 E42.55264
G1 X140.84 Y95.896 E44.07153
G1 X140.8 Y96.614 E44.10292
G1 X140.681 Y97.324 E44.13435
G1 X140.483 Y98.016 E44.16577
G1 X140.21 Y98.681 E44.19715
G1 X139.865 Y99.313 E44.22858
G1 X139.452 Y99.902 E44.25999
G1 X138.944 Y100.475 E44.29342
G1 X138.841 Y100.578 E44.29977
G1 X138.304 Y101.057 E44.33119
G1 X137.718 Y101.474 E44.36258
G1 X137.089 Y101.824 E44.39401
G1 X136.426 Y102.102 E44.42539
G1 X135.735 Y102.304 E44.45682
G1 X135.027 Y102.429 E44.4882
G1 X134.262 Y102.474 E44.52166
G1 X79.468 Y102.474 E46.91363
G1 X78.75 Y102.434 E46.94502
G1 X78.04 Y102.315 E46.97645
G1 X77.348 Y102.117 E47.00787
G1 X76.683 Y101.844 E47.03925
G1 X76.051 Y101.499 E47.07068
G1 X75.462 Y101.086 E47.10209
G1 X74.889 Y100.578 E47.13551
G1 X74.786 Y100.475 E47.14187
G1 X74.307 Y99.938 E47.17329
G1 X73.89 Y99.352 E47.20468
G1 X73.54 Y98.723 E47.23611
G1 X73.262 Y98.06 E47.26749
G1 X73.06 Y97.369 E47.29892
G1 X72.935 Y96.661 E47.3303
G1 X72.89 Y95.896 E47.36375
G1 X72.89 Y61.102 E48.88265
G1 X72.93 Y60.384 E48.91404
G1 X73.049 Y59.674 E48.94547
G1 X73.247 Y58.982 E48.97689
G1 X73.52 Y58.317 E49.00827
G1 X73.865 Y57.685 E49.0397
G1 X74.278 Y57.096 E49.07111
G0 F3600 X74.625 Y57.223
G1 F2400 X75.034 Y56.771 E49.09772
G1 X75.137 Y56.668 E49.10407
G1 X75.659 Y56.202 E49.13462
G1 X76.231 Y55.799 E49.16517
G1 X76.845 Y55.464 E49.1957
G1 X77.494 Y55.201 E49.22627
G1 X78.168 Y55.014 E49.2568
G1 X78.859 Y54.904 E49.28735
G1 X79.468 Y54.874 E49.31397
G1 X134.262 Y54.874 E51.70594
G1 X134.961 Y54.914 E51.7365
G1 X135.65 Y55.033 E51.76703
G1 X136.321 Y55.231 E51.79757
G1 X136.966 Y55.503 E51.82812
G1 X137.575 Y55.847 E51.85866
G1 X138.141 Y56.259 E51.88922
G1 X138.593 Y56.668 E51.91583
G1 X138.696 Y56.771 E51.92219
G1 X139.162 Y57.293 E51.95273
G1 X139.565 Y57.865 E51.98328
G1 X139.9 Y58.479 E52.01381
G1 X140.163 Y59.128 E52.04438
G1 X140.35 Y59.802 E52.07492
G1 X140.46 Y60.493 E52.10546
G1 X140.49 Y61.102 E52.13208
G1 X140.49 Y95.896 E53.65097
G1 X140.45 Y96.595 E53.68154
G1 X140.331 Y97.284 E53.71206
G1 X140.133 Y97.955 E53.7426
G1 X139.861 Y98.6 E53.77316
G1 X139.517 Y99.209 E53.80369
G1 X139.105 Y99.775 E53.83425
G1 X138.696 Y100.227 E53.86086
G1 X138.593 Y100.33 E53.86722
G1 X138.071 Y100.796 E53.89777
G1 X137.499 Y101.199 E53.92831
G1 X136.885 Y101.534 E53.95885
G1 X136.236 Y101.797 E53.98942
G1 X135.562 Y101.984 E54.01995
G1 X134.871 Y102.094 E54.0505
G1 X134.262 Y102.124 E54.07711
G1 X79.468 Y102.124 E56.46909
G1 X78.769 Y102.084 E56.49965
G1 X78.08 Y101.965 E56.53017
G1 X77.409 Y101.767 E56.56071
G1 X76.764 Y101.495 E56.59127
G1 X76.155 Y101.151 E56.6218
G1 X75.589 Y100.739 E56.65237
G1 X75.137 Y100.33 E56.67898
G1 X75.034 Y100.227 E56.68533
G1 X74.568 Y99.705 E56.71588
G1 X74.165 Y99.133 E56.74643
G1 X73.83 Y98.519 E56.77696
G1 X73.567 Y97.87 E56.80753
G1 X73.38 Y97.196 E56.83806
G1 X73.27 Y96.505 E56.86861
G1 X73.24 Y95.896 E56.89523
G1 X73.24 Y61.102 E58.41412
G1 X73.28 Y60.403 E58.44468
G1 X73.399 Y59.714 E58.47521
G1 X73.597 Y59.043 E58.50575
G1 X73.869 Y58.398 E58.53631
G1 X74.213 Y57.789 E58.56684
G1 X74.625 Y57.223 E58.5974
G0 F3600 X74.972 Y57.354
G1 F2400 X75.281 Y57.018 E58.61733
G1 X75.384 Y56.915 E58.62369
G1 X75.892 Y56.464 E58.65334
G1 X76.45 Y56.076 E58.68301
G1 X77.049 Y55.755 E58.71268
G1 X77.681 Y55.507 E58.74231
G1 X78.339 Y55.335 E58.772
G1 X79.012 Y55.242 E58.80166
G1 X79.468 Y55.224 E58.82158
G1 X134.262 Y55.224 E61.21356
G1 X134.94 Y55.264 E61.2432
G1 X135.609 Y55.383 E61.27287
G1 X136.259 Y55.58 E61.30252
G1 X136.882 Y55.852 E61.33219
G1 X137.468 Y56.196 E61.36186
G1 X138.01 Y56.606 E61.39152
G1 X138.346 Y56.915 E61.41145
G1 X138.449 Y57.018 E61.41781
G1 X138.9 Y57.526 E61.44746
G1 X139.288 Y58.084 E61.47713
G1 X139.609 Y58.683 E61.5068
G1 X139.857 Y59.315 E61.53644
G1 X140.029 Y59.973 E61.56613
G1 X140.122 Y60.646 E61.59578
G1 X140.14 Y61.102 E61.61571
G1 X140.14 Y95.896 E63.1346
G1 X140.1 Y96.574 E63.16425
G1 X139.981 Y97.243 E63.19391
G1 X139.784 Y97.893 E63.22356
G1 X139.512 Y98.516 E63.25324
G1 X139.168 Y99.102 E63.2829
G1 X138.758 Y99.644 E63.31257
G1 X138.449 Y99.98 E63.3325
G1 X138.346 Y100.083 E63.33885
G1 X137.838 Y100.534 E63.36851
G1 X137.28 Y100.922 E63.39818
G1 X136.681 Y101.243 E63.42785
G1 X136.049 Y101.491 E63.45748
G1 X135.391 Y101.663 E63.48717
G1 X134.718 Y101.756 E63.51683
G1 X134.262 Y101.774 E63.53675
G1 X79.468 Y101.774 E65.92873
G1 X78.79 Y101.734 E65.95837
G1 X78.121 Y101.615 E65.98804
G1 X77.471 Y101.418 E66.01769
G1 X76.848 Y101.146 E66.04736
G1 X76.262 Y100.802 E66.07703
G1 X75.72 Y100.392 E66.10669
G1 X75.384 Y100.083 E66.12662
G1 X75.281 Y99.98 E66.13298
G1 X74.83 Y99.472 E66.16263
G1 X74.442 Y98.914 E66.1923
G1 X74.121 Y98.315 E66.22197
G1 X73.873 Y97.683 E66.25161
G1 X73.701 Y97.025 E66.2813
G1 X73.608 Y96.352 E66.31095
G1 X73.59 Y95.896 E66.33088
G1 X73.59 Y61.102 E67.84977
G1 X73.63 Y60.424 E67.87942
G1 X73.749 Y59.755 E67.90908
G1 X73.946 Y59.105 E67.93873
G1 X74.218 Y58.482 E67.96841
G1 X74.562 Y57.896 E67.99807
G1 X74.972 Y57.354 E68.02774
G0 F3600 X75.529 Y57.266
G1 F2400 X75.632 Y57.163 E68.0341
G1 X76.125 Y56.726 E68.06286
G1 X76.667 Y56.353 E68.09158
G1 X77.251 Y56.048 E68.12034
G1 X77.867 Y55.816 E68.14907
G1 X78.507 Y55.66 E68.17783
G1 X79.468 Y55.574 E68.21995
G1 X134.262 Y55.574 E70.61192
G1 X134.919 Y55.614 E70.64066
G1 X135.567 Y55.733 E70.66942
G1 X136.195 Y55.93 E70.69815
G1 X136.795 Y56.202 E70.72691
G1 X137.358 Y56.544 E70.75566
G1 X138.098 Y57.163 E70.79778
G1 X138.201 Y57.266 E70.80414
G1 X138.638 Y57.759 E70.8329
G1 X139.011 Y58.301 E70.86162
G1 X139.316 Y58.885 E70.89038
G1 X139.548 Y59.501 E70.91912
G1 X139.704 Y60.141 E70.94787
G1 X139.79 Y61.102 E70.98999
G1 X139.79 Y95.896 E72.50889
G1 X139.75 Y96.553 E72.53762
G1 X139.631 Y97.201 E72.56638
G1 X139.434 Y97.829 E72.59511
G1 X139.162 Y98.429 E72.62387
G1 X138.82 Y98.992 E72.65263
G1 X138.201 Y99.732 E72.69474
G1 X138.098 Y99.835 E72.7011
G1 X137.605 Y100.272 E72.72986
G1 X137.063 Y100.645 E72.75858
G1 X136.479 Y100.95 E72.78734
G1 X135.863 Y101.182 E72.81608
G1 X135.223 Y101.338 E72.84483
G1 X134.262 Y101.424 E72.88695
G1 X79.468 Y101.424 E75.27893
G1 X78.811 Y101.384 E75.30766
G1 X78.163 Y101.265 E75.33642
G1 X77.535 Y101.068 E75.36515
G1 X76.935 Y100.796 E75.39391
G1 X76.372 Y100.454 E75.42267
G1 X75.632 Y99.835 E75.46478
G1 X75.529 Y99.732 E75.47114
G1 X75.092 Y99.239 E75.4999
G1 X74.719 Y98.697 E75.52862
G1 X74.414 Y98.113 E75.55738
G1 X74.182 Y97.497 E75.58612
G1 X74.026 Y96.857 E75.61488
G1 X73.94 Y95.896 E75.657
G1 X73.94 Y61.102 E77.17589
G1 X73.98 Y60.445 E77.20462
G1 X74.099 Y59.797 E77.23338
