;FLAVOR:Marlin
;TIME:7557
;Filament used: 9.771m
;Layer height: 0.2
;Generated with Cura_SteamEngine 3.3.1
M190 S60
M104 S210
M109 S210
M82 ;absolute extrusion mode
G21 ;metric values
G90 ;absolute positioning
M82 ;set extruder to absolute mode
M107 ;start with the fan off
G28 X0 Y0 ;move X/Y to min endstops
G28 Z0 ;move Z to min endstops
G1 Z15.0 F9000 ;move the platform down 15mm
G92 E0 ;zero the extruded length
G1 F200 E3 ;extrude 3mm of feed stock
G92 E0 ;zero the extruded length again
G1 F9000
;Put printing message on LCD screen
M117 Printing...
G92 E0
G1 F1500 E-6.5
;LAYER_COUNT:50
;LAYER:0
M107
G0 F3600 X95.118 Y34.501 Z0.3
;TYPE:SKIRT
G1 F1500 E0
G1 F2400 X95.393 Y33.756 E0.03467
G1 X95.74 Y33.043 E0.06928
G1 X96.158 Y32.368 E0.10394
G1 X96.641 Y31.739 E0.13856
G1 X97.068 Y31.278 E0.16599
G1 X97.288 Y31.058 E0.17957
G1 X97.876 Y30.525 E0.21422
G1 X98.515 Y30.055 E0.24885
G1 X99.199 Y29.652 E0.2835
G1 X99.919 Y29.319 E0.31813
G1 X100.669 Y29.061 E0.35276
G1 X101.442 Y28.879 E0.38742
G1 X102.228 Y28.776 E0.42203
G1 X102.856 Y28.751 E0.44947
G1 X104.451 Y28.751 E0.51909
G1 X105.243 Y28.791 E0.55371
G1 X106.028 Y28.91 E0.58837
G1 X106.796 Y29.108 E0.62299
G1 X107.541 Y29.383 E0.65766
G1 X108.254 Y29.73 E0.69228
G1 X108.856 Y30.103 E0.72319
G1 X109.282 Y29.852 E0.74478
G1 X110.002 Y29.519 E0.77941
G1 X110.752 Y29.261 E0.81403
G1 X111.525 Y29.079 E0.8487
G1 X112.311 Y28.976 E0.8833
G1 X112.939 Y28.951 E0.91074
G1 X162.733 Y28.951 E3.08444
G1 X163.525 Y28.991 E3.11906
G1 X164.31 Y29.11 E3.15372
G1 X165.078 Y29.308 E3.18834
G1 X165.823 Y29.583 E3.22301
G1 X166.536 Y29.93 E3.25762
G1 X166.818 Y30.104 E3.27209
G1 X166.959 Y30.003 E3.27966
G1 X167.647 Y29.608 E3.31429
G1 X168.372 Y29.284 E3.34896
G1 X169.125 Y29.035 E3.38358
G1 X169.9 Y28.862 E3.41825
G1 X170.687 Y28.769 E3.45284
G1 X171.22 Y28.751 E3.47612
G1 X172.816 Y28.751 E3.54579
G1 X173.608 Y28.791 E3.58041
G1 X174.393 Y28.91 E3.61507
G1 X175.161 Y29.108 E3.64969
G1 X175.906 Y29.383 E3.68436
G1 X176.619 Y29.73 E3.71898
G1 X177.294 Y30.148 E3.75363
G1 X177.923 Y30.631 E3.78825
G1 X178.384 Y31.058 E3.81569
G1 X178.604 Y31.278 E3.82927
G1 X179.137 Y31.866 E3.86391
G1 X179.607 Y32.505 E3.89854
G1 X180.01 Y33.189 E3.9332
G1 X180.343 Y33.909 E3.96783
G1 X180.601 Y34.659 E4.00245
G1 X180.783 Y35.432 E4.03712
G1 X180.886 Y36.218 E4.07172
G1 X180.911 Y36.846 E4.09916
G1 X180.911 Y38.441 E4.16879
G1 X180.871 Y39.233 E4.2034
G1 X180.752 Y40.018 E4.23806
G1 X180.554 Y40.786 E4.27269
G1 X180.279 Y41.531 E4.30735
G1 X179.932 Y42.244 E4.34197
G1 X179.559 Y42.846 E4.37288
G1 X179.81 Y43.272 E4.39447
G1 X180.143 Y43.992 E4.4291
G1 X180.401 Y44.742 E4.46372
G1 X180.583 Y45.515 E4.49839
G1 X180.686 Y46.301 E4.53299
G1 X180.711 Y46.929 E4.56043
G1 X180.711 Y86.723 E6.2976
G1 X180.671 Y87.515 E6.33221
G1 X180.552 Y88.3 E6.36687
G1 X180.354 Y89.068 E6.4015
G1 X180.079 Y89.813 E6.43616
G1 X179.732 Y90.526 E6.47078
G1 X179.558 Y90.808 E6.48524
G1 X179.659 Y90.949 E6.49281
G1 X180.054 Y91.637 E6.52745
G1 X180.378 Y92.362 E6.56211
G1 X180.627 Y93.115 E6.59673
G1 X180.8 Y93.89 E6.6314
G1 X180.893 Y94.677 E6.66599
G1 X180.911 Y95.21 E6.68927
G1 X180.911 Y96.806 E6.75895
G1 X180.871 Y97.598 E6.79356
G1 X180.752 Y98.383 E6.82822
G1 X180.554 Y99.151 E6.86285
G1 X180.279 Y99.896 E6.89751
G1 X179.932 Y100.609 E6.93213
G1 X179.514 Y101.284 E6.96679
G1 X179.031 Y101.913 E7.00141
G1 X178.604 Y102.374 E7.02884
G1 X178.384 Y102.594 E7.04242
G1 X177.796 Y103.127 E7.07707
G1 X177.157 Y103.597 E7.11169
G1 X176.473 Y104 E7.14635
G1 X175.753 Y104.333 E7.18098
G1 X175.003 Y104.591 E7.2156
G1 X174.23 Y104.773 E7.25027
G1 X173.444 Y104.876 E7.28488
G1 X172.816 Y104.901 E7.31231
G1 X171.221 Y104.901 E7.38194
G1 X170.429 Y104.861 E7.41656
G1 X169.644 Y104.742 E7.45122
G1 X168.876 Y104.544 E7.48584
G1 X168.131 Y104.269 E7.52051
G1 X167.418 Y103.922 E7.55512
G1 X166.816 Y103.549 E7.58604
G1 X166.39 Y103.8 E7.60762
G1 X165.67 Y104.133 E7.64225
G1 X164.92 Y104.391 E7.67688
G1 X164.147 Y104.573 E7.71154
G1 X163.361 Y104.676 E7.74615
G1 X162.733 Y104.701 E7.77358
G1 X112.939 Y104.701 E9.94729
G1 X112.147 Y104.661 E9.98191
G1 X111.362 Y104.542 E10.01657
G1 X110.594 Y104.344 E10.05119
G1 X109.849 Y104.069 E10.08586
G1 X109.136 Y103.722 E10.12047
G1 X108.854 Y103.548 E10.13494
G1 X108.713 Y103.649 E10.14251
G1 X108.025 Y104.044 E10.17714
G1 X107.3 Y104.368 E10.21181
G1 X106.547 Y104.617 E10.24643
G1 X105.772 Y104.79 E10.28109
G1 X104.985 Y104.883 E10.31569
G1 X104.452 Y104.901 E10.33897
G1 X102.856 Y104.901 E10.40864
G1 X102.064 Y104.861 E10.44326
G1 X101.279 Y104.742 E10.47792
G1 X100.569 Y104.559 E10.50992
G1 X100.569 Y108.74 E10.69244
G1 X101.086 Y108.36 E10.72045
G1 X101.77 Y107.957 E10.75511
G1 X102.49 Y107.624 E10.78974
G1 X103.24 Y107.366 E10.82436
G1 X104.013 Y107.184 E10.85903
G1 X104.799 Y107.081 E10.89363
G1 X105.427 Y107.056 E10.92107
G1 X175.221 Y107.056 E13.96785
G1 X176.013 Y107.096 E14.00247
G1 X176.798 Y107.215 E14.03713
G1 X177.566 Y107.413 E14.07175
G1 X178.311 Y107.688 E14.10642
G1 X179.024 Y108.035 E14.14103
G1 X179.699 Y108.453 E14.17569
G1 X180.328 Y108.936 E14.21031
G1 X180.789 Y109.363 E14.23774
G1 X180.892 Y109.466 E14.2441
G1 X181.425 Y110.054 E14.27875
G1 X181.895 Y110.693 E14.31338
G1 X182.298 Y111.377 E14.34803
G1 X182.631 Y112.097 E14.38266
G1 X182.889 Y112.847 E14.41728
G1 X183.071 Y113.62 E14.45195
G1 X183.174 Y114.406 E14.48656
G1 X183.199 Y115.034 E14.51399
G1 X183.199 Y174.828 E17.12424
G1 X183.159 Y175.62 E17.15885
G1 X183.04 Y176.405 E17.19351
G1 X182.842 Y177.173 E17.22814
G1 X182.567 Y177.918 E17.2628
G1 X182.22 Y178.631 E17.29742
G1 X181.802 Y179.306 E17.33208
G1 X181.319 Y179.935 E17.3667
G1 X180.892 Y180.396 E17.39413
G1 X180.789 Y180.499 E17.40049
G1 X180.201 Y181.032 E17.43513
G1 X179.562 Y181.502 E17.46976
G1 X178.878 Y181.905 E17.50442
G1 X178.158 Y182.238 E17.53905
G1 X177.408 Y182.496 E17.57367
G1 X176.635 Y182.678 E17.60834
G1 X175.849 Y182.781 E17.64294
G1 X175.221 Y182.806 E17.67038
G1 X105.427 Y182.806 E20.71716
G1 X104.635 Y182.766 E20.75178
G1 X103.85 Y182.647 E20.78644
G1 X103.082 Y182.449 E20.82106
G1 X102.337 Y182.174 E20.85573
G1 X101.624 Y181.827 E20.89034
G1 X100.949 Y181.409 E20.925
G1 X100.32 Y180.926 E20.95962
G1 X99.859 Y180.499 E20.98705
G1 X99.756 Y180.396 E20.99341
G1 X99.223 Y179.808 E21.02806
G1 X98.753 Y179.169 E21.06269
G1 X98.35 Y178.485 E21.09734
G1 X98.017 Y177.765 E21.13197
G1 X97.759 Y177.015 E21.16659
G1 X97.577 Y176.242 E21.20126
G1 X97.474 Y175.456 E21.23587
G1 X97.449 Y174.828 E21.2633
G1 X97.449 Y123.834 E23.48939
G1 X96.932 Y124.214 E23.5174
G1 X96.248 Y124.617 E23.55206
G1 X95.528 Y124.95 E23.58669
G1 X94.778 Y125.208 E23.62131
G1 X94.005 Y125.39 E23.65598
G1 X93.219 Y125.493 E23.69058
G1 X92.591 Y125.518 E23.71802
G1 X80.797 Y125.518 E24.23287
G1 X80.005 Y125.478 E24.26749
G1 X79.22 Y125.359 E24.30215
G1 X78.452 Y125.161 E24.33677
G1 X77.707 Y124.886 E24.37144
G1 X76.994 Y124.539 E24.40606
G1 X76.319 Y124.121 E24.44072
G1 X75.69 Y123.638 E24.47534
G1 X75.229 Y123.211 E24.50277
G1 X75.126 Y123.108 E24.50913
G1 X74.593 Y122.52 E24.54377
G1 X74.123 Y121.881 E24.5784
G1 X73.72 Y121.197 E24.61305
G1 X73.387 Y120.477 E24.64768
G1 X73.129 Y119.727 E24.68231
G1 X72.947 Y118.954 E24.71698
G1 X72.844 Y118.168 E24.75158
G1 X72.819 Y117.54 E24.77902
G1 X72.819 Y94.746 E25.77406
G1 X72.859 Y93.954 E25.80868
G1 X72.978 Y93.169 E25.84334
G1 X73.176 Y92.401 E25.87796
G1 X73.451 Y91.656 E25.91263
G1 X73.798 Y90.943 E25.94725
G1 X74.216 Y90.268 E25.98191
G1 X74.699 Y89.639 E26.01653
G1 X75.126 Y89.178 E26.04396
G1 X75.229 Y89.075 E26.05032
G1 X75.817 Y88.542 E26.08496
G1 X76.456 Y88.072 E26.11959
G1 X77.14 Y87.669 E26.15424
G1 X77.86 Y87.336 E26.18887
G1 X78.61 Y87.078 E26.2235
G1 X79.383 Y86.896 E26.25817
G1 X80.169 Y86.793 E26.29277
G1 X80.797 Y86.768 E26.32021
G1 X92.591 Y86.768 E26.83506
G1 X93.383 Y86.808 E26.86968
G1 X94.168 Y86.927 E26.90434
G1 X94.936 Y87.125 E26.93896
G1 X94.978 Y87.14 E26.94091
G1 X94.961 Y86.723 E26.95913
G1 X94.961 Y46.929 E28.69629
G1 X95.001 Y46.137 E28.73091
G1 X95.12 Y45.352 E28.76557
G1 X95.318 Y44.584 E28.80019
G1 X95.593 Y43.839 E28.83486
G1 X95.94 Y43.126 E28.86947
G1 X96.114 Y42.844 E28.88394
G1 X96.013 Y42.703 E28.89151
G1 X95.618 Y42.015 E28.92614
G1 X95.294 Y41.29 E28.96081
G1 X95.045 Y40.537 E28.99543
G1 X94.872 Y39.762 E29.0301
G1 X94.779 Y38.975 E29.06469
G1 X94.761 Y38.442 E29.08797
G1 X94.761 Y36.846 E29.15764
G1 X94.801 Y36.054 E29.19226
G1 X94.92 Y35.269 E29.22692
G1 X95.118 Y34.501 E29.26154
G0 F3600 X95.468 Y34.555
G1 F2400 X95.742 Y33.829 E29.29542
G1 X96.089 Y33.136 E29.32925
G1 X96.506 Y32.482 E29.36311
G1 X96.988 Y31.874 E29.39698
G1 X97.315 Y31.525 E29.41786
G1 X97.535 Y31.305 E29.43144
G1 X98.111 Y30.786 E29.46529
G1 X98.737 Y30.328 E29.49915
G1 X99.408 Y29.938 E29.53303
G1 X100.114 Y29.618 E29.56686
G1 X100.85 Y29.373 E29.60073
G1 X101.608 Y29.205 E29.63462
G1 X102.378 Y29.116 E29.66846
G1 X102.856 Y29.101 E29.68933
G1 X104.451 Y29.101 E29.75896
G1 X105.226 Y29.141 E29.79284
G1 X105.992 Y29.26 E29.82668
G1 X106.742 Y29.458 E29.86054
G1 X107.468 Y29.732 E29.89442
G1 X108.161 Y30.079 E29.92825
G1 X108.815 Y30.496 E29.96211
G1 X108.84 Y30.516 E29.96351
G1 X109.491 Y30.138 E29.99637
G1 X110.197 Y29.818 E30.0302
G1 X110.933 Y29.573 E30.06407
G1 X111.691 Y29.405 E30.09796
G1 X112.461 Y29.316 E30.1318
G1 X112.939 Y29.301 E30.15267
G1 X162.733 Y29.301 E32.32638
G1 X163.508 Y29.341 E32.36025
G1 X164.274 Y29.46 E32.39409
G1 X165.024 Y29.658 E32.42796
G1 X165.75 Y29.932 E32.46183
G1 X166.443 Y30.279 E32.49566
G1 X166.829 Y30.525 E32.51565
G1 X167.296 Y30.205 E32.54036
G1 X167.978 Y29.835 E32.57423
G1 X168.694 Y29.537 E32.60809
G1 X169.438 Y29.315 E32.64198
G1 X170.2 Y29.171 E32.67583
G1 X171.22 Y29.101 E32.72046
G1 X172.816 Y29.101 E32.79014
G1 X173.591 Y29.141 E32.82401
G1 X174.357 Y29.26 E32.85785
G1 X175.107 Y29.458 E32.89171
G1 X175.833 Y29.732 E32.92559
G1 X176.526 Y30.079 E32.95942
G1 X177.18 Y30.496 E32.99328
G1 X177.788 Y30.978 E33.02715
G1 X178.137 Y31.305 E33.04803
G1 X178.357 Y31.525 E33.06161
G1 X178.876 Y32.101 E33.09546
G1 X179.334 Y32.727 E33.12932
G1 X179.724 Y33.398 E33.1632
G1 X180.044 Y34.104 E33.19704
G1 X180.289 Y34.84 E33.2309
G1 X180.457 Y35.598 E33.26479
G1 X180.546 Y36.368 E33.29863
G1 X180.561 Y36.846 E33.31951
G1 X180.561 Y38.441 E33.38913
G1 X180.521 Y39.216 E33.42301
G1 X180.402 Y39.982 E33.45685
G1 X180.204 Y40.732 E33.49071
G1 X179.93 Y41.458 E33.52459
G1 X179.583 Y42.151 E33.55842
G1 X179.166 Y42.805 E33.59228
G1 X179.146 Y42.83 E33.59368
G1 X179.524 Y43.481 E33.62654
G1 X179.844 Y44.187 E33.66038
G1 X180.089 Y44.923 E33.69424
G1 X180.257 Y45.681 E33.72813
G1 X180.346 Y46.451 E33.76197
G1 X180.361 Y46.929 E33.78285
G1 X180.361 Y86.723 E35.52001
G1 X180.321 Y87.498 E35.55389
G1 X180.202 Y88.264 E35.58773
G1 X180.004 Y89.014 E35.62159
G1 X179.73 Y89.74 E35.65546
G1 X179.383 Y90.433 E35.6893
G1 X179.137 Y90.819 E35.70928
G1 X179.457 Y91.286 E35.73399
G1 X179.827 Y91.968 E35.76786
G1 X180.125 Y92.684 E35.80172
G1 X180.347 Y93.428 E35.83561
G1 X180.491 Y94.19 E35.86946
G1 X180.561 Y95.21 E35.9141
G1 X180.561 Y96.806 E35.98377
G1 X180.521 Y97.581 E36.01764
G1 X180.402 Y98.347 E36.05148
G1 X180.204 Y99.097 E36.08535
G1 X179.93 Y99.823 E36.11922
G1 X179.583 Y100.516 E36.15305
G1 X179.166 Y101.17 E36.18691
G1 X178.684 Y101.778 E36.22078
G1 X178.357 Y102.127 E36.24166
G1 X178.137 Y102.347 E36.25524
G1 X177.561 Y102.866 E36.28909
G1 X176.935 Y103.324 E36.32295
G1 X176.264 Y103.714 E36.35683
G1 X175.558 Y104.034 E36.39067
G1 X174.822 Y104.279 E36.42453
G1 X174.064 Y104.447 E36.45842
G1 X173.294 Y104.536 E36.49226
G1 X172.816 Y104.551 E36.51314
G1 X171.221 Y104.551 E36.58277
G1 X170.446 Y104.511 E36.61664
G1 X169.68 Y104.392 E36.65048
G1 X168.93 Y104.194 E36.68434
G1 X168.204 Y103.92 E36.71822
G1 X167.511 Y103.573 E36.75205
G1 X166.857 Y103.156 E36.78591
G1 X166.832 Y103.136 E36.78731
G1 X166.181 Y103.514 E36.82017
G1 X165.475 Y103.834 E36.85401
G1 X164.739 Y104.079 E36.88787
G1 X163.981 Y104.247 E36.92176
G1 X163.211 Y104.336 E36.9556
G1 X162.733 Y104.351 E36.97648
G1 X112.939 Y104.351 E39.15018
G1 X112.164 Y104.311 E39.18406
G1 X111.398 Y104.192 E39.2179
G1 X110.648 Y103.994 E39.25176
G1 X109.922 Y103.72 E39.28564
G1 X109.229 Y103.373 E39.31947
G1 X108.843 Y103.127 E39.33945
G1 X108.376 Y103.447 E39.36416
G1 X107.694 Y103.817 E39.39803
G1 X106.978 Y104.115 E39.43189
G1 X106.234 Y104.337 E39.46578
G1 X105.472 Y104.481 E39.49964
G1 X104.452 Y104.551 E39.54427
G1 X102.856 Y104.551 E39.61394
G1 X102.081 Y104.511 E39.64782
G1 X101.315 Y104.392 E39.68166
G1 X100.565 Y104.194 E39.71552
G1 X100.219 Y104.063 E39.73167
G1 X100.219 Y109.508 E39.96937
G1 X100.682 Y109.091 E39.99657
G1 X101.308 Y108.633 E40.03043
G1 X101.979 Y108.243 E40.06431
G1 X102.685 Y107.923 E40.09814
G1 X103.421 Y107.678 E40.13201
G1 X104.179 Y107.51 E40.1659
G1 X104.949 Y107.421 E40.19974
G1 X105.427 Y107.406 E40.22061
G1 X175.221 Y107.406 E43.2674
G1 X175.996 Y107.446 E43.30127
G1 X176.762 Y107.565 E43.33511
G1 X177.512 Y107.763 E43.36897
G1 X178.238 Y108.037 E43.40285
G1 X178.931 Y108.384 E43.43668
G1 X179.585 Y108.801 E43.47054
G1 X180.193 Y109.283 E43.50441
G1 X180.542 Y109.61 E43.52529
G1 X180.645 Y109.713 E43.53165
G1 X181.164 Y110.289 E43.56549
G1 X181.622 Y110.915 E43.59936
G1 X182.012 Y111.586 E43.63324
G1 X182.332 Y112.292 E43.66707
G1 X182.577 Y113.028 E43.70094
G1 X182.745 Y113.786 E43.73483
G1 X182.834 Y114.556 E43.76867
G1 X182.849 Y115.034 E43.78954
G1 X182.849 Y174.828 E46.39979
G1 X182.809 Y175.603 E46.43366
G1 X182.69 Y176.369 E46.4675
G1 X182.492 Y177.119 E46.50136
G1 X182.218 Y177.845 E46.53524
G1 X181.871 Y178.538 E46.56907
G1 X181.454 Y179.192 E46.60293
G1 X180.972 Y179.8 E46.6368
G1 X180.645 Y180.149 E46.65768
G1 X180.542 Y180.252 E46.66404
G1 X179.966 Y180.771 E46.69788
G1 X179.34 Y181.229 E46.73174
G1 X178.669 Y181.619 E46.76562
G1 X177.963 Y181.939 E46.79946
G1 X177.227 Y182.184 E46.83333
G1 X176.469 Y182.352 E46.86722
G1 X175.699 Y182.441 E46.90106
G1 X175.221 Y182.456 E46.92193
G1 X105.427 Y182.456 E49.96871
G1 X104.652 Y182.416 E50.00259
G1 X103.886 Y182.297 E50.03643
G1 X103.136 Y182.099 E50.07029
G1 X102.41 Y181.825 E50.10417
G1 X101.717 Y181.478 E50.138
G1 X101.063 Y181.061 E50.17186
G1 X100.455 Y180.579 E50.20573
G1 X100.106 Y180.252 E50.22661
G1 X100.003 Y180.149 E50.23297
G1 X99.484 Y179.573 E50.26681
G1 X99.026 Y178.947 E50.30067
G1 X98.636 Y178.276 E50.33455
G1 X98.316 Y177.57 E50.36839
G1 X98.071 Y176.834 E50.40225
G1 X97.903 Y176.076 E50.43615
G1 X97.814 Y175.306 E50.46998
G1 X97.799 Y174.828 E50.49086
G1 X97.799 Y123.066 E52.75048
G1 X97.336 Y123.483 E52.77768
G1 X96.71 Y123.941 E52.81154
G1 X96.039 Y124.331 E52.84542
G1 X95.333 Y124.651 E52.87925
G1 X94.597 Y124.896 E52.91312
G1 X93.839 Y125.064 E52.94701
G1 X93.069 Y125.153 E52.98085
G1 X92.591 Y125.168 E53.00172
G1 X80.797 Y125.168 E53.51658
G1 X80.022 Y125.128 E53.55046
G1 X79.256 Y125.009 E53.5843
G1 X78.506 Y124.811 E53.61816
G1 X77.78 Y124.537 E53.65203
G1 X77.087 Y124.19 E53.68586
G1 X76.433 Y123.773 E53.71972
G1 X75.825 Y123.291 E53.75359
G1 X75.476 Y122.964 E53.77447
G1 X75.373 Y122.861 E53.78083
G1 X74.854 Y122.285 E53.81468
G1 X74.396 Y121.659 E53.84854
G1 X74.006 Y120.988 E53.88242
G1 X73.686 Y120.282 E53.91626
G1 X73.441 Y119.546 E53.95012
G1 X73.273 Y118.788 E53.98401
G1 X73.184 Y118.018 E54.01785
G1 X73.169 Y117.54 E54.03872
G1 X73.169 Y94.746 E55.03377
G1 X73.209 Y93.971 E55.06765
G1 X73.328 Y93.205 E55.10149
G1 X73.526 Y92.455 E55.13535
G1 X73.8 Y91.729 E55.16923
G1 X74.147 Y91.036 E55.20306
G1 X74.564 Y90.382 E55.23692
G1 X75.046 Y89.774 E55.27079
G1 X75.373 Y89.425 E55.29167
G1 X75.476 Y89.322 E55.29803
G1 X76.052 Y88.803 E55.33187
G1 X76.678 Y88.345 E55.36573
G1 X77.349 Y87.955 E55.39961
G1 X78.055 Y87.635 E55.43345
G1 X78.791 Y87.39 E55.46731
G1 X79.549 Y87.222 E55.5012
G1 X80.319 Y87.133 E55.53504
G1 X80.797 Y87.118 E55.55592
G1 X92.591 Y87.118 E56.07077
G1 X93.366 Y87.158 E56.10465
G1 X94.132 Y87.277 E56.13849
G1 X94.882 Y87.475 E56.17235
G1 X95.379 Y87.663 E56.19555
