;FLAVOR:Marlin
;TIME:7864
;Filament used: 10.1626m
;Layer height: 0.2
;Generated with Cura_SteamEngine 3.3.1
M190 S60
M104 S210
M109 S210
M82 ;absolute extrusion mode
G21 ;metric values
G90 ;absolute positioning
M82 ;set extruder to absolute mode
M107 ;start with the fan off
G28 X0 Y0 ;move X/Y to min endstops
G28 Z0 ;move Z to min endstops
G1 Z15.0 F9000 ;move the platform down 15mm
G92 E0 ;zero the extruded length
G1 F200 E3 ;extrude 3mm of feed stock
G92 E0 ;zero the extruded length again
G1 F9000
;Put printing message on LCD screen
M117 Printing...
G92 E0
G1 F1500 E-6.5
;LAYER_COUNT:50
;LAYER:0
M107
G0 F3600 X92.262 Y37.673 Z0.3
;TYPE:SKIRT
G1 F1500 E0
G1 F2400 X92.609 Y36.96 E0.03462
G1 X93.027 Y36.285 E0.06927
G1 X93.51 Y35.656 E0.10389
G1 X93.937 Y35.195 E0.13133
G1 X94.157 Y34.975 E0.14491
G1 X94.745 Y34.442 E0.17955
G1 X95.384 Y33.972 E0.21418
G1 X96.068 Y33.569 E0.24884
G1 X96.788 Y33.236 E0.28347
G1 X97.538 Y32.978 E0.31809
G1 X98.311 Y32.796 E0.35276
G1 X99.097 Y32.693 E0.38736
G1 X99.725 Y32.668 E0.4148
G1 X101.32 Y32.668 E0.48443
G1 X102.112 Y32.708 E0.51904
G1 X102.897 Y32.827 E0.5537
G1 X103.665 Y33.025 E0.58833
G1 X104.41 Y33.3 E0.62299
G1 X105.123 Y33.647 E0.65761
G1 X105.725 Y34.02 E0.68852
G1 X106.151 Y33.769 E0.71011
G1 X106.871 Y33.436 E0.74474
G1 X107.621 Y33.178 E0.77936
G1 X108.394 Y32.996 E0.81403
G1 X109.18 Y32.893 E0.84863
G1 X109.808 Y32.868 E0.87607
G1 X159.602 Y32.868 E3.04977
G1 X160.394 Y32.908 E3.08439
G1 X161.179 Y33.027 E3.11905
G1 X161.947 Y33.225 E3.15367
G1 X162.692 Y33.5 E3.18834
G1 X163.405 Y33.847 E3.22296
G1 X163.687 Y34.021 E3.23742
G1 X163.828 Y33.92 E3.24499
G1 X164.516 Y33.525 E3.27963
G1 X165.241 Y33.201 E3.31429
G1 X165.994 Y32.952 E3.34891
G1 X166.769 Y32.779 E3.38358
G1 X167.556 Y32.686 E3.41817
G1 X168.089 Y32.668 E3.44145
G1 X169.685 Y32.668 E3.51113
G1 X170.477 Y32.708 E3.54574
G1 X171.262 Y32.827 E3.5804
G1 X172.03 Y33.025 E3.61503
G1 X172.775 Y33.3 E3.64969
G1 X173.488 Y33.647 E3.68431
G1 X174.163 Y34.065 E3.71897
G1 X174.792 Y34.548 E3.75359
G1 X175.253 Y34.975 E3.78102
G1 X175.473 Y35.195 E3.7946
G1 X176.006 Y35.783 E3.82924
G1 X176.476 Y36.422 E3.86387
G1 X176.879 Y37.106 E3.89853
G1 X177.212 Y37.826 E3.93316
G1 X177.47 Y38.576 E3.96778
G1 X177.652 Y39.349 E4.00245
G1 X177.755 Y40.135 E4.03705
G1 X177.78 Y40.763 E4.06449
G1 X177.78 Y42.358 E4.13412
G1 X177.74 Y43.15 E4.16874
G1 X177.621 Y43.935 E4.2034
G1 X177.423 Y44.703 E4.23802
G1 X177.148 Y45.448 E4.27269
G1 X176.801 Y46.161 E4.3073
G1 X176.428 Y46.763 E4.33822
G1 X176.679 Y47.189 E4.3598
G1 X177.012 Y47.909 E4.39443
G1 X177.27 Y48.659 E4.42905
G1 X177.452 Y49.432 E4.46372
G1 X177.555 Y50.218 E4.49833
G1 X177.58 Y50.846 E4.52576
G1 X177.58 Y93.64 E6.39389
G1 X177.54 Y94.432 E6.42851
G1 X177.421 Y95.217 E6.46317
G1 X177.223 Y95.985 E6.49779
G1 X176.948 Y96.73 E6.53246
G1 X176.601 Y97.443 E6.56707
G1 X176.427 Y97.725 E6.58154
G1 X176.528 Y97.866 E6.58911
G1 X176.923 Y98.554 E6.62374
G1 X177.247 Y99.279 E6.65841
G1 X177.496 Y100.032 E6.69303
G1 X177.669 Y100.807 E6.72769
G1 X177.762 Y101.594 E6.76229
G1 X177.78 Y102.127 E6.78557
G1 X177.78 Y103.723 E6.85524
G1 X177.74 Y104.515 E6.88986
G1 X177.621 Y105.3 E6.92452
G1 X177.423 Y106.068 E6.95914
G1 X177.148 Y106.813 E6.99381
G1 X176.801 Y107.526 E7.02842
G1 X176.383 Y108.201 E7.06308
G1 X175.947 Y108.768 E7.09431
G1 X176.331 Y109.063 E7.11544
G1 X176.792 Y109.49 E7.14288
G1 X176.895 Y109.593 E7.14923
G1 X177.428 Y110.181 E7.18388
G1 X177.898 Y110.82 E7.21851
G1 X178.301 Y111.504 E7.25316
G1 X178.634 Y112.224 E7.28779
G1 X178.892 Y112.974 E7.32242
G1 X179.074 Y113.747 E7.35708
G1 X179.177 Y114.533 E7.39169
G1 X179.202 Y115.161 E7.41913
G1 X179.202 Y177.955 E10.16033
G1 X179.162 Y178.747 E10.19495
G1 X179.043 Y179.532 E10.22961
G1 X178.845 Y180.3 E10.26423
G1 X178.57 Y181.045 E10.2989
G1 X178.223 Y181.758 E10.33351
G1 X177.805 Y182.433 E10.36817
G1 X177.322 Y183.062 E10.40279
G1 X176.895 Y183.523 E10.43022
G1 X176.792 Y183.626 E10.43658
G1 X176.204 Y184.159 E10.47123
G1 X175.565 Y184.629 E10.50585
G1 X174.881 Y185.032 E10.54051
G1 X174.161 Y185.365 E10.57514
G1 X173.411 Y185.623 E10.60976
G1 X172.638 Y185.805 E10.64443
G1 X171.852 Y185.908 E10.67904
G1 X171.224 Y185.933 E10.70647
G1 X101.43 Y185.933 E13.75325
G1 X100.638 Y185.893 E13.78787
G1 X99.853 Y185.774 E13.82253
G1 X99.085 Y185.576 E13.85716
G1 X98.34 Y185.301 E13.89182
G1 X97.627 Y184.954 E13.92644
G1 X96.952 Y184.536 E13.9611
G1 X96.323 Y184.053 E13.99572
G1 X95.862 Y183.626 E14.02315
G1 X95.759 Y183.523 E14.02951
G1 X95.226 Y182.935 E14.06415
G1 X94.756 Y182.296 E14.09878
G1 X94.353 Y181.612 E14.13344
G1 X94.02 Y180.892 E14.16806
G1 X93.762 Y180.142 E14.20269
G1 X93.58 Y179.369 E14.23736
G1 X93.477 Y178.583 E14.27196
G1 X93.452 Y177.955 E14.2994
G1 X93.452 Y125.744 E16.57861
G1 X92.96 Y126.106 E16.60528
G1 X92.276 Y126.509 E16.63993
G1 X91.556 Y126.842 E16.67456
G1 X90.806 Y127.1 E16.70919
G1 X90.033 Y127.282 E16.74385
G1 X89.247 Y127.385 E16.77846
G1 X88.619 Y127.41 E16.8059
G1 X76.825 Y127.41 E17.32075
G1 X76.033 Y127.37 E17.35537
G1 X75.248 Y127.251 E17.39003
G1 X74.48 Y127.053 E17.42465
G1 X73.735 Y126.778 E17.45932
G1 X73.022 Y126.431 E17.49393
G1 X72.347 Y126.013 E17.52859
G1 X71.718 Y125.53 E17.56321
G1 X71.257 Y125.103 E17.59064
G1 X71.154 Y125 E17.597
G1 X70.621 Y124.412 E17.63165
G1 X70.151 Y123.773 E17.66627
G1 X69.748 Y123.089 E17.70093
G1 X69.415 Y122.369 E17.73556
G1 X69.157 Y121.619 E17.77018
G1 X68.975 Y120.846 E17.80485
G1 X68.872 Y120.06 E17.83946
G1 X68.847 Y119.432 E17.86689
G1 X68.847 Y96.638 E18.86194
G1 X68.887 Y95.846 E18.89656
G1 X69.006 Y95.061 E18.93122
G1 X69.204 Y94.293 E18.96584
G1 X69.479 Y93.548 E19.00051
G1 X69.826 Y92.835 E19.03512
G1 X70.244 Y92.16 E19.06978
G1 X70.727 Y91.531 E19.1044
G1 X71.154 Y91.07 E19.13183
G1 X71.257 Y90.967 E19.13819
G1 X71.845 Y90.434 E19.17284
G1 X72.484 Y89.964 E19.20746
G1 X73.168 Y89.561 E19.24212
G1 X73.888 Y89.228 E19.27675
G1 X74.638 Y88.97 E19.31137
G1 X75.411 Y88.788 E19.34604
G1 X76.197 Y88.685 E19.38065
G1 X76.825 Y88.66 E19.40808
G1 X88.619 Y88.66 E19.92294
G1 X89.411 Y88.7 E19.95755
G1 X90.196 Y88.819 E19.99221
G1 X90.964 Y89.017 E20.02684
G1 X91.709 Y89.292 E20.0615
G1 X91.83 Y89.351 E20.06738
G1 X91.83 Y50.846 E21.74828
G1 X91.87 Y50.054 E21.78289
G1 X91.989 Y49.269 E21.81755
G1 X92.187 Y48.501 E21.85218
G1 X92.462 Y47.756 E21.88684
G1 X92.809 Y47.043 E21.92146
G1 X92.983 Y46.761 E21.93592
G1 X92.882 Y46.62 E21.94349
G1 X92.487 Y45.932 E21.97813
G1 X92.163 Y45.207 E22.01279
G1 X91.914 Y44.454 E22.04741
G1 X91.741 Y43.679 E22.08208
G1 X91.648 Y42.892 E22.11667
G1 X91.63 Y42.359 E22.13995
G1 X91.63 Y40.763 E22.20963
G1 X91.67 Y39.971 E22.24424
G1 X91.789 Y39.186 E22.2789
G1 X91.987 Y38.418 E22.31353
G1 X92.262 Y37.673 E22.34819
G0 F3600 X92.611 Y37.746
G1 F2400 X92.958 Y37.053 E22.38203
G1 X93.375 Y36.399 E22.41589
G1 X93.857 Y35.791 E22.44976
G1 X94.184 Y35.442 E22.47063
G1 X94.404 Y35.222 E22.48422
G1 X94.98 Y34.703 E22.51806
G1 X95.606 Y34.245 E22.55192
G1 X96.277 Y33.855 E22.5858
G1 X96.983 Y33.535 E22.61964
G1 X97.719 Y33.29 E22.6535
G1 X98.477 Y33.122 E22.6874
G1 X99.247 Y33.033 E22.72123
G1 X99.725 Y33.018 E22.74211
G1 X101.32 Y33.018 E22.81174
G1 X102.095 Y33.058 E22.84561
G1 X102.861 Y33.177 E22.87945
G1 X103.611 Y33.375 E22.91332
G1 X104.337 Y33.649 E22.94719
G1 X105.03 Y33.996 E22.98102
G1 X105.684 Y34.413 E23.01488
G1 X105.709 Y34.433 E23.01628
G1 X106.36 Y34.055 E23.04914
G1 X107.066 Y33.735 E23.08298
G1 X107.802 Y33.49 E23.11684
G1 X108.56 Y33.322 E23.15074
G1 X109.33 Y33.233 E23.18457
G1 X109.808 Y33.218 E23.20545
G1 X159.602 Y33.218 E25.37915
G1 X160.377 Y33.258 E25.41303
G1 X161.143 Y33.377 E25.44687
G1 X161.893 Y33.575 E25.48073
G1 X162.619 Y33.849 E25.51461
G1 X163.312 Y34.196 E25.54844
G1 X163.698 Y34.442 E25.56842
G1 X164.165 Y34.122 E25.59314
G1 X164.847 Y33.752 E25.62701
G1 X165.563 Y33.454 E25.66086
G1 X166.307 Y33.232 E25.69476
G1 X167.069 Y33.088 E25.72861
G1 X168.089 Y33.018 E25.77324
G1 X169.685 Y33.018 E25.84291
G1 X170.46 Y33.058 E25.87679
G1 X171.226 Y33.177 E25.91063
G1 X171.976 Y33.375 E25.94449
G1 X172.702 Y33.649 E25.97837
G1 X173.395 Y33.996 E26.0122
G1 X174.049 Y34.413 E26.04606
G1 X174.657 Y34.895 E26.07993
G1 X175.006 Y35.222 E26.10081
G1 X175.226 Y35.442 E26.11439
G1 X175.745 Y36.018 E26.14823
G1 X176.203 Y36.644 E26.18209
G1 X176.593 Y37.315 E26.21597
G1 X176.913 Y38.021 E26.24981
G1 X177.158 Y38.757 E26.28367
G1 X177.326 Y39.515 E26.31757
G1 X177.415 Y40.285 E26.3514
G1 X177.43 Y40.763 E26.37228
G1 X177.43 Y42.358 E26.44191
G1 X177.39 Y43.133 E26.47579
G1 X177.271 Y43.899 E26.50963
G1 X177.073 Y44.649 E26.54349
G1 X176.799 Y45.375 E26.57736
G1 X176.452 Y46.068 E26.6112
G1 X176.035 Y46.722 E26.64506
G1 X176.015 Y46.747 E26.64645
G1 X176.393 Y47.398 E26.67931
G1 X176.713 Y48.104 E26.71315
G1 X176.958 Y48.84 E26.74702
G1 X177.126 Y49.598 E26.78091
G1 X177.215 Y50.368 E26.81475
G1 X177.23 Y50.846 E26.83562
G1 X177.23 Y93.64 E28.70375
G1 X177.19 Y94.415 E28.73762
G1 X177.071 Y95.181 E28.77146
G1 X176.873 Y95.931 E28.80533
G1 X176.599 Y96.657 E28.8392
G1 X176.252 Y97.35 E28.87303
G1 X176.006 Y97.736 E28.89302
G1 X176.326 Y98.203 E28.91773
G1 X176.696 Y98.885 E28.9516
G1 X176.994 Y99.601 E28.98546
G1 X177.216 Y100.345 E29.01935
G1 X177.36 Y101.107 E29.0532
G1 X177.43 Y102.127 E29.09783
G1 X177.43 Y103.723 E29.16751
G1 X177.39 Y104.498 E29.20138
G1 X177.271 Y105.264 E29.23522
G1 X177.073 Y106.014 E29.26908
G1 X176.799 Y106.74 E29.30296
G1 X176.452 Y107.433 E29.33679
G1 X176.035 Y108.087 E29.37065
G1 X175.553 Y108.695 E29.40452
G1 X175.429 Y108.827 E29.41243
G1 X175.588 Y108.928 E29.42065
G1 X176.196 Y109.41 E29.45452
G1 X176.545 Y109.737 E29.4754
G1 X176.648 Y109.84 E29.48176
G1 X177.167 Y110.416 E29.5156
G1 X177.625 Y111.042 E29.54946
G1 X178.015 Y111.713 E29.58334
G1 X178.335 Y112.419 E29.61718
G1 X178.58 Y113.155 E29.65104
G1 X178.748 Y113.913 E29.68494
G1 X178.837 Y114.683 E29.71877
G1 X178.852 Y115.161 E29.73965
G1 X178.852 Y177.955 E32.48086
G1 X178.812 Y178.73 E32.51473
G1 X178.693 Y179.496 E32.54857
G1 X178.495 Y180.246 E32.58244
G1 X178.221 Y180.972 E32.61631
G1 X177.874 Y181.665 E32.65014
G1 X177.457 Y182.319 E32.684
G1 X176.975 Y182.927 E32.71787
G1 X176.648 Y183.276 E32.73875
G1 X176.545 Y183.379 E32.74511
G1 X175.969 Y183.898 E32.77896
G1 X175.343 Y184.356 E32.81282
G1 X174.672 Y184.746 E32.8467
G1 X173.966 Y185.066 E32.88053
G1 X173.23 Y185.311 E32.9144
G1 X172.472 Y185.479 E32.94829
G1 X171.702 Y185.568 E32.98213
G1 X171.224 Y185.583 E33.003
G1 X101.43 Y185.583 E36.04979
G1 X100.655 Y185.543 E36.08366
G1 X99.889 Y185.424 E36.1175
G1 X99.139 Y185.226 E36.15136
G1 X98.413 Y184.952 E36.18524
G1 X97.72 Y184.605 E36.21907
G1 X97.066 Y184.188 E36.25293
G1 X96.458 Y183.706 E36.2868
G1 X96.109 Y183.379 E36.30768
G1 X96.006 Y183.276 E36.31404
G1 X95.487 Y182.7 E36.34788
G1 X95.029 Y182.074 E36.38174
G1 X94.639 Y181.403 E36.41562
G1 X94.319 Y180.697 E36.44946
G1 X94.074 Y179.961 E36.48332
G1 X93.906 Y179.203 E36.51722
G1 X93.817 Y178.433 E36.55105
G1 X93.802 Y177.955 E36.57193
G1 X93.802 Y124.98 E38.8845
G1 X93.364 Y125.375 E38.91025
G1 X92.738 Y125.833 E38.94411
G1 X92.067 Y126.223 E38.97799
G1 X91.361 Y126.543 E39.01182
G1 X90.625 Y126.788 E39.04569
G1 X89.867 Y126.956 E39.07958
G1 X89.097 Y127.045 E39.11342
G1 X88.619 Y127.06 E39.13429
G1 X76.825 Y127.06 E39.64915
G1 X76.05 Y127.02 E39.68302
G1 X75.284 Y126.901 E39.71686
G1 X74.534 Y126.703 E39.75073
G1 X73.808 Y126.429 E39.7846
G1 X73.115 Y126.082 E39.81843
G1 X72.461 Y125.665 E39.85229
G1 X71.853 Y125.183 E39.88616
G1 X71.504 Y124.856 E39.90704
G1 X71.401 Y124.753 E39.9134
G1 X70.882 Y124.177 E39.94725
G1 X70.424 Y123.551 E39.98111
G1 X70.034 Y122.88 E40.01499
G1 X69.714 Y122.174 E40.04882
G1 X69.469 Y121.438 E40.08269
G1 X69.301 Y120.68 E40.11658
G1 X69.212 Y119.91 E40.15042
G1 X69.197 Y119.432 E40.17129
G1 X69.197 Y96.638 E41.16634
G1 X69.237 Y95.863 E41.20022
G1 X69.356 Y95.097 E41.23406
G1 X69.554 Y94.347 E41.26792
G1 X69.828 Y93.621 E41.3018
G1 X70.175 Y92.928 E41.33563
G1 X70.592 Y92.274 E41.36949
G1 X71.074 Y91.666 E41.40336
G1 X71.401 Y91.317 E41.42424
G1 X71.504 Y91.214 E41.43059
G1 X72.08 Y90.695 E41.46444
G1 X72.706 Y90.237 E41.4983
G1 X73.377 Y89.847 E41.53218
G1 X74.083 Y89.527 E41.56602
G1 X74.819 Y89.282 E41.59988
G1 X75.577 Y89.114 E41.63377
G1 X76.347 Y89.025 E41.66761
G1 X76.825 Y89.01 E41.68849
G1 X88.619 Y89.01 E42.20334
G1 X89.394 Y89.05 E42.23722
G1 X90.16 Y89.169 E42.27106
G1 X90.91 Y89.367 E42.30492
G1 X91.636 Y89.641 E42.3388
G1 X92.18 Y89.913 E42.36535
G1 X92.18 Y50.846 E44.07078
G1 X92.22 Y50.071 E44.10465
G1 X92.339 Y49.305 E44.13849
G1 X92.537 Y48.555 E44.17235
G1 X92.811 Y47.829 E44.20623
G1 X93.158 Y47.136 E44.24006
G1 X93.404 Y46.75 E44.26004
G1 X93.084 Y46.283 E44.28476
G1 X92.714 Y45.601 E44.31863
G1 X92.416 Y44.885 E44.35248
G1 X92.194 Y44.141 E44.38638
G1 X92.05 Y43.379 E44.42023
G1 X91.98 Y42.359 E44.46486
G1 X91.98 Y40.763 E44.53453
G1 X92.02 Y39.988 E44.56841
G1 X92.139 Y39.222 E44.60225
G1 X92.337 Y38.472 E44.63611
G1 X92.611 Y37.746 E44.66999
G0 F3600 X92.961 Y37.821
G1 F2400 X93.307 Y37.148 E44.70302
G1 X93.723 Y36.515 E44.73609
G1 X94.432 Y35.69 E44.78357
G1 X94.652 Y35.47 E44.79716
G1 X95.215 Y34.963 E44.83023
G1 X95.828 Y34.519 E44.86327
G1 X96.485 Y34.141 E44.89636
G1 X97.177 Y33.835 E44.92939
G1 X97.899 Y33.604 E44.96248
G1 X98.64 Y33.45 E44.99552
G1 X99.725 Y33.368 E45.04302
G1 X101.32 Y33.368 E45.11265
G1 X102.076 Y33.408 E45.1457
G1 X102.824 Y33.527 E45.17876
G1 X103.555 Y33.725 E45.21182
G1 X104.262 Y33.999 E45.24492
G1 X104.935 Y34.345 E45.27796
G1 X105.568 Y34.761 E45.31102
G1 X105.702 Y34.871 E45.31859
G1 X105.911 Y34.719 E45.32987
G1 X106.568 Y34.341 E45.36296
G1 X107.26 Y34.035 E45.39599
G1 X107.982 Y33.804 E45.42908
G1 X108.723 Y33.65 E45.46212
G1 X109.808 Y33.568 E45.50962
G1 X159.602 Y33.568 E47.68333
G1 X160.358 Y33.608 E47.71637
G1 X161.106 Y33.727 E47.74944
G1 X161.837 Y33.925 E47.7825
G1 X162.544 Y34.199 E47.8156
G1 X163.217 Y34.545 E47.84863
G1 X163.71 Y34.869 E47.87439
G1 X163.866 Y34.742 E47.88317
G1 X164.501 Y34.329 E47.91623
G1 X165.176 Y33.986 E47.94929
G1 X165.884 Y33.715 E47.98238
G1 X166.616 Y33.521 E48.01544
G1 X167.364 Y33.405 E48.04848
G1 X168.089 Y33.368 E48.08017
G1 X169.685 Y33.368 E48.14984
G1 X170.441 Y33.408 E48.18289
G1 X171.189 Y33.527 E48.21596
G1 X171.92 Y33.725 E48.24902
G1 X172.627 Y33.999 E48.28212
G1 X173.3 Y34.345 E48.31515
G1 X173.933 Y34.761 E48.34822
G1 X174.758 Y35.47 E48.3957
G1 X174.978 Y35.69 E48.40929
G1 X175.485 Y36.253 E48.44236
G1 X175.929 Y36.866 E48.4754
G1 X176.307 Y37.523 E48.50849
G1 X176.613 Y38.215 E48.54152
G1 X176.844 Y38.937 E48.57461
G1 X176.998 Y39.678 E48.60765
G1 X177.08 Y40.763 E48.65515
G1 X177.08 Y42.358 E48.72478
G1 X177.04 Y43.114 E48.75783
G1 X176.921 Y43.862 E48.79089
G1 X176.723 Y44.593 E48.82395
G1 X176.449 Y45.3 E48.85705
G1 X176.103 Y45.973 E48.89009
G1 X175.687 Y46.606 E48.92315
G1 X175.577 Y46.74 E48.93072
G1 X175.729 Y46.949 E48.942
G1 X176.107 Y47.606 E48.97509
G1 X176.413 Y48.298 E49.00812
G1 X176.644 Y49.02 E49.04121
G1 X176.798 Y49.761 E49.07425
G1 X176.88 Y50.846 E49.12175
G1 X176.88 Y93.64 E50.98988
G1 X176.84 Y94.396 E51.02293
G1 X176.721 Y95.144 E51.05599
G1 X176.523 Y95.875 E51.08905
G1 X176.249 Y96.582 E51.12215
G1 X175.903 Y97.255 E51.15519
G1 X175.579 Y97.748 E51.18094
G1 X175.706 Y97.904 E51.18972
G1 X176.119 Y98.539 E51.22279
G1 X176.462 Y99.214 E51.25584
G1 X176.733 Y99.922 E51.28893
G1 X176.927 Y100.654 E51.32199
G1 X177.043 Y101.402 E51.35504
G1 X177.08 Y102.127 E51.38673
G1 X177.08 Y103.723 E51.4564
G1 X177.04 Y104.479 E51.48945
G1 X176.921 Y105.227 E51.52251
G1 X176.723 Y105.958 E51.55557
G1 X176.449 Y106.665 E51.58867
G1 X176.103 Y107.338 E51.62171
G1 X175.687 Y107.971 E51.65477
G1 X174.978 Y108.796 E51.70226
G1 X174.884 Y108.89 E51.70806
G1 X175.472 Y109.276 E51.73877
G1 X176.297 Y109.985 E51.78625
G1 X176.4 Y110.088 E51.79261
G1 X176.907 Y110.651 E51.82569
G1 X177.351 Y111.264 E51.85873
G1 X177.729 Y111.921 E51.89182
G1 X178.035 Y112.613 E51.92485
